mxf_i1iO.ti3
CTI3

DESCRIPTOR "Measurement data converted from i1Profiler CxF"
ORIGINATOR "ChromIQ"
KEYWORD "TARGET_INSTRUMENT"
TARGET_INSTRUMENT "i1iO 2"
KEYWORD "CHROMIQ_MEASURED"
CHROMIQ_MEASURED "2014-09-18"
DEVICE_CLASS "OUTPUT"
COLOR_REP "iRGB_XYZ"

NUMBER_OF_FIELDS 8
BEGIN_DATA_FORMAT
SAMPLE_ID SAMPLE_LOC RGB_R RGB_G RGB_B XYZ_X XYZ_Y XYZ_Z
END_DATA_FORMAT

NUMBER_OF_SETS 2033
BEGIN_DATA
1 "1" 0.0000 0.0000 0.0000 3.3922 3.5175 2.3281
2 "2" 9.0196 0.0000 0.0000 4.6803 4.2103 2.3630
3 "3" 18.0392 0.0000 0.0000 6.2192 4.9713 2.4160
4 "4" 27.0588 0.0000 0.0000 8.0621 5.8170 2.3954
5 "5" 36.0784 0.0000 0.0000 9.9065 6.6855 2.3960
6 "6" 45.0980 0.0000 0.0000 12.1058 7.7390 2.4532
7 "7" 54.5098 0.0000 0.0000 14.1301 8.6712 2.4269
8 "8" 63.5294 0.0000 0.0000 16.7245 9.8629 2.4533
9 "9" 72.5490 0.0000 0.0000 19.6139 11.1190 2.3327
10 "10" 81.5686 0.0000 0.0000 23.1684 12.9885 2.5354
11 "11" 90.5882 0.0000 0.0000 25.0520 13.8378 2.5663
12 "12" 100.0000 0.0000 0.0000 26.7087 14.4624 2.5095
13 "13" 0.0000 8.2353 0.0000 3.4717 4.3047 2.5130
14 "14" 9.0196 8.2353 0.0000 4.7617 4.9832 2.6011
15 "15" 18.0392 8.2353 0.0000 6.1901 5.7276 2.5821
16 "16" 27.0588 8.2353 0.0000 8.8675 7.4180 2.7095
17 "17" 36.0784 8.2353 0.0000 11.0242 8.5847 2.7432
18 "18" 45.0980 8.2353 0.0000 13.7152 10.1580 2.9870
19 "19" 54.5098 8.2353 0.0000 16.3198 11.6008 3.0611
20 "20" 63.5294 8.2353 0.0000 21.2202 14.9300 3.6174
21 "21" 72.5490 8.2353 0.0000 24.4359 16.4899 3.4973
22 "22" 81.5686 8.2353 0.0000 26.9076 17.5574 3.4107
23 "23" 90.5882 8.2353 0.0000 29.3392 18.8847 3.3998
24 "24" 100.0000 8.2353 0.0000 32.2130 20.5825 3.5038
25 "25" 0.0000 16.4706 0.0000 4.5248 6.4068 3.3779
26 "26" 9.0196 16.4706 0.0000 6.5224 7.7158 3.5498
27 "27" 18.0392 16.4706 0.0000 7.9390 8.6114 3.4924
28 "28" 27.0588 16.4706 0.0000 10.7510 10.5404 3.7302
29 "29" 36.0784 16.4706 0.0000 13.5048 12.6670 3.7636
30 "30" 45.0980 16.4706 0.0000 16.9433 14.8302 3.8915
31 "31" 54.5098 16.4706 0.0000 20.2813 17.0113 4.0742
32 "32" 63.5294 16.4706 0.0000 23.7845 19.1278 4.0332
33 "33" 72.5490 16.4706 0.0000 27.1344 21.0205 4.0848
34 "34" 81.5686 16.4706 0.0000 30.6482 22.9319 4.0940
35 "35" 90.5882 16.4706 0.0000 33.8591 25.0558 4.0627
36 "36" 100.0000 16.4706 0.0000 37.1628 27.2137 4.3537
37 "37" 0.0000 24.7059 0.0000 5.0440 7.7979 3.8663
38 "38" 9.0196 24.7059 0.0000 7.3983 9.6332 3.9406
39 "39" 18.0392 24.7059 0.0000 10.3692 12.1394 4.3044
40 "40" 27.0588 24.7059 0.0000 12.8053 13.9410 4.3480
41 "41" 36.0784 24.7059 0.0000 15.3528 15.5673 4.4447
42 "42" 45.0980 24.7059 0.0000 18.4896 17.4692 4.2928
43 "43" 54.5098 24.7059 0.0000 21.6343 19.4404 4.2003
44 "44" 63.5294 24.7059 0.0000 25.8274 22.3832 4.3060
45 "45" 72.5490 24.7059 0.0000 29.3977 24.5004 4.3008
46 "46" 81.5686 24.7059 0.0000 34.2198 27.8051 4.4558
47 "47" 90.5882 24.7059 0.0000 38.2128 30.9480 4.7720
48 "48" 100.0000 24.7059 0.0000 41.5197 33.3487 4.7574
49 "49" 0.0000 33.3333 0.0000 5.9576 9.6801 4.4616
50 "50" 9.0196 33.3333 0.0000 8.2160 11.6976 4.4139
51 "51" 18.0392 33.3333 0.0000 10.9277 13.8969 4.6093
52 "52" 27.0588 33.3333 0.0000 13.6041 15.7129 4.6419
53 "53" 36.0784 33.3333 0.0000 16.7250 18.0316 4.5281
54 "54" 45.0980 33.3333 0.0000 20.1064 20.4902 4.7095
55 "55" 54.5098 33.3333 0.0000 23.5768 22.8361 4.8378
56 "56" 63.5294 33.3333 0.0000 27.7824 25.9229 4.9659
57 "57" 72.5490 33.3333 0.0000 32.4851 29.1432 5.0798
58 "58" 81.5686 33.3333 0.0000 37.4322 32.9761 5.1093
59 "59" 90.5882 33.3333 0.0000 41.3823 35.9421 5.1423
60 "60" 100.0000 33.3333 0.0000 44.9289 38.2725 5.2517
61 "61" 0.0000 41.5686 0.0000 6.3660 11.1615 4.6850
62 "62" 9.0196 41.5686 0.0000 9.8372 14.5792 4.9148
63 "63" 18.0392 41.5686 0.0000 13.4123 17.6173 5.0866
64 "64" 27.0588 41.5686 0.0000 15.5969 19.0335 5.0059
65 "65" 36.0784 41.5686 0.0000 19.0898 22.2712 5.2856
66 "66" 45.0980 41.5686 0.0000 22.2594 24.5773 5.0102
67 "67" 54.5098 41.5686 0.0000 26.9806 28.4367 5.2170
68 "68" 63.5294 41.5686 0.0000 31.1283 31.1886 5.2129
69 "69" 72.5490 41.5686 0.0000 36.2575 35.0295 5.3904
70 "70" 81.5686 41.5686 0.0000 40.4847 37.7571 5.4228
71 "71" 90.5882 41.5686 0.0000 44.1489 40.3113 5.6322
72 "72" 100.0000 41.5686 0.0000 47.8300 42.8885 5.7677
73 "73" 0.0000 49.8039 0.0000 6.5719 12.5968 5.0727
74 "74" 9.0196 49.8039 0.0000 10.6822 16.9918 5.3376
75 "75" 18.0392 49.8039 0.0000 14.8032 20.7872 5.2966
76 "76" 27.0588 49.8039 0.0000 17.5815 22.9066 5.5331
77 "77" 36.0784 49.8039 0.0000 21.6956 27.1665 5.7117
78 "78" 45.0980 49.8039 0.0000 25.5206 30.2960 5.8920
79 "79" 54.5098 49.8039 0.0000 29.7541 33.7752 6.1044
80 "80" 63.5294 49.8039 0.0000 35.0937 38.0338 6.1270
81 "81" 72.5490 49.8039 0.0000 40.7009 42.3786 6.3761
82 "82" 81.5686 49.8039 0.0000 45.4134 45.3352 6.3394
83 "83" 90.5882 49.8039 0.0000 48.0041 46.4031 6.0736
84 "84" 100.0000 49.8039 0.0000 52.0900 49.3847 6.1248
85 "85" 0.0000 58.0392 0.0000 6.6807 13.6953 5.2025
86 "86" 9.0196 58.0392 0.0000 12.1930 19.9374 5.6264
87 "87" 18.0392 58.0392 0.0000 17.0791 24.4971 5.9732
88 "88" 27.0588 58.0392 0.0000 19.8328 27.0358 5.9088
89 "89" 36.0784 58.0392 0.0000 22.9421 29.7600 5.9568
90 "90" 45.0980 58.0392 0.0000 26.5295 32.7491 6.1409
91 "91" 54.5098 58.0392 0.0000 31.1173 36.6824 6.3339
92 "92" 63.5294 58.0392 0.0000 36.5845 41.2457 6.4447
93 "93" 72.5490 58.0392 0.0000 42.8456 46.1838 6.7607
94 "94" 81.5686 58.0392 0.0000 48.0539 50.0319 6.8659
95 "95" 90.5882 58.0392 0.0000 51.2493 51.7596 6.9536
96 "96" 100.0000 58.0392 0.0000 56.2004 55.9877 6.8553
97 "97" 0.0000 66.6667 0.0000 7.7963 15.6002 5.8773
98 "98" 9.0196 66.6667 0.0000 13.1658 21.3913 6.2259
99 "99" 18.0392 66.6667 0.0000 18.4419 26.8107 6.1722
100 "100" 27.0588 66.6667 0.0000 21.7873 30.0051 6.3305
101 "101" 36.0784 66.6667 0.0000 26.6296 34.6279 6.6675
102 "102" 45.0980 66.6667 0.0000 30.2345 37.6852 6.6777
103 "103" 54.5098 66.6667 0.0000 34.7383 41.6599 6.8137
104 "104" 63.5294 66.6667 0.0000 39.4926 45.5083 6.7034
105 "105" 72.5490 66.6667 0.0000 45.0755 50.2941 6.9222
106 "106" 81.5686 66.6667 0.0000 51.8361 55.8312 7.3085
107 "107" 90.5882 66.6667 0.0000 55.9052 58.8472 7.2140
108 "108" 100.0000 66.6667 0.0000 59.1800 60.9332 7.1948
109 "109" 0.0000 74.9020 0.0000 7.3365 15.5242 5.5640
110 "110" 9.0196 74.9020 0.0000 13.5470 22.5404 6.1033
111 "111" 18.0392 74.9020 0.0000 19.2979 28.4714 6.3743
112 "112" 27.0588 74.9020 0.0000 23.9741 33.0112 6.7179
113 "113" 36.0784 74.9020 0.0000 29.2584 38.2619 6.9956
114 "114" 45.0980 74.9020 0.0000 33.1128 41.6911 6.9672
115 "115" 54.5098 74.9020 0.0000 37.6321 45.5199 7.2970
116 "116" 63.5294 74.9020 0.0000 42.4681 49.7772 7.4619
117 "117" 72.5490 74.9020 0.0000 48.3156 54.6906 7.2640
118 "118" 81.5686 74.9020 0.0000 54.0954 59.2107 7.4779
119 "119" 90.5882 74.9020 0.0000 57.2668 61.2227 7.2436
120 "120" 100.0000 74.9020 0.0000 61.1509 64.1436 7.2186
121 "121" 0.0000 83.1373 0.0000 7.6367 16.0242 5.8263
122 "122" 9.0196 83.1373 0.0000 14.7200 24.4128 6.2014
123 "123" 18.0392 83.1373 0.0000 21.4118 31.3329 6.4013
124 "124" 27.0588 83.1373 0.0000 25.3672 35.1712 6.7755
125 "125" 36.0784 83.1373 0.0000 30.2414 39.7643 6.8795
126 "126" 45.0980 83.1373 0.0000 33.7564 42.9840 6.8546
127 "127" 54.5098 83.1373 0.0000 38.6525 47.3722 7.2523
128 "128" 63.5294 83.1373 0.0000 43.6716 51.8713 7.4579
129 "129" 72.5490 83.1373 0.0000 50.3750 57.7205 7.4150
130 "130" 81.5686 83.1373 0.0000 54.9200 61.3809 7.6734
131 "131" 90.5882 83.1373 0.0000 59.1065 64.3990 7.4923
132 "132" 100.0000 83.1373 0.0000 63.0728 67.2901 7.4421
133 "133" 0.0000 91.3725 0.0000 7.6915 16.5599 5.8112
134 "134" 9.0196 91.3725 0.0000 16.0641 26.1533 6.5799
135 "135" 18.0392 91.3725 0.0000 22.3257 32.6210 6.8975
136 "136" 27.0588 91.3725 0.0000 26.8694 37.0525 7.0596
137 "137" 36.0784 91.3725 0.0000 32.6566 42.7398 7.4975
138 "138" 45.0980 91.3725 0.0000 36.8680 46.6141 7.2470
139 "139" 54.5098 91.3725 0.0000 41.8038 51.1468 7.2394
140 "140" 63.5294 91.3725 0.0000 46.0384 54.7805 7.5086
141 "141" 72.5490 91.3725 0.0000 51.6638 59.7180 7.5544
142 "142" 81.5686 91.3725 0.0000 57.4206 64.5509 7.8058
143 "143" 90.5882 91.3725 0.0000 61.6082 68.2376 7.7628
144 "144" 100.0000 91.3725 0.0000 64.6271 70.1218 7.4712
145 "145" 0.0000 100.0000 0.0000 8.1016 17.2115 5.7601
146 "146" 9.0196 100.0000 0.0000 16.1029 26.6002 6.5119
147 "147" 18.0392 100.0000 0.0000 22.1541 32.9811 6.8541
148 "148" 27.0588 100.0000 0.0000 27.4384 38.1731 7.0889
149 "149" 36.0784 100.0000 0.0000 32.8913 43.5037 7.2614
150 "150" 45.0980 100.0000 0.0000 37.8966 48.1188 7.3824
151 "151" 54.5098 100.0000 0.0000 42.6427 52.5195 7.3625
152 "152" 63.5294 100.0000 0.0000 46.6568 56.0740 7.4981
153 "153" 72.5490 100.0000 0.0000 53.4950 62.3491 7.7085
154 "154" 81.5686 100.0000 0.0000 59.0523 67.2306 7.9956
155 "155" 90.5882 100.0000 0.0000 63.0854 70.4858 8.0592
156 "156" 100.0000 100.0000 0.0000 67.1190 73.9110 7.9558
157 "157" 0.0000 0.0000 9.0196 4.1288 3.9265 5.2734
158 "158" 9.0196 0.0000 9.0196 5.6261 4.7166 5.4152
159 "159" 18.0392 0.0000 9.0196 6.9301 5.4158 5.3752
160 "160" 27.0588 0.0000 9.0196 8.8572 6.3474 5.3745
161 "161" 36.0784 0.0000 9.0196 10.9599 7.3521 5.3087
162 "162" 45.0980 0.0000 9.0196 13.7250 8.7924 5.5025
163 "163" 54.5098 0.0000 9.0196 16.4504 10.1141 5.5228
164 "164" 63.5294 0.0000 9.0196 18.5393 10.9858 5.2845
165 "165" 72.5490 0.0000 9.0196 21.3292 12.3811 5.2673
166 "166" 81.5686 0.0000 9.0196 23.9718 13.3957 5.0289
167 "167" 90.5882 0.0000 9.0196 26.2555 14.4915 5.1242
168 "168" 100.0000 0.0000 9.0196 28.6500 15.7121 5.2758
169 "169" 0.0000 8.2353 9.0196 4.6649 5.2203 6.9579
170 "170" 9.0196 8.2353 9.0196 6.2147 6.2225 7.1658
171 "171" 18.0392 8.2353 9.0196 7.7873 7.0809 7.1132
172 "172" 27.0588 8.2353 9.0196 11.8374 10.0295 7.5107
173 "173" 36.0784 8.2353 9.0196 14.1735 11.3172 7.5396
174 "174" 45.0980 8.2353 9.0196 16.6225 12.6132 7.2646
175 "175" 54.5098 8.2353 9.0196 19.1413 13.9026 7.0995
176 "176" 63.5294 8.2353 9.0196 22.3670 15.7445 7.1314
177 "177" 72.5490 8.2353 9.0196 25.7890 17.7272 7.1043
178 "178" 81.5686 8.2353 9.0196 29.5308 19.8789 7.0287
179 "179" 90.5882 8.2353 9.0196 32.2801 21.5360 7.0751
180 "180" 100.0000 8.2353 9.0196 35.0793 23.2432 7.1896
181 "181" 0.0000 16.4706 9.0196 5.8404 7.6283 8.3017
182 "182" 9.0196 16.4706 9.0196 8.4185 9.6794 9.1510
183 "183" 18.0392 16.4706 9.0196 10.4439 11.0997 9.3884
184 "184" 27.0588 16.4706 9.0196 13.1391 12.7793 8.8089
185 "185" 36.0784 16.4706 9.0196 15.7480 14.5295 8.9587
186 "186" 45.0980 16.4706 9.0196 18.7513 16.3416 8.9247
187 "187" 54.5098 16.4706 9.0196 22.0769 18.5962 9.0222
188 "188" 63.5294 16.4706 9.0196 26.2827 21.1901 8.9462
189 "189" 72.5490 16.4706 9.0196 30.6670 24.5336 9.1605
190 "190" 81.5686 16.4706 9.0196 34.9690 27.4016 8.9465
191 "191" 90.5882 16.4706 9.0196 38.3678 29.7452 8.9265
192 "192" 100.0000 16.4706 9.0196 41.5838 32.0592 9.5180
193 "193" 0.0000 24.7059 9.0196 7.0704 9.8286 10.0390
194 "194" 9.0196 24.7059 9.0196 9.7511 12.0385 10.1205
195 "195" 18.0392 24.7059 9.0196 11.8380 13.4896 9.9835
196 "196" 27.0588 24.7059 9.0196 14.2713 15.1970 10.0146
197 "197" 36.0784 24.7059 9.0196 17.0736 17.1707 9.7660
198 "198" 45.0980 24.7059 9.0196 20.8973 19.9487 9.8440
199 "199" 54.5098 24.7059 9.0196 25.2005 23.1247 10.0130
200 "200" 63.5294 24.7059 9.0196 29.6911 26.2605 9.9990
201 "201" 72.5490 24.7059 9.0196 33.6339 29.0334 9.9627
202 "202" 81.5686 24.7059 9.0196 37.5933 31.5866 9.9165
203 "203" 90.5882 24.7059 9.0196 40.8530 33.6444 9.8395
204 "204" 100.0000 24.7059 9.0196 43.7999 35.5356 9.9725
205 "205" 0.0000 33.3333 9.0196 7.3164 11.0963 10.9484
206 "206" 9.0196 33.3333 9.0196 10.5712 13.9790 11.1437
207 "207" 18.0392 33.3333 9.0196 13.2466 16.0174 11.3377
208 "208" 27.0588 33.3333 9.0196 15.7415 17.8808 11.2368
209 "209" 36.0784 33.3333 9.0196 18.6477 20.2288 11.0589
210 "210" 45.0980 33.3333 9.0196 23.8352 24.5282 11.3813
211 "211" 54.5098 33.3333 9.0196 27.4799 26.9044 11.4100
212 "212" 63.5294 33.3333 9.0196 31.8414 29.9598 11.2591
213 "213" 72.5490 33.3333 9.0196 36.6505 33.7750 11.1777
214 "214" 81.5686 33.3333 9.0196 41.1899 37.0039 10.8619
215 "215" 90.5882 33.3333 9.0196 44.7408 39.4644 10.7083
216 "216" 100.0000 33.3333 9.0196 47.7023 41.5109 10.9894
217 "217" 0.0000 41.5686 9.0196 7.8232 12.7627 11.5971
218 "218" 9.0196 41.5686 9.0196 11.6737 16.5741 11.6924
219 "219" 18.0392 41.5686 9.0196 15.9138 20.4495 12.1045
220 "220" 27.0588 41.5686 9.0196 18.9064 22.6988 12.0345
221 "221" 36.0784 41.5686 9.0196 22.1144 25.5276 12.3173
222 "222" 45.0980 41.5686 9.0196 25.5158 28.0509 12.2336
223 "223" 54.5098 41.5686 9.0196 29.4049 30.7013 12.5329
224 "224" 63.5294 41.5686 9.0196 33.6844 33.6644 12.2324
225 "225" 72.5490 41.5686 9.0196 39.0659 37.9457 12.1923
226 "226" 81.5686 41.5686 9.0196 43.9014 41.5217 12.2617
227 "227" 90.5882 41.5686 9.0196 47.7159 44.1611 11.9094
228 "228" 100.0000 41.5686 9.0196 50.4301 45.7824 11.7542
229 "229" 0.0000 49.8039 9.0196 8.1902 14.5733 11.8922
230 "230" 9.0196 49.8039 9.0196 12.9481 19.5394 12.7499
231 "231" 18.0392 49.8039 9.0196 17.6456 23.8222 12.9994
232 "232" 27.0588 49.8039 9.0196 20.7791 26.6647 13.0637
233 "233" 36.0784 49.8039 9.0196 24.2849 29.8223 13.0064
234 "234" 45.0980 49.8039 9.0196 28.0980 32.9407 13.4666
235 "235" 54.5098 49.8039 9.0196 31.3974 35.4782 13.2803
236 "236" 63.5294 49.8039 9.0196 36.9991 39.9039 13.4390
237 "237" 72.5490 49.8039 9.0196 41.8781 43.4338 12.8713
238 "238" 81.5686 49.8039 9.0196 47.8573 48.0604 12.8947
239 "239" 90.5882 49.8039 9.0196 51.9182 50.8736 13.0289
240 "240" 100.0000 49.8039 9.0196 55.0720 52.8649 12.7971
241 "241" 0.0000 58.0392 9.0196 8.6714 15.8857 12.3029
242 "242" 9.0196 58.0392 9.0196 13.5447 21.1175 13.0412
243 "243" 18.0392 58.0392 9.0196 17.8494 25.2513 13.1597
244 "244" 27.0588 58.0392 9.0196 21.7797 28.9912 13.2292
245 "245" 36.0784 58.0392 9.0196 26.4465 33.0822 13.7972
246 "246" 45.0980 58.0392 9.0196 30.3327 36.5904 14.3212
247 "247" 54.5098 58.0392 9.0196 34.2805 39.8810 14.4425
248 "248" 63.5294 58.0392 9.0196 40.8964 45.5776 14.4481
249 "249" 72.5490 58.0392 9.0196 46.3477 49.8525 14.1455
250 "250" 81.5686 58.0392 9.0196 50.8242 52.6866 13.7740
251 "251" 90.5882 58.0392 9.0196 53.9954 54.5245 13.1228
252 "252" 100.0000 58.0392 9.0196 58.2237 57.8923 13.6726
253 "253" 0.0000 66.6667 9.0196 9.2694 17.1011 12.9125
254 "254" 9.0196 66.6667 9.0196 15.3619 23.8261 13.6457
255 "255" 18.0392 66.6667 9.0196 20.8700 29.3974 13.7803
256 "256" 27.0588 66.6667 9.0196 24.9251 33.0883 14.1038
257 "257" 36.0784 66.6667 9.0196 28.9151 37.0346 14.1513
258 "258" 45.0980 66.6667 9.0196 33.3076 40.9754 14.8817
259 "259" 54.5098 66.6667 9.0196 37.8925 44.9929 14.7844
260 "260" 63.5294 66.6667 9.0196 42.7258 49.1353 15.0884
261 "261" 72.5490 66.6667 9.0196 47.6850 53.0206 15.0243
262 "262" 81.5686 66.6667 9.0196 53.4027 57.1287 14.8452
263 "263" 90.5882 66.6667 9.0196 56.9866 59.4923 14.1413
264 "264" 100.0000 66.6667 9.0196 60.9479 62.2589 14.4232
265 "265" 0.0000 74.9020 9.0196 9.7603 18.1974 13.3221
266 "266" 9.0196 74.9020 9.0196 15.9944 25.3672 13.7499
267 "267" 18.0392 74.9020 9.0196 22.5621 31.8587 14.5667
268 "268" 27.0588 74.9020 9.0196 26.8225 36.0649 14.4512
269 "269" 36.0784 74.9020 9.0196 31.3576 40.1579 15.0089
270 "270" 45.0980 74.9020 9.0196 35.5442 44.0189 14.8048
271 "271" 54.5098 74.9020 9.0196 39.9524 47.9130 14.9497
272 "272" 63.5294 74.9020 9.0196 43.9941 51.4198 15.2021
273 "273" 72.5490 74.9020 9.0196 49.4412 56.0765 15.2333
274 "274" 81.5686 74.9020 9.0196 55.8742 61.4742 15.2106
275 "275" 90.5882 74.9020 9.0196 60.5273 64.9453 14.7932
276 "276" 100.0000 74.9020 9.0196 64.2630 67.7977 14.7175
277 "277" 0.0000 83.1373 9.0196 9.6561 18.3998 12.9185
278 "278" 9.0196 83.1373 9.0196 16.3441 26.1770 13.9150
279 "279" 18.0392 83.1373 9.0196 22.7892 32.8778 14.2762
280 "280" 27.0588 83.1373 9.0196 27.4464 37.3943 14.7868
281 "281" 36.0784 83.1373 9.0196 33.3330 42.9073 15.1418
282 "282" 45.0980 83.1373 9.0196 37.3553 46.5386 14.9214
283 "283" 54.5098 83.1373 9.0196 41.6610 50.4510 15.4173
284 "284" 63.5294 83.1373 9.0196 46.1888 54.4354 15.6545
285 "285" 72.5490 83.1373 9.0196 51.9679 59.6441 15.7788
286 "286" 81.5686 83.1373 9.0196 58.2608 65.1163 16.1642
287 "287" 90.5882 83.1373 9.0196 62.5539 68.3399 15.4856
288 "288" 100.0000 83.1373 9.0196 66.2651 70.7709 15.6087
289 "289" 0.0000 91.3725 9.0196 9.8976 19.1177 12.8956
290 "290" 9.0196 91.3725 9.0196 17.5315 27.9033 13.5572
291 "291" 18.0392 91.3725 9.0196 24.9186 35.4884 14.1906
292 "292" 27.0588 91.3725 9.0196 29.5060 39.8967 14.6040
293 "293" 36.0784 91.3725 9.0196 34.3943 44.6154 14.7529
294 "294" 45.0980 91.3725 9.0196 38.9466 48.9009 14.8108
295 "295" 54.5098 91.3725 9.0196 44.1667 53.7059 14.9524
296 "296" 63.5294 91.3725 9.0196 48.3152 57.3040 14.7712
297 "297" 72.5490 91.3725 9.0196 54.4637 62.8705 15.4601
298 "298" 81.5686 91.3725 9.0196 59.8449 67.4448 15.6041
299 "299" 90.5882 91.3725 9.0196 63.6890 70.6061 15.8022
300 "300" 100.0000 91.3725 9.0196 67.8979 73.8056 15.6895
301 "301" 0.0000 100.0000 9.0196 9.9829 19.4219 13.3349
302 "302" 9.0196 100.0000 9.0196 17.9863 28.6904 14.1355
303 "303" 18.0392 100.0000 9.0196 25.2838 36.3060 14.3734
304 "304" 27.0588 100.0000 9.0196 30.6062 41.5222 14.6624
305 "305" 36.0784 100.0000 9.0196 35.7917 46.6300 14.9705
306 "306" 45.0980 100.0000 9.0196 40.9321 51.4874 15.5599
307 "307" 54.5098 100.0000 9.0196 45.5492 55.7682 15.2249
308 "308" 63.5294 100.0000 9.0196 50.0425 59.9202 15.6374
309 "309" 72.5490 100.0000 9.0196 55.6416 64.8080 16.2937
310 "310" 81.5686 100.0000 9.0196 60.4877 69.1473 15.7156
311 "311" 90.5882 100.0000 9.0196 65.0460 72.9578 15.5842
312 "312" 100.0000 100.0000 9.0196 69.7933 76.9506 15.9553
313 "313" 0.0000 0.0000 18.0392 4.1465 3.7664 6.8068
314 "314" 9.0196 0.0000 18.0392 5.7691 4.6538 7.0057
315 "315" 18.0392 0.0000 18.0392 7.4337 5.5919 7.2319
316 "316" 27.0588 0.0000 18.0392 9.0783 6.2398 7.0725
317 "317" 36.0784 0.0000 18.0392 11.2480 7.4709 7.2658
318 "318" 45.0980 0.0000 18.0392 13.6486 8.5403 7.3010
319 "319" 54.5098 0.0000 18.0392 16.0411 9.7452 7.4386
320 "320" 63.5294 0.0000 18.0392 19.1802 11.1907 7.3335
321 "321" 72.5490 0.0000 18.0392 22.1833 12.6505 7.3621
322 "322" 81.5686 0.0000 18.0392 25.1614 14.2098 7.5439
323 "323" 90.5882 0.0000 18.0392 27.4567 15.3560 7.6149
324 "324" 100.0000 0.0000 18.0392 30.2562 17.0177 7.6374
325 "325" 0.0000 8.2353 18.0392 5.9464 6.3495 9.8541
326 "326" 9.0196 8.2353 18.0392 7.4803 7.1086 9.6843
327 "327" 18.0392 8.2353 18.0392 8.7180 7.7088 9.4685
328 "328" 27.0588 8.2353 18.0392 11.5637 9.5720 10.0710
329 "329" 36.0784 8.2353 18.0392 14.0310 10.9794 9.9648
330 "330" 45.0980 8.2353 18.0392 17.1097 12.8799 10.0115
331 "331" 54.5098 8.2353 18.0392 20.4734 14.9704 10.3663
332 "332" 63.5294 8.2353 18.0392 23.9849 16.9428 10.3319
333 "333" 72.5490 8.2353 18.0392 26.8263 18.3750 10.1253
334 "334" 81.5686 8.2353 18.0392 30.6376 20.6485 10.3038
335 "335" 90.5882 8.2353 18.0392 33.5314 22.2882 10.5100
336 "336" 100.0000 8.2353 18.0392 36.1171 23.9135 10.6349
337 "337" 0.0000 16.4706 18.0392 6.5105 7.9803 12.0028
338 "338" 9.0196 16.4706 18.0392 8.7511 9.4588 12.1382
339 "339" 18.0392 16.4706 18.0392 10.3837 10.6088 12.3447
340 "340" 27.0588 16.4706 18.0392 13.5243 12.6799 12.3058
341 "341" 36.0784 16.4706 18.0392 16.7821 15.0743 12.6525
342 "342" 45.0980 16.4706 18.0392 20.2012 17.4038 12.8105
343 "343" 54.5098 16.4706 18.0392 24.7963 20.9658 13.5304
344 "344" 63.5294 16.4706 18.0392 28.7065 23.5821 13.6079
345 "345" 72.5490 16.4706 18.0392 32.3599 25.8887 13.6248
346 "346" 81.5686 16.4706 18.0392 36.0222 27.9555 13.0616
347 "347" 90.5882 16.4706 18.0392 38.9526 29.9392 13.2161
348 "348" 100.0000 16.4706 18.0392 41.7779 31.7953 13.2013
349 "349" 0.0000 24.7059 18.0392 7.0849 9.5288 13.1466
350 "350" 9.0196 24.7059 18.0392 9.8453 11.8098 13.7206
351 "351" 18.0392 24.7059 18.0392 12.6907 14.0378 14.1899
352 "352" 27.0588 24.7059 18.0392 15.4683 16.1029 14.2730
353 "353" 36.0784 24.7059 18.0392 18.8451 18.6103 14.2986
354 "354" 45.0980 24.7059 18.0392 22.0079 20.7095 14.7240
355 "355" 54.5098 24.7059 18.0392 25.9031 23.4365 14.8759
356 "356" 63.5294 24.7059 18.0392 30.2939 26.4296 14.9314
357 "357" 72.5490 24.7059 18.0392 34.8814 29.6490 15.2362
358 "358" 81.5686 24.7059 18.0392 39.0929 32.7091 15.2717
359 "359" 90.5882 24.7059 18.0392 41.6793 33.9955 14.8999
360 "360" 100.0000 24.7059 18.0392 45.1492 36.4322 14.9426
361 "361" 0.0000 33.3333 18.0392 7.9444 11.3900 15.0849
362 "362" 9.0196 33.3333 18.0392 11.6547 14.7618 15.6110
363 "363" 18.0392 33.3333 18.0392 14.7108 17.2260 15.9235
364 "364" 27.0588 33.3333 18.0392 17.3942 19.1494 15.9736
365 "365" 36.0784 33.3333 18.0392 20.7080 21.8691 16.2454
366 "366" 45.0980 33.3333 18.0392 24.7443 24.9645 16.3176
367 "367" 54.5098 33.3333 18.0392 28.9036 28.0355 16.4370
368 "368" 63.5294 33.3333 18.0392 32.7705 30.4216 16.1053
369 "369" 72.5490 33.3333 18.0392 37.0604 33.8085 16.3819
370 "370" 81.5686 33.3333 18.0392 42.5808 37.8512 16.6856
371 "371" 90.5882 33.3333 18.0392 45.9312 40.3612 16.3698
372 "372" 100.0000 33.3333 18.0392 48.8043 42.2517 15.9610
373 "373" 0.0000 41.5686 18.0392 8.5196 13.2059 16.0156
374 "374" 9.0196 41.5686 18.0392 12.3896 16.8755 16.7059
375 "375" 18.0392 41.5686 18.0392 16.2048 20.1485 17.3494
376 "376" 27.0588 41.5686 18.0392 19.1243 22.4395 17.5106
377 "377" 36.0784 41.5686 18.0392 23.0458 25.6953 17.9695
378 "378" 45.0980 41.5686 18.0392 26.3045 28.2490 18.1885
379 "379" 54.5098 41.5686 18.0392 31.1134 31.9453 18.1976
380 "380" 63.5294 41.5686 18.0392 35.5898 35.2648 18.0689
381 "381" 72.5490 41.5686 18.0392 40.9106 39.7984 18.0927
382 "382" 81.5686 41.5686 18.0392 45.4852 43.0496 17.9352
383 "383" 90.5882 41.5686 18.0392 49.6325 45.7472 17.9302
384 "384" 100.0000 41.5686 18.0392 53.2100 48.5676 17.6694
385 "385" 0.0000 49.8039 18.0392 9.7233 15.8184 17.8970
386 "386" 9.0196 49.8039 18.0392 14.3183 20.4949 18.6384
387 "387" 18.0392 49.8039 18.0392 18.2339 24.2233 18.6418
388 "388" 27.0588 49.8039 18.0392 21.8102 27.4163 19.2267
389 "389" 36.0784 49.8039 18.0392 25.5442 30.7237 19.4984
390 "390" 45.0980 49.8039 18.0392 29.8600 34.5888 19.6264
391 "391" 54.5098 49.8039 18.0392 34.0445 37.7488 19.9740
392 "392" 63.5294 49.8039 18.0392 38.9471 41.5764 19.7468
393 "393" 72.5490 49.8039 18.0392 43.5212 44.9307 19.5138
394 "394" 81.5686 49.8039 18.0392 48.5976 48.1101 19.8157
395 "395" 90.5882 49.8039 18.0392 53.0164 51.4291 19.9109
396 "396" 100.0000 49.8039 18.0392 56.7776 54.0748 19.6765
397 "397" 0.0000 58.0392 18.0392 9.9752 16.9385 18.6170
398 "398" 9.0196 58.0392 18.0392 15.3755 22.6896 19.8075
399 "399" 18.0392 58.0392 18.0392 20.2873 27.4590 20.3122
400 "400" 27.0588 58.0392 18.0392 25.0853 31.8675 20.6914
401 "401" 36.0784 58.0392 18.0392 29.3350 35.7569 21.2518
402 "402" 45.0980 58.0392 18.0392 32.4973 38.1526 20.9629
403 "403" 54.5098 58.0392 18.0392 36.2219 41.3970 20.6136
404 "404" 63.5294 58.0392 18.0392 41.6686 45.9611 21.6880
405 "405" 72.5490 58.0392 18.0392 46.6281 49.6174 21.0904
406 "406" 81.5686 58.0392 18.0392 52.2516 53.6708 20.8964
407 "407" 90.5882 58.0392 18.0392 57.0340 57.3843 20.9864
408 "408" 100.0000 58.0392 18.0392 59.8750 59.2436 20.2435
409 "409" 0.0000 66.6667 18.0392 10.6215 18.3470 18.9959
410 "410" 9.0196 66.6667 18.0392 16.4695 24.7312 20.2781
411 "411" 18.0392 66.6667 18.0392 22.8388 31.0785 21.1814
412 "412" 27.0588 66.6667 18.0392 26.1685 34.1352 21.0314
413 "413" 36.0784 66.6667 18.0392 30.5441 38.1433 21.6875
414 "414" 45.0980 66.6667 18.0392 34.3081 41.2383 21.6933
415 "415" 54.5098 66.6667 18.0392 38.1318 44.7386 22.1210
416 "416" 63.5294 66.6667 18.0392 43.8506 49.5879 22.5006
417 "417" 72.5490 66.6667 18.0392 50.1197 54.7970 23.2201
418 "418" 81.5686 66.6667 18.0392 55.6029 59.1156 22.4411
419 "419" 90.5882 66.6667 18.0392 61.2151 63.9730 23.4555
420 "420" 100.0000 66.6667 18.0392 64.4252 65.9583 22.7551
421 "421" 0.0000 74.9020 18.0392 11.0281 19.1140 19.7757
422 "422" 9.0196 74.9020 18.0392 17.1660 25.9856 20.4438
423 "423" 18.0392 74.9020 18.0392 23.6987 32.6664 21.0750
