mxf_i1iSis.ti3
CTI3

DESCRIPTOR "Measurement data converted from i1Profiler CxF"
ORIGINATOR "ChromIQ"
KEYWORD "TARGET_INSTRUMENT"
TARGET_INSTRUMENT "i1iSis XL"
KEYWORD "CHROMIQ_MEASURED"
CHROMIQ_MEASURED "2015-01-07"
DEVICE_CLASS "OUTPUT"
COLOR_REP "iRGB_XYZ"

NUMBER_OF_FIELDS 8
BEGIN_DATA_FORMAT
SAMPLE_ID SAMPLE_LOC RGB_R RGB_G RGB_B XYZ_X XYZ_Y XYZ_Z
END_DATA_FORMAT

NUMBER_OF_SETS 2033
BEGIN_DATA
1 "1" 0.0000 0.0000 0.0000 2.3320 2.3829 1.8155
2 "2" 9.0196 0.0000 0.0000 2.9838 2.9161 2.1455
3 "3" 18.0392 0.0000 0.0000 4.0918 3.7468 2.6086
4 "4" 27.0588 0.0000 0.0000 5.0099 4.2887 2.6894
5 "5" 36.0784 0.0000 0.0000 6.0887 4.9134 2.7244
6 "6" 45.0980 0.0000 0.0000 7.3456 5.6162 2.8001
7 "7" 54.5098 0.0000 0.0000 9.0782 6.5359 2.9112
8 "8" 63.5294 0.0000 0.0000 11.6636 7.8168 3.0377
9 "9" 72.5490 0.0000 0.0000 15.3615 9.6467 3.2675
10 "10" 81.5686 0.0000 0.0000 20.9551 12.3736 3.5840
11 "11" 90.5882 0.0000 0.0000 26.8839 15.1678 3.9468
12 "12" 100.0000 0.0000 0.0000 35.8952 19.6918 4.6702
13 "13" 0.0000 8.2353 0.0000 2.8525 2.9980 2.2477
14 "14" 9.0196 8.2353 0.0000 3.2926 3.3764 2.3499
15 "15" 18.0392 8.2353 0.0000 4.1899 4.0550 2.5818
16 "16" 27.0588 8.2353 0.0000 5.0705 4.6105 2.6399
17 "17" 36.0784 8.2353 0.0000 6.2972 5.3600 2.6855
18 "18" 45.0980 8.2353 0.0000 7.7391 6.2153 2.7089
19 "19" 54.5098 8.2353 0.0000 9.9796 7.5004 2.8410
20 "20" 63.5294 8.2353 0.0000 12.9474 9.0342 2.8368
21 "21" 72.5490 8.2353 0.0000 16.4967 10.8055 2.9699
22 "22" 81.5686 8.2353 0.0000 21.7510 13.2999 3.1342
23 "23" 90.5882 8.2353 0.0000 26.9274 15.5017 3.2732
24 "24" 100.0000 8.2353 0.0000 35.2843 19.3295 3.9389
25 "25" 0.0000 16.4706 0.0000 3.3694 3.8619 2.8942
26 "26" 9.0196 16.4706 0.0000 3.5082 3.9098 2.6101
27 "27" 18.0392 16.4706 0.0000 4.2934 4.4424 2.6280
28 "28" 27.0588 16.4706 0.0000 5.4979 5.3351 2.7711
29 "29" 36.0784 16.4706 0.0000 6.8977 6.2840 2.8414
30 "30" 45.0980 16.4706 0.0000 8.5026 7.2903 2.9087
31 "31" 54.5098 16.4706 0.0000 10.7913 8.5984 2.8849
32 "32" 63.5294 16.4706 0.0000 14.0005 10.3907 2.9120
33 "33" 72.5490 16.4706 0.0000 18.7046 12.8989 3.0061
34 "34" 81.5686 16.4706 0.0000 24.1457 15.4422 2.9795
35 "35" 90.5882 16.4706 0.0000 29.5836 17.6233 3.0127
36 "36" 100.0000 16.4706 0.0000 36.7081 20.3368 3.1664
37 "37" 0.0000 24.7059 0.0000 3.5635 4.4541 3.1835
38 "38" 9.0196 24.7059 0.0000 3.7164 4.5251 2.9409
39 "39" 18.0392 24.7059 0.0000 4.4432 5.0936 2.8598
40 "40" 27.0588 24.7059 0.0000 5.9045 6.1910 2.9533
41 "41" 36.0784 24.7059 0.0000 7.6409 7.5755 3.1021
42 "42" 45.0980 24.7059 0.0000 9.8759 9.1126 3.2121
43 "43" 54.5098 24.7059 0.0000 12.4904 10.6412 3.1599
44 "44" 63.5294 24.7059 0.0000 15.8669 12.5944 3.1514
45 "45" 72.5490 24.7059 0.0000 19.9285 14.6139 3.0471
46 "46" 81.5686 24.7059 0.0000 25.3720 17.2588 2.9442
47 "47" 90.5882 24.7059 0.0000 32.3373 20.3713 2.8787
48 "48" 100.0000 24.7059 0.0000 41.9688 24.3601 3.0159
49 "49" 0.0000 33.3333 0.0000 3.7109 4.9501 3.3813
50 "50" 9.0196 33.3333 0.0000 3.8964 5.1576 3.1716
51 "51" 18.0392 33.3333 0.0000 4.5132 5.7521 3.0583
52 "52" 27.0588 33.3333 0.0000 6.3986 7.3806 3.1955
53 "53" 36.0784 33.3333 0.0000 8.1127 8.6515 3.2137
54 "54" 45.0980 33.3333 0.0000 10.8588 10.9067 3.3640
55 "55" 54.5098 33.3333 0.0000 13.9048 12.9202 3.3432
56 "56" 63.5294 33.3333 0.0000 17.4467 14.8737 3.3012
57 "57" 72.5490 33.3333 0.0000 21.9653 17.2556 3.1788
58 "58" 81.5686 33.3333 0.0000 28.2766 20.5135 3.0787
59 "59" 90.5882 33.3333 0.0000 36.7363 24.7564 3.0622
60 "60" 100.0000 33.3333 0.0000 49.6895 30.7942 3.0821
61 "61" 0.0000 41.5686 0.0000 3.9383 5.5899 3.8104
62 "62" 9.0196 41.5686 0.0000 4.1652 5.9062 3.5424
63 "63" 18.0392 41.5686 0.0000 4.6695 6.4390 3.3065
64 "64" 27.0588 41.5686 0.0000 6.5149 8.4623 3.4304
65 "65" 36.0784 41.5686 0.0000 9.2561 10.7766 3.5278
66 "66" 45.0980 41.5686 0.0000 11.9100 12.8391 3.6219
67 "67" 54.5098 41.5686 0.0000 15.0942 15.1797 3.6000
68 "68" 63.5294 41.5686 0.0000 18.7124 17.3023 3.5518
69 "69" 72.5490 41.5686 0.0000 23.3874 19.9151 3.4222
70 "70" 81.5686 41.5686 0.0000 30.5994 23.8768 3.2946
71 "71" 90.5882 41.5686 0.0000 40.1875 29.1054 3.1676
72 "72" 100.0000 41.5686 0.0000 56.3767 37.7663 3.2042
73 "73" 0.0000 49.8039 0.0000 3.9754 6.1526 4.0649
74 "74" 9.0196 49.8039 0.0000 4.3484 6.8364 3.8349
75 "75" 18.0392 49.8039 0.0000 4.8941 7.4252 3.6063
76 "76" 27.0588 49.8039 0.0000 6.7677 9.7354 3.7570
77 "77" 36.0784 49.8039 0.0000 9.3676 12.2023 3.7875
78 "78" 45.0980 49.8039 0.0000 12.8269 15.0367 3.8333
79 "79" 54.5098 49.8039 0.0000 16.3661 17.8201 3.8518
80 "80" 63.5294 49.8039 0.0000 19.8329 20.0245 3.7171
81 "81" 72.5490 49.8039 0.0000 24.7585 23.0039 3.5988
82 "82" 81.5686 49.8039 0.0000 32.2192 27.4196 3.4465
83 "83" 90.5882 49.8039 0.0000 43.3016 34.0778 3.3958
84 "84" 100.0000 49.8039 0.0000 61.1863 45.3902 3.5531
85 "85" 0.0000 58.0392 0.0000 4.2210 7.1367 4.6091
86 "86" 9.0196 58.0392 0.0000 4.5907 7.9097 4.2344
87 "87" 18.0392 58.0392 0.0000 5.2257 8.7481 3.9432
88 "88" 27.0588 58.0392 0.0000 6.9593 11.0120 4.0069
89 "89" 36.0784 58.0392 0.0000 9.5411 13.7606 4.1280
90 "90" 45.0980 58.0392 0.0000 13.0826 16.7287 4.1135
91 "91" 54.5098 58.0392 0.0000 16.6232 19.4732 4.0069
92 "92" 63.5294 58.0392 0.0000 20.9524 22.7470 3.9824
93 "93" 72.5490 58.0392 0.0000 26.1851 26.4489 3.7911
94 "94" 81.5686 58.0392 0.0000 34.8012 32.3836 3.7889
95 "95" 90.5882 58.0392 0.0000 46.9297 40.6564 3.8361
96 "96" 100.0000 58.0392 0.0000 64.8038 52.2272 3.9236
97 "97" 0.0000 66.6667 0.0000 4.6365 8.6087 5.4088
98 "98" 9.0196 66.6667 0.0000 4.8461 9.1047 4.6749
99 "99" 18.0392 66.6667 0.0000 5.5602 10.2192 4.4109
100 "100" 27.0588 66.6667 0.0000 6.9342 12.0939 4.2089
101 "101" 36.0784 66.6667 0.0000 9.3620 15.0650 4.2285
102 "102" 45.0980 66.6667 0.0000 13.0083 18.3455 4.2414
103 "103" 54.5098 66.6667 0.0000 16.7762 21.5146 4.1499
104 "104" 63.5294 66.6667 0.0000 21.0462 24.8720 4.0582
105 "105" 72.5490 66.6667 0.0000 26.7407 29.2655 4.0280
106 "106" 81.5686 66.6667 0.0000 36.0854 36.3853 3.9971
107 "107" 90.5882 66.6667 0.0000 49.7870 46.5254 4.1820
108 "108" 100.0000 66.6667 0.0000 67.0653 58.6378 4.2174
109 "109" 0.0000 74.9020 0.0000 5.1369 10.3163 6.6970
110 "110" 9.0196 74.9020 0.0000 5.2186 10.5639 5.4388
111 "111" 18.0392 74.9020 0.0000 5.7347 11.5298 4.8950
112 "112" 27.0588 74.9020 0.0000 7.0026 13.5795 4.5845
113 "113" 36.0784 74.9020 0.0000 9.3203 16.5653 4.5508
114 "114" 45.0980 74.9020 0.0000 12.8719 20.1896 4.5111
115 "115" 54.5098 74.9020 0.0000 17.2350 24.3135 4.3901
116 "116" 63.5294 74.9020 0.0000 22.0785 28.4969 4.3072
117 "117" 72.5490 74.9020 0.0000 28.4293 33.5096 4.2540
118 "118" 81.5686 74.9020 0.0000 38.5500 41.7943 4.3294
119 "119" 90.5882 74.9020 0.0000 52.2559 52.9222 4.5124
120 "120" 100.0000 74.9020 0.0000 69.5741 65.5369 4.6164
121 "121" 0.0000 83.1373 0.0000 6.8457 14.5135 9.3765
122 "122" 9.0196 83.1373 0.0000 6.8561 14.4057 7.5438
123 "123" 18.0392 83.1373 0.0000 6.9123 14.9600 6.1507
124 "124" 27.0588 83.1373 0.0000 7.8125 16.4088 5.3986
125 "125" 36.0784 83.1373 0.0000 9.6335 18.9550 5.0659
126 "126" 45.0980 83.1373 0.0000 13.0052 22.9014 4.8430
127 "127" 54.5098 83.1373 0.0000 17.7801 27.8998 4.7359
128 "128" 63.5294 83.1373 0.0000 22.9939 32.7718 4.6555
129 "129" 72.5490 83.1373 0.0000 29.5603 38.1057 4.6170
130 "130" 81.5686 83.1373 0.0000 39.9204 46.8306 4.6661
131 "131" 90.5882 83.1373 0.0000 54.0725 58.6391 4.8685
132 "132" 100.0000 83.1373 0.0000 72.3000 73.3834 5.1627
133 "133" 0.0000 91.3725 0.0000 9.8863 21.4802 14.0319
134 "134" 9.0196 91.3725 0.0000 9.4694 20.8795 11.5890
135 "135" 18.0392 91.3725 0.0000 9.3571 20.7372 9.3333
136 "136" 27.0588 91.3725 0.0000 10.0489 21.7948 7.7575
137 "137" 36.0784 91.3725 0.0000 11.4075 23.8679 6.4949
138 "138" 45.0980 91.3725 0.0000 13.8542 27.1968 5.7309
139 "139" 54.5098 91.3725 0.0000 17.9042 31.5944 5.3345
140 "140" 63.5294 91.3725 0.0000 23.7487 37.6708 5.1141
141 "141" 72.5490 91.3725 0.0000 30.6145 43.1791 4.8916
142 "142" 81.5686 91.3725 0.0000 41.9291 53.3640 5.0182
143 "143" 90.5882 91.3725 0.0000 55.9161 64.4588 5.2032
144 "144" 100.0000 91.3725 0.0000 75.0984 80.5951 6.1664
145 "145" 0.0000 100.0000 0.0000 12.8224 27.2424 19.0549
146 "146" 9.0196 100.0000 0.0000 12.8244 27.3548 17.3236
147 "147" 18.0392 100.0000 0.0000 12.6758 27.3764 14.7711
148 "148" 27.0588 100.0000 0.0000 13.3838 28.7703 12.2228
149 "149" 36.0784 100.0000 0.0000 15.3204 32.0532 10.4018
150 "150" 45.0980 100.0000 0.0000 17.2399 34.9436 8.8712
151 "151" 54.5098 100.0000 0.0000 19.0082 36.8885 6.8894
152 "152" 63.5294 100.0000 0.0000 24.1321 41.9557 5.6342
153 "153" 72.5490 100.0000 0.0000 32.9044 50.1603 5.3277
154 "154" 81.5686 100.0000 0.0000 44.8139 60.1651 5.4721
155 "155" 90.5882 100.0000 0.0000 58.0434 69.7577 5.8398
156 "156" 100.0000 100.0000 0.0000 74.6151 80.2275 6.3004
157 "157" 0.0000 0.0000 9.0196 2.7322 2.7774 2.2413
158 "158" 9.0196 0.0000 9.0196 3.1521 3.0137 2.2199
159 "159" 18.0392 0.0000 9.0196 4.0747 3.5610 2.6632
160 "160" 27.0588 0.0000 9.0196 5.0475 4.1638 3.0618
161 "161" 36.0784 0.0000 9.0196 6.1869 4.7967 3.1932
162 "162" 45.0980 0.0000 9.0196 7.5143 5.5091 3.3255
163 "163" 54.5098 0.0000 9.0196 9.5879 6.5669 3.5456
164 "164" 63.5294 0.0000 9.0196 12.5069 8.0471 3.8784
165 "165" 72.5490 0.0000 9.0196 16.2350 9.8220 4.2024
166 "166" 81.5686 0.0000 9.0196 20.8925 12.0415 4.5850
167 "167" 90.5882 0.0000 9.0196 27.0133 14.8858 4.9725
168 "168" 100.0000 0.0000 9.0196 35.8593 19.5541 5.6867
169 "169" 0.0000 8.2353 9.0196 2.9314 3.1189 2.5748
170 "170" 9.0196 8.2353 9.0196 3.0807 3.1735 2.3591
171 "171" 18.0392 8.2353 9.0196 4.1131 3.8775 2.6059
172 "172" 27.0588 8.2353 9.0196 5.2282 4.5741 2.8289
173 "173" 36.0784 8.2353 9.0196 6.5089 5.3319 3.0127
174 "174" 45.0980 8.2353 9.0196 8.4570 6.5036 3.2437
175 "175" 54.5098 8.2353 9.0196 10.8929 7.8823 3.4634
176 "176" 63.5294 8.2353 9.0196 14.0432 9.5547 3.6724
177 "177" 72.5490 8.2353 9.0196 17.7416 11.4035 3.8546
178 "178" 81.5686 8.2353 9.0196 22.7973 13.9041 4.2267
179 "179" 90.5882 8.2353 9.0196 29.0722 16.9373 4.6968
180 "180" 100.0000 8.2353 9.0196 39.1345 21.9556 5.5187
181 "181" 0.0000 16.4706 9.0196 3.2374 3.6948 3.0139
182 "182" 9.0196 16.4706 9.0196 3.3951 3.8297 2.8487
183 "183" 18.0392 16.4706 9.0196 4.3587 4.4972 2.8427
184 "184" 27.0588 16.4706 9.0196 5.8028 5.5194 3.1355
185 "185" 36.0784 16.4706 9.0196 7.3919 6.5518 3.3607
186 "186" 45.0980 16.4706 9.0196 9.4889 7.8907 3.5857
187 "187" 54.5098 16.4706 9.0196 11.9747 9.3346 3.6933
188 "188" 63.5294 16.4706 9.0196 15.1987 11.1310 3.8126
189 "189" 72.5490 16.4706 9.0196 19.3009 13.3468 3.9717
190 "190" 81.5686 16.4706 9.0196 24.9978 16.2684 4.2746
191 "191" 90.5882 16.4706 9.0196 32.6821 20.1060 4.7683
192 "192" 100.0000 16.4706 9.0196 43.5246 25.4852 5.3694
193 "193" 0.0000 24.7059 9.0196 3.4832 4.2700 3.4421
194 "194" 9.0196 24.7059 9.0196 3.6771 4.5084 3.2556
195 "195" 18.0392 24.7059 9.0196 4.6421 5.3611 3.2841
196 "196" 27.0588 24.7059 9.0196 6.4848 6.7960 3.5354
197 "197" 36.0784 24.7059 9.0196 8.3365 8.1226 3.8218
198 "198" 45.0980 24.7059 9.0196 10.1653 9.3155 3.8329
199 "199" 54.5098 24.7059 9.0196 12.9448 11.0801 3.8761
200 "200" 63.5294 24.7059 9.0196 16.3407 13.1038 3.9368
201 "201" 72.5490 24.7059 9.0196 20.9217 15.6583 4.0954
202 "202" 81.5686 24.7059 9.0196 27.1968 19.0179 4.3838
203 "203" 90.5882 24.7059 9.0196 35.9008 23.5556 4.8031
204 "204" 100.0000 24.7059 9.0196 49.4749 30.6916 5.4755
205 "205" 0.0000 33.3333 9.0196 3.6741 4.7596 3.8095
206 "206" 9.0196 33.3333 9.0196 3.9162 5.1276 3.5653
207 "207" 18.0392 33.3333 9.0196 4.8346 6.1463 3.6428
208 "208" 27.0588 33.3333 9.0196 6.8737 7.9086 3.8868
209 "209" 36.0784 33.3333 9.0196 8.7509 9.3398 3.9998
210 "210" 45.0980 33.3333 9.0196 10.9171 10.8966 4.0768
211 "211" 54.5098 33.3333 9.0196 13.9325 12.9860 4.0772
212 "212" 63.5294 33.3333 9.0196 17.6588 15.3795 4.1287
213 "213" 72.5490 33.3333 9.0196 22.8680 18.6224 4.3278
214 "214" 81.5686 33.3333 9.0196 29.9939 22.6610 4.5743
215 "215" 90.5882 33.3333 9.0196 39.4297 27.8658 5.0628
216 "216" 100.0000 33.3333 9.0196 55.5906 36.7116 5.9242
217 "217" 0.0000 41.5686 9.0196 3.8447 5.2689 4.3245
218 "218" 9.0196 41.5686 9.0196 4.0562 5.7390 3.9427
219 "219" 18.0392 41.5686 9.0196 5.0725 7.0272 4.0103
220 "220" 27.0588 41.5686 9.0196 7.0609 8.9172 4.1749
221 "221" 36.0784 41.5686 9.0196 9.3853 10.8647 4.2949
222 "222" 45.0980 41.5686 9.0196 11.9265 12.8908 4.3438
223 "223" 54.5098 41.5686 9.0196 15.2493 15.3803 4.3820
224 "224" 63.5294 41.5686 9.0196 19.4498 18.2689 4.5076
225 "225" 72.5490 41.5686 9.0196 24.9924 21.8391 4.6138
226 "226" 81.5686 41.5686 9.0196 32.3140 26.3368 4.8298
227 "227" 90.5882 41.5686 9.0196 43.0066 32.6418 5.3122
228 "228" 100.0000 41.5686 9.0196 59.8733 42.4447 6.1603
229 "229" 0.0000 49.8039 9.0196 3.9529 5.8827 4.8064
230 "230" 9.0196 49.8039 9.0196 4.3709 6.7118 4.4878
231 "231" 18.0392 49.8039 9.0196 5.4016 8.1247 4.3811
232 "232" 27.0588 49.8039 9.0196 7.6431 10.5207 4.5763
233 "233" 36.0784 49.8039 9.0196 10.2775 12.8464 4.6343
234 "234" 45.0980 49.8039 9.0196 12.8989 14.9861 4.6285
235 "235" 54.5098 49.8039 9.0196 16.6037 17.9348 4.7954
236 "236" 63.5294 49.8039 9.0196 20.9712 21.2114 4.8296
237 "237" 72.5490 49.8039 9.0196 26.7621 25.1673 4.9654
238 "238" 81.5686 49.8039 9.0196 34.6566 30.3488 5.1201
239 "239" 90.5882 49.8039 9.0196 45.8520 37.6554 5.5219
240 "240" 100.0000 49.8039 9.0196 63.2650 48.9579 6.5032
241 "241" 0.0000 58.0392 9.0196 4.3282 6.9689 5.7430
242 "242" 9.0196 58.0392 9.0196 4.7591 7.9040 5.2462
243 "243" 18.0392 58.0392 9.0196 6.0749 9.8045 5.0694
244 "244" 27.0588 58.0392 9.0196 8.2527 12.2781 5.0735
245 "245" 36.0784 58.0392 9.0196 10.9416 14.9157 5.1754
246 "246" 45.0980 58.0392 9.0196 13.9909 17.6781 5.1666
247 "247" 54.5098 58.0392 9.0196 17.5363 20.5492 5.1454
248 "248" 63.5294 58.0392 9.0196 22.1765 24.1251 5.2479
249 "249" 72.5490 58.0392 9.0196 28.3949 28.7382 5.4219
250 "250" 81.5686 58.0392 9.0196 36.7095 34.6325 5.4981
251 "251" 90.5882 58.0392 9.0196 48.9313 43.3315 5.8575
252 "252" 100.0000 58.0392 9.0196 65.7949 54.9023 6.8832
253 "253" 0.0000 66.6667 9.0196 4.6049 8.2947 6.7253
254 "254" 9.0196 66.6667 9.0196 5.3443 9.6599 6.1346
255 "255" 18.0392 66.6667 9.0196 6.7815 11.7961 5.8055
256 "256" 27.0588 66.6667 9.0196 8.9360 14.3930 5.7277
257 "257" 36.0784 66.6667 9.0196 11.6300 17.3049 5.7589
258 "258" 45.0980 66.6667 9.0196 14.7818 20.3307 5.7120
259 "259" 54.5098 66.6667 9.0196 18.6022 23.6219 5.6326
260 "260" 63.5294 66.6667 9.0196 23.3135 27.2603 5.5786
261 "261" 72.5490 66.6667 9.0196 29.7671 32.3760 5.6363
262 "262" 81.5686 66.6667 9.0196 38.9943 39.3098 5.8114
263 "263" 90.5882 66.6667 9.0196 50.5816 47.8261 6.0447
264 "264" 100.0000 66.6667 9.0196 67.8720 60.5930 7.1126
265 "265" 0.0000 74.9020 9.0196 5.3673 10.5992 8.4977
266 "266" 9.0196 74.9020 9.0196 6.0981 11.8245 7.3587
267 "267" 18.0392 74.9020 9.0196 7.7192 14.2425 6.9428
268 "268" 27.0588 74.9020 9.0196 10.0111 17.2397 6.8023
269 "269" 36.0784 74.9020 9.0196 12.5332 20.0570 6.6420
270 "270" 45.0980 74.9020 9.0196 15.7674 23.4015 6.4642
271 "271" 54.5098 74.9020 9.0196 20.0399 27.3314 6.3334
272 "272" 63.5294 74.9020 9.0196 25.4170 31.8851 6.2767
273 "273" 72.5490 74.9020 9.0196 32.0541 37.0265 6.2056
274 "274" 81.5686 74.9020 9.0196 41.6282 44.3741 6.3074
275 "275" 90.5882 74.9020 9.0196 53.3304 53.3982 6.5545
276 "276" 100.0000 74.9020 9.0196 70.0834 66.5019 7.3561
277 "277" 0.0000 83.1373 9.0196 6.8180 14.3467 11.5109
278 "278" 9.0196 83.1373 9.0196 8.0260 16.3403 9.9743
279 "279" 18.0392 83.1373 9.0196 9.7958 18.9367 9.2802
280 "280" 27.0588 83.1373 9.0196 12.0406 21.9285 8.7539
281 "281" 36.0784 83.1373 9.0196 14.3367 24.6100 8.1948
282 "282" 45.0980 83.1373 9.0196 17.4884 27.9473 7.6752
283 "283" 54.5098 83.1373 9.0196 22.0193 32.4340 7.3164
284 "284" 63.5294 83.1373 9.0196 27.5787 37.2806 7.0301
285 "285" 72.5490 83.1373 9.0196 34.6844 43.0796 6.9351
286 "286" 81.5686 83.1373 9.0196 43.9488 50.1145 6.9461
287 "287" 90.5882 83.1373 9.0196 56.2181 59.8110 7.1028
288 "288" 100.0000 83.1373 9.0196 72.4221 72.7618 7.7581
289 "289" 0.0000 91.3725 9.0196 9.7602 20.8960 16.0211
290 "290" 9.0196 91.3725 9.0196 10.9527 22.5786 14.1460
291 "291" 18.0392 91.3725 9.0196 12.6617 25.0622 13.1698
292 "292" 27.0588 91.3725 9.0196 15.0747 28.6066 12.4050
293 "293" 36.0784 91.3725 9.0196 17.4006 31.5623 11.1811
294 "294" 45.0980 91.3725 9.0196 20.3230 34.9170 10.1043
295 "295" 54.5098 91.3725 9.0196 24.4237 39.2146 9.2443
296 "296" 63.5294 91.3725 9.0196 30.4882 44.7707 8.7209
297 "297" 72.5490 91.3725 9.0196 37.8986 50.7332 8.2764
298 "298" 81.5686 91.3725 9.0196 47.8369 58.3761 8.1214
299 "299" 90.5882 91.3725 9.0196 58.9938 66.3360 7.9769
300 "300" 100.0000 91.3725 9.0196 73.9546 78.0380 8.3947
301 "301" 0.0000 100.0000 9.0196 12.3707 26.0245 20.6162
302 "302" 9.0196 100.0000 9.0196 14.5582 30.2442 20.4981
303 "303" 18.0392 100.0000 9.0196 16.7538 34.1023 19.7838
304 "304" 27.0588 100.0000 9.0196 19.4007 38.5192 18.6271
305 "305" 36.0784 100.0000 9.0196 22.1295 42.4425 17.0357
306 "306" 45.0980 100.0000 9.0196 25.2748 46.2958 14.8778
307 "307" 54.5098 100.0000 9.0196 28.5683 49.6045 12.1816
308 "308" 63.5294 100.0000 9.0196 34.6673 55.2129 10.7335
309 "309" 72.5490 100.0000 9.0196 43.0589 61.8994 9.8965
310 "310" 81.5686 100.0000 9.0196 52.8484 68.9139 9.4462
311 "311" 90.5882 100.0000 9.0196 63.7086 75.7730 9.0898
312 "312" 100.0000 100.0000 9.0196 75.4826 82.6240 8.8640
313 "313" 0.0000 0.0000 18.0392 2.9463 2.9755 2.6947
314 "314" 9.0196 0.0000 18.0392 3.4176 3.2598 2.7701
315 "315" 18.0392 0.0000 18.0392 4.4063 3.7669 3.0408
316 "316" 27.0588 0.0000 18.0392 5.4334 4.3103 3.4686
317 "317" 36.0784 0.0000 18.0392 6.5345 4.8633 3.6983
318 "318" 45.0980 0.0000 18.0392 7.9014 5.5838 3.9042
319 "319" 54.5098 0.0000 18.0392 10.3134 6.8584 4.4984
320 "320" 63.5294 0.0000 18.0392 13.6336 8.5119 4.9802
321 "321" 72.5490 0.0000 18.0392 17.4237 10.3519 5.5103
322 "322" 81.5686 0.0000 18.0392 21.9717 12.4461 5.9694
323 "323" 90.5882 0.0000 18.0392 27.7965 15.1913 6.4214
324 "324" 100.0000 0.0000 18.0392 36.2201 19.7066 7.0578
325 "325" 0.0000 8.2353 18.0392 3.2169 3.3890 3.1454
326 "326" 9.0196 8.2353 18.0392 3.4117 3.5336 3.2749
327 "327" 18.0392 8.2353 18.0392 4.5986 4.2683 3.4394
328 "328" 27.0588 8.2353 18.0392 5.7010 4.8819 3.6433
329 "329" 36.0784 8.2353 18.0392 7.0731 5.6749 3.8535
330 "330" 45.0980 8.2353 18.0392 8.9499 6.7385 4.0628
331 "331" 54.5098 8.2353 18.0392 11.3931 8.1302 4.3227
332 "332" 63.5294 8.2353 18.0392 14.3613 9.6958 4.6092
333 "333" 72.5490 8.2353 18.0392 18.7965 12.0095 5.0979
334 "334" 81.5686 8.2353 18.0392 23.9769 14.5788 5.6744
335 "335" 90.5882 8.2353 18.0392 30.8091 18.1025 6.6131
336 "336" 100.0000 8.2353 18.0392 41.4726 23.7310 7.6953
337 "337" 0.0000 16.4706 18.0392 3.4262 3.8570 3.6040
338 "338" 9.0196 16.4706 18.0392 3.6344 4.0477 3.7058
339 "339" 18.0392 16.4706 18.0392 4.7595 4.9336 3.9994
340 "340" 27.0588 16.4706 18.0392 6.3552 5.9585 4.1359
341 "341" 36.0784 16.4706 18.0392 7.9938 6.9974 4.3591
342 "342" 45.0980 16.4706 18.0392 9.8705 8.0907 4.4378
343 "343" 54.5098 16.4706 18.0392 12.5410 9.6843 4.6438
344 "344" 63.5294 16.4706 18.0392 15.9503 11.6241 4.9031
345 "345" 72.5490 16.4706 18.0392 20.2705 14.0939 5.4233
346 "346" 81.5686 16.4706 18.0392 26.5198 17.5139 6.1076
347 "347" 90.5882 16.4706 18.0392 35.5971 22.5461 7.2936
348 "348" 100.0000 16.4706 18.0392 47.5256 28.9379 8.0861
349 "349" 0.0000 24.7059 18.0392 3.6088 4.3442 4.1285
350 "350" 9.0196 24.7059 18.0392 3.8508 4.6252 4.1276
351 "351" 18.0392 24.7059 18.0392 4.9148 5.6035 4.4381
352 "352" 27.0588 24.7059 18.0392 6.9028 7.1315 4.6679
353 "353" 36.0784 24.7059 18.0392 8.5358 8.1968 4.7589
354 "354" 45.0980 24.7059 18.0392 10.7641 9.6967 4.8893
355 "355" 54.5098 24.7059 18.0392 13.6646 11.6220 5.1196
356 "356" 63.5294 24.7059 18.0392 17.3802 13.9255 5.3577
357 "357" 72.5490 24.7059 18.0392 22.2598 16.8870 5.9102
358 "358" 81.5686 24.7059 18.0392 28.9953 20.9354 6.6191
359 "359" 90.5882 24.7059 18.0392 39.7117 27.1804 7.8048
360 "360" 100.0000 24.7059 18.0392 53.5894 34.9343 8.7567
361 "361" 0.0000 33.3333 18.0392 3.7854 4.8450 4.6116
362 "362" 9.0196 33.3333 18.0392 4.1606 5.3868 4.6474
363 "363" 18.0392 33.3333 18.0392 5.2008 6.4305 4.7926
364 "364" 27.0588 33.3333 18.0392 7.2855 8.2154 5.0359
365 "365" 36.0784 33.3333 18.0392 9.4426 9.9086 5.2424
366 "366" 45.0980 33.3333 18.0392 11.7668 11.5858 5.3188
367 "367" 54.5098 33.3333 18.0392 15.1633 14.1021 5.6617
368 "368" 63.5294 33.3333 18.0392 19.2944 16.9088 5.9160
369 "369" 72.5490 33.3333 18.0392 24.3973 20.1829 6.4288
370 "370" 81.5686 33.3333 18.0392 31.6088 24.6022 6.9582
371 "371" 90.5882 33.3333 18.0392 42.8276 31.5123 8.2236
372 "372" 100.0000 33.3333 18.0392 58.7589 40.8140 9.5455
373 "373" 0.0000 41.5686 18.0392 3.9394 5.3799 5.2502
374 "374" 9.0196 41.5686 18.0392 4.3605 6.0663 5.2351
375 "375" 18.0392 41.5686 18.0392 5.4072 7.1993 5.1179
376 "376" 27.0588 41.5686 18.0392 7.7797 9.4276 5.4314
377 "377" 36.0784 41.5686 18.0392 10.1348 11.4067 5.5939
378 "378" 45.0980 41.5686 18.0392 12.8146 13.5516 5.7948
379 "379" 54.5098 41.5686 18.0392 16.4997 16.4981 6.2185
380 "380" 63.5294 41.5686 18.0392 21.0007 19.7747 6.5622
381 "381" 72.5490 41.5686 18.0392 26.4874 23.4754 6.9385
382 "382" 81.5686 41.5686 18.0392 34.8093 28.9000 7.5944
383 "383" 90.5882 41.5686 18.0392 46.3809 36.4519 8.4409
384 "384" 100.0000 41.5686 18.0392 62.8081 46.7590 10.5180
385 "385" 0.0000 49.8039 18.0392 4.1612 6.1126 6.0729
386 "386" 9.0196 49.8039 18.0392 4.6482 6.9921 5.9137
387 "387" 18.0392 49.8039 18.0392 6.0071 8.5945 5.7010
388 "388" 27.0588 49.8039 18.0392 8.5656 11.1630 5.9967
389 "389" 36.0784 49.8039 18.0392 11.2962 13.6141 6.1744
390 "390" 45.0980 49.8039 18.0392 14.3583 16.1574 6.4273
391 "391" 54.5098 49.8039 18.0392 18.1347 19.2248 6.7242
392 "392" 63.5294 49.8039 18.0392 22.9544 22.8598 7.0872
393 "393" 72.5490 49.8039 18.0392 28.9128 27.1295 7.4426
394 "394" 81.5686 49.8039 18.0392 37.1367 32.8009 7.9197
395 "395" 90.5882 49.8039 18.0392 48.9389 41.2067 8.8846
396 "396" 100.0000 49.8039 18.0392 65.4312 52.3005 10.3662
397 "397" 0.0000 58.0392 18.0392 4.4064 6.9925 7.0477
398 "398" 9.0196 58.0392 18.0392 5.1081 8.3443 6.9161
399 "399" 18.0392 58.0392 18.0392 7.0165 10.6773 6.8621
400 "400" 27.0588 58.0392 18.0392 9.7700 13.5802 7.0902
401 "401" 36.0784 58.0392 18.0392 12.4648 16.1906 7.1891
402 "402" 45.0980 58.0392 18.0392 15.8435 19.2147 7.4190
403 "403" 54.5098 58.0392 18.0392 19.5807 22.2915 7.5533
404 "404" 63.5294 58.0392 18.0392 24.3758 26.0567 7.7863
405 "405" 72.5490 58.0392 18.0392 31.0719 31.0800 8.1003
406 "406" 81.5686 58.0392 18.0392 40.0168 37.8663 8.5625
407 "407" 90.5882 58.0392 18.0392 51.4468 46.2580 9.2326
408 "408" 100.0000 58.0392 18.0392 67.5605 57.9848 10.6245
409 "409" 0.0000 66.6667 18.0392 4.7555 8.4163 8.3266
410 "410" 9.0196 66.6667 18.0392 5.8924 10.4080 8.0656
411 "411" 18.0392 66.6667 18.0392 8.3251 13.4877 8.1178
412 "412" 27.0588 66.6667 18.0392 10.7766 16.1491 8.1463
413 "413" 36.0784 66.6667 18.0392 13.5806 19.0950 8.1626
414 "414" 45.0980 66.6667 18.0392 16.9884 22.3073 8.2967
415 "415" 54.5098 66.6667 18.0392 20.8717 25.6131 8.3697
416 "416" 63.5294 66.6667 18.0392 26.1976 29.8911 8.5108
417 "417" 72.5490 66.6667 18.0392 32.8663 35.1858 8.7254
418 "418" 81.5686 66.6667 18.0392 42.3770 42.6670 9.0991
419 "419" 90.5882 66.6667 18.0392 53.8708 51.4651 9.6408
420 "420" 100.0000 66.6667 18.0392 69.2991 63.1467 10.9194
421 "421" 0.0000 74.9020 18.0392 5.5125 10.5749 10.1925
422 "422" 9.0196 74.9020 18.0392 7.1886 13.4726 9.8284
423 "423" 18.0392 74.9020 18.0392 9.5870 16.4728 9.5891
424 "424" 27.0588 74.9020 18.0392 12.0776 19.3872 9.5287
425 "425" 36.0784 74.9020 18.0392 15.0683 22.5497 9.5143
426 "426" 45.0980 74.9020 18.0392 18.7134 26.2031 9.5046
427 "427" 54.5098 74.9020 18.0392 23.2615 30.1729 9.6694
428 "428" 63.5294 74.9020 18.0392 29.2580 35.3842 9.8121
429 "429" 72.5490 74.9020 18.0392 36.2687 40.9551 9.9016
