.bench/S1.ti3
CTI3   
DESCRIPTOR "Synthetic ground-truth chart (ChromIQ benchmarks)"
ORIGINATOR "ChromIQ benchmarks"
DEVICE_CLASS "OUTPUT"
COLOR_REP "iRGB_XYZ"
SPECTRAL_BANDS "36"
SPECTRAL_START_NM "380"
SPECTRAL_END_NM "730"
NUMBER_OF_FIELDS 43
BEGIN_DATA_FORMAT
SAMPLE_ID RGB_R RGB_G RGB_B XYZ_X XYZ_Y XYZ_Z SPEC_380 SPEC_390 SPEC_400 SPEC_410 SPEC_420 SPEC_430 SPEC_440 SPEC_450 SPEC_460 SPEC_470 SPEC_480 SPEC_490 SPEC_500 SPEC_510 SPEC_520 SPEC_530 SPEC_540 SPEC_550 SPEC_560 SPEC_570 SPEC_580 SPEC_590 SPEC_600 SPEC_610 SPEC_620 SPEC_630 SPEC_640 SPEC_650 SPEC_660 SPEC_670 SPEC_680 SPEC_690 SPEC_700 SPEC_710 SPEC_720 SPEC_730
END_DATA_FORMAT
NUMBER_OF_SETS 900
BEGIN_DATA
1 100.0000 100.0000 100.0000 86.15816 89.52422 73.07665 0.86432 0.85775 0.85237 0.85625 0.86389 0.87113 0.88185 0.88914 0.88931 0.89396 0.89543 0.89676 0.89256 0.89358 0.89608 0.89749 0.89597 0.89386 0.89627 0.89408 0.89277 0.89565 0.89707 0.89723 0.89580 0.89408 0.89327 0.89660 0.89363 0.89589 0.89606 0.89416 0.89505 0.89527 0.89668 0.89422
2 100.0000 100.0000 100.0000 86.11507 89.52742 73.04563 0.86385 0.85796 0.85308 0.85676 0.86317 0.87276 0.87859 0.88686 0.89170 0.89602 0.89475 0.89792 0.89613 0.89663 0.89414 0.89437 0.89626 0.89431 0.89829 0.89573 0.90017 0.89441 0.89654 0.89636 0.89574 0.89615 0.89168 0.89556 0.89732 0.89530 0.89309 0.89471 0.89548 0.89699 0.89423 0.89740
3 100.0000 100.0000 100.0000 86.16351 89.53004 73.08998 0.86277 0.85923 0.85557 0.86152 0.86518 0.87459 0.88001 0.88349 0.89118 0.89362 0.89336 0.89504 0.89193 0.89481 0.89420 0.89782 0.89537 0.89540 0.89530 0.89182 0.89348 0.89746 0.89628 0.89277 0.89565 0.89446 0.89598 0.89536 0.89511 0.89278 0.89457 0.89364 0.89466 0.89675 0.89583 0.89613
4 100.0000 100.0000 100.0000 86.16227 89.52543 73.06950 0.86515 0.85538 0.85447 0.85907 0.86591 0.86842 0.87853 0.88737 0.89632 0.89200 0.89410 0.89524 0.89660 0.89260 0.89397 0.89425 0.89389 0.89412 0.89601 0.89736 0.89620 0.89556 0.89504 0.89391 0.89290 0.89296 0.89715 0.89730 0.89613 0.89571 0.89525 0.89601 0.89442 0.89353 0.89268 0.89539
5 0.0000 0.0000 0.0000 4.65087 4.54461 3.04277 0.35979 0.21190 0.11254 0.05913 0.03548 0.02666 0.02538 0.02924 0.03707 0.04571 0.05126 0.05110 0.04653 0.04107 0.03688 0.03473 0.03498 0.03806 0.04246 0.04802 0.05304 0.05512 0.05476 0.05260 0.04986 0.04828 0.04862 0.05143 0.05784 0.06926 0.08733 0.11541 0.15440 0.21044 0.28138 0.36811
6 0.0000 0.0000 0.0000 4.65318 4.47932 3.04467 0.35909 0.21226 0.11237 0.05903 0.03539 0.02666 0.02526 0.02927 0.03691 0.04582 0.05124 0.05111 0.04670 0.04099 0.03680 0.03473 0.03507 0.03776 0.04264 0.04821 0.05284 0.05544 0.05479 0.05260 0.04977 0.04807 0.04845 0.05159 0.05789 0.06933 0.08757 0.11482 0.15443 0.20992 0.28122 0.36817
7 0.0000 0.0000 0.0000 4.65088 4.50801 3.05120 0.36012 0.21332 0.11290 0.05926 0.03544 0.02661 0.02535 0.02920 0.03700 0.04577 0.05135 0.05108 0.04636 0.04116 0.03677 0.03484 0.03496 0.03768 0.04252 0.04815 0.05303 0.05540 0.05505 0.05261 0.05020 0.04835 0.04834 0.05134 0.05779 0.06917 0.08715 0.11481 0.15509 0.20924 0.28117 0.36914
8 0.0000 0.0000 0.0000 4.64947 4.48247 3.06242 0.36185 0.21355 0.11272 0.05939 0.03547 0.02649 0.02531 0.02923 0.03693 0.04574 0.05129 0.05115 0.04659 0.04100 0.03691 0.03470 0.03507 0.03785 0.04254 0.04813 0.05271 0.05558 0.05496 0.05264 0.04988 0.04826 0.04856 0.05135 0.05798 0.06928 0.08721 0.11457 0.15493 0.21089 0.28168 0.36855
9 100.0000 100.0000 100.0000 86.12970 89.52173 73.09718 0.86379 0.85614 0.85715 0.85703 0.86787 0.87129 0.87782 0.88748 0.89261 0.89502 0.89480 0.89288 0.89733 0.89350 0.89946 0.89434 0.89499 0.89485 0.89792 0.89892 0.89623 0.89627 0.89362 0.89716 0.89111 0.89742 0.89618 0.89381 0.89685 0.89676 0.89882 0.89841 0.89569 0.89621 0.89308 0.89685
10 90.0000 100.0000 100.0000 66.57477 73.89376 72.50101 0.86186 0.85650 0.85252 0.85637 0.86449 0.87011 0.87916 0.88206 0.88746 0.88770 0.88292 0.87672 0.86631 0.85698 0.84206 0.82010 0.79719 0.77014 0.74041 0.71266 0.68160 0.65822 0.63510 0.61445 0.59941 0.59034 0.58827 0.59069 0.60284 0.61904 0.64168 0.66970 0.69748 0.73091 0.76117 0.78831
11 80.0000 100.0000 100.0000 54.97432 64.01236 71.97134 0.86532 0.85777 0.85610 0.85836 0.86418 0.87098 0.87927 0.88204 0.88214 0.88051 0.87109 0.86379 0.84839 0.82546 0.80070 0.76662 0.72702 0.68484 0.64022 0.59353 0.55179 0.51327 0.48005 0.45293 0.43557 0.42162 0.42010 0.42561 0.44043 0.45934 0.48931 0.52621 0.57014 0.61654 0.66469 0.71475
12 70.0000 100.0000 100.0000 46.69816 56.58759 71.52621 0.86492 0.85738 0.85369 0.85652 0.86271 0.87413 0.87490 0.87940 0.87887 0.87447 0.86613 0.84701 0.82569 0.80006 0.76175 0.71925 0.66565 0.61016 0.55544 0.50103 0.45214 0.40690 0.37119 0.34340 0.32311 0.31136 0.30828 0.31398 0.32831 0.35016 0.38205 0.42574 0.47255 0.52974 0.58880 0.65150
13 60.0000 100.0000 100.0000 40.41778 50.60731 71.13328 0.86441 0.85973 0.85703 0.85571 0.86303 0.86702 0.87486 0.87981 0.87747 0.87038 0.85690 0.83638 0.81068 0.77356 0.72795 0.67575 0.61387 0.55303 0.48738 0.42908 0.37403 0.32785 0.29117 0.26377 0.24442 0.23353 0.23041 0.23527 0.24852 0.27083 0.30314 0.34418 0.39790 0.45869 0.52547 0.59368
14 50.0000 100.0000 100.0000 35.53431 45.75937 70.74987 0.86394 0.85856 0.85293 0.85497 0.86181 0.86966 0.87272 0.87789 0.87016 0.86762 0.84666 0.82364 0.79171 0.74783 0.69680 0.63462 0.56960 0.49789 0.43035 0.36677 0.31259 0.26674 0.23024 0.20441 0.18692 0.17692 0.17338 0.17838 0.19042 0.21123 0.24242 0.28361 0.33442 0.39798 0.47129 0.54732
15 40.0000 100.0000 100.0000 31.74584 41.69345 70.43032 0.86529 0.85527 0.85483 0.85836 0.86188 0.86793 0.87255 0.87543 0.87227 0.86302 0.84140 0.81438 0.77426 0.72958 0.66758 0.60180 0.52544 0.45127 0.38051 0.31615 0.26045 0.21786 0.18457 0.16114 0.14470 0.13584 0.13323 0.13757 0.14818 0.16660 0.19497 0.23452 0.28510 0.34866 0.42228 0.50418
16 30.0000 100.0000 100.0000 28.69886 38.24910 70.05257 0.85928 0.85502 0.85479 0.85594 0.86533 0.86984 0.87321 0.87224 0.86814 0.85516 0.83191 0.80213 0.76224 0.70770 0.64183 0.56945 0.48773 0.40998 0.33784 0.27411 0.22039 0.17949 0.14842 0.12646 0.11252 0.10456 0.10285 0.10631 0.11582 0.13301 0.15877 0.19442 0.24278 0.30541 0.38052 0.46161
17 20.0000 100.0000 100.0000 26.21640 35.31512 69.71832 0.86020 0.85925 0.85444 0.85713 0.86157 0.86674 0.87242 0.87121 0.86695 0.85085 0.82793 0.79284 0.74494 0.68646 0.61737 0.53627 0.45443 0.37326 0.29995 0.23808 0.18645 0.14806 0.12004 0.10110 0.08851 0.08142 0.07977 0.08293 0.09128 0.10600 0.12934 0.16220 0.20879 0.26902 0.34327 0.42704
18 10.0000 100.0000 100.0000 24.17231 32.77680 69.38461 0.86210 0.85934 0.85510 0.85346 0.86156 0.86411 0.87225 0.86870 0.86521 0.84864 0.82193 0.78136 0.73259 0.66721 0.59219 0.50834 0.42303 0.34138 0.26817 0.20590 0.15861 0.12301 0.09818 0.08068 0.07014 0.06430 0.06288 0.06535 0.07252 0.08563 0.10613 0.13625 0.17924 0.23711 0.31049 0.39754
19 0.0000 100.0000 100.0000 22.46251 30.59638 69.08455 0.86244 0.85930 0.85205 0.85624 0.85956 0.86725 0.87421 0.86721 0.86185 0.84003 0.81490 0.77721 0.71945 0.64847 0.56987 0.48322 0.39381 0.31271 0.23979 0.18036 0.13584 0.10303 0.08002 0.06549 0.05610 0.05085 0.04991 0.05199 0.05823 0.06929 0.08710 0.11479 0.15517 0.20910 0.28147 0.36726
20 100.0000 100.0000 100.0000 86.16379 89.52266 73.08611 0.86496 0.85513 0.85585 0.85692 0.86503 0.87229 0.87867 0.88673 0.89174 0.89378 0.89742 0.89454 0.89594 0.89696 0.89824 0.89454 0.89475 0.89507 0.89372 0.89328 0.89701 0.89642 0.89751 0.89799 0.89415 0.89506 0.89409 0.89504 0.89791 0.89303 0.89777 0.89415 0.89642 0.89916 0.89762 0.89304
21 100.0000 90.0000 100.0000 77.53959 73.23426 64.10220 0.85133 0.83415 0.80944 0.79138 0.78217 0.77779 0.78401 0.79491 0.80037 0.78978 0.76709 0.73112 0.69277 0.65969 0.63504 0.62742 0.63555 0.65863 0.69260 0.73502 0.77703 0.81679 0.84362 0.86741 0.87857 0.89070 0.88995 0.88831 0.89593 0.89597 0.89607 0.89807 0.89742 0.89446 0.89380 0.89565
22 100.0000 80.0000 100.0000 71.72155 63.02294 57.81897 0.83966 0.81104 0.77736 0.74703 0.72344 0.71290 0.71914 0.72741 0.73115 0.71572 0.67453 0.62263 0.56331 0.51511 0.48407 0.47097 0.48386 0.51528 0.56397 0.62785 0.69536 0.75273 0.80694 0.83957 0.86586 0.88084 0.89162 0.89292 0.89452 0.89602 0.89667 0.89528 0.89568 0.89607 0.89467 0.89722
23 100.0000 70.0000 100.0000 67.11620 55.31468 52.58910 0.83223 0.79522 0.75000 0.70276 0.66990 0.65625 0.65931 0.67132 0.67385 0.65169 0.60272 0.53198 0.46655 0.40959 0.37658 0.36373 0.37624 0.41178 0.46894 0.54257 0.62574 0.70679 0.77161 0.82199 0.85504 0.87586 0.88572 0.89309 0.89175 0.89295 0.89645 0.89702 0.89646 0.89864 0.89730 0.89412
24 100.0000 60.0000 100.0000 63.16761 49.20465 48.11369 0.82090 0.77648 0.72078 0.66678 0.62439 0.60558 0.60887 0.62226 0.62494 0.59788 0.54053 0.46373 0.38946 0.33198 0.29684 0.28364 0.29518 0.33117 0.39294 0.47162 0.56691 0.66182 0.73858 0.80395 0.84654 0.87091 0.88425 0.88695 0.89352 0.89215 0.89395 0.89562 0.89684 0.89622 0.89773 0.89367
25 100.0000 50.0000 100.0000 59.86336 44.35785 44.19168 0.81548 0.76143 0.69571 0.63192 0.58509 0.56314 0.56275 0.57960 0.57864 0.54962 0.48566 0.40381 0.32607 0.26930 0.23525 0.22355 0.23544 0.27033 0.33081 0.41513 0.51752 0.62043 0.71504 0.78548 0.83641 0.86325 0.88296 0.89135 0.89134 0.89609 0.89609 0.89724 0.89633 0.89542 0.89387 0.89552
26 100.0000 40.0000 100.0000 56.96483 40.33865 40.77163 0.80706 0.74481 0.67190 0.59819 0.54705 0.52257 0.52467 0.53585 0.53952 0.50541 0.43935 0.35305 0.27613 0.22129 0.18799 0.17780 0.18784 0.22245 0.27910 0.36373 0.46871 0.58241 0.68439 0.76819 0.82601 0.86397 0.88240 0.88743 0.89325 0.89385 0.89185 0.89365 0.89509 0.89465 0.89526 0.89719
27 100.0000 30.0000 100.0000 54.39482 36.98982 37.70069 0.79956 0.73234 0.64969 0.57146 0.51431 0.48630 0.48552 0.50188 0.50261 0.46756 0.39732 0.31087 0.23505 0.18209 0.15172 0.14247 0.15173 0.18297 0.23753 0.32162 0.42816 0.54942 0.66185 0.75123 0.81621 0.85645 0.87504 0.88648 0.89319 0.89065 0.89105 0.89543 0.89444 0.89209 0.89380 0.89624
28 100.0000 20.0000 100.0000 52.10374 34.15759 34.91391 0.79116 0.71599 0.63083 0.54477 0.48178 0.45359 0.45436 0.46803 0.46847 0.43386 0.36080 0.27420 0.20027 0.15057 0.12385 0.11462 0.12344 0.15144 0.20328 0.28487 0.39345 0.51650 0.63812 0.73748 0.80969 0.85397 0.87254 0.88602 0.89261 0.89600 0.89354 0.89226 0.89715 0.89433 0.89461 0.89487
29 100.0000 10.0000 100.0000 50.11253 31.73364 32.44234 0.78288 0.70627 0.60713 0.52016 0.45457 0.42287 0.42354 0.43690 0.43914 0.40134 0.32639 0.24209 0.17189 0.12564 0.10069 0.09297 0.10082 0.12585 0.17478 0.25265 0.36096 0.48981 0.61653 0.72172 0.79685 0.84607 0.88017 0.88555 0.89224 0.89330 0.89673 0.89587 0.89731 0.89579 0.89481 0.89937
30 100.0000 0.0000 100.0000 48.26776 29.70301 30.13266 0.77720 0.69248 0.59092 0.49460 0.42626 0.39555 0.39442 0.40911 0.40997 0.37234 0.29629 0.21464 0.14760 0.10533 0.08282 0.07575 0.08317 0.10551 0.14983 0.22477 0.33052 0.46249 0.59173 0.70552 0.78883 0.84182 0.87161 0.88310 0.88873 0.89176 0.89539 0.89665 0.89132 0.89561 0.89733 0.89527
31 100.0000 100.0000 100.0000 86.16195 89.52640 73.05506 0.86310 0.85840 0.85667 0.85767 0.86207 0.87358 0.88480 0.88863 0.89241 0.89133 0.89348 0.89589 0.89588 0.89497 0.89137 0.89449 0.89637 0.90034 0.89593 0.89559 0.89778 0.89488 0.89511 0.89635 0.89642 0.89683 0.89703 0.89614 0.89460 0.89508 0.89650 0.89472 0.89393 0.89595 0.89070 0.89694
32 100.0000 100.0000 90.0000 82.40180 86.87456 52.61208 0.77520 0.72419 0.67353 0.62903 0.59842 0.58037 0.58278 0.59845 0.62616 0.66214 0.69857 0.74245 0.77686 0.81065 0.83840 0.86318 0.87790 0.88683 0.89177 0.89773 0.89639 0.89728 0.89575 0.89338 0.89496 0.89380 0.89578 0.89598 0.89881 0.89340 0.89731 0.89505 0.89620 0.89386 0.89896 0.89600
33 100.0000 100.0000 80.0000 80.20535 85.01067 40.71276 0.71154 0.63635 0.55759 0.49173 0.44520 0.41966 0.41702 0.43732 0.47257 0.51856 0.57526 0.63163 0.69023 0.74890 0.80006 0.83891 0.86591 0.88385 0.89193 0.89378 0.89141 0.89439 0.89074 0.89220 0.89491 0.89639 0.89760 0.89604 0.89794 0.89803 0.89370 0.89452 0.89571 0.89343 0.89547 0.89417
34 100.0000 100.0000 70.0000 78.66780 83.48654 32.29881 0.65410 0.55978 0.46888 0.39036 0.33845 0.31126 0.30851 0.32659 0.36299 0.41677 0.47933 0.54934 0.62361 0.69697 0.76014 0.81537 0.85430 0.87713 0.88873 0.89387 0.89305 0.89562 0.89489 0.89623 0.89853 0.89405 0.89666 0.89451 0.89514 0.89417 0.89545 0.89625 0.89180 0.89857 0.89781 0.89883
35 100.0000 100.0000 60.0000 77.51727 82.16686 26.10851 0.60794 0.49851 0.39558 0.31586 0.26166 0.23548 0.23095 0.24881 0.28469 0.33802 0.40349 0.47798 0.56082 0.64896 0.73035 0.79504 0.84527 0.87345 0.88713 0.89323 0.89499 0.89381 0.89628 0.89219 0.89570 0.89690 0.89214 0.89887 0.89364 0.89731 0.89480 0.89552 0.89409 0.89537 0.89525 0.89428
36 100.0000 100.0000 50.0000 76.60357 80.99237 21.39243 0.56525 0.44478 0.33752 0.25587 0.20498 0.17954 0.17570 0.19138 0.22497 0.27585 0.34083 0.42133 0.51079 0.60624 0.70072 0.77847 0.83434 0.86533 0.88436 0.89369 0.89532 0.89569 0.89602 0.89466 0.89651 0.89193 0.89348 0.89279 0.89125 0.89642 0.89464 0.89530 0.89531 0.89424 0.89646 0.89403
37 100.0000 100.0000 40.0000 75.89439 79.94917 17.70193 0.52549 0.39776 0.28831 0.21006 0.16194 0.13831 0.13489 0.14807 0.17954 0.22581 0.29103 0.37127 0.46599 0.56989 0.67171 0.75913 0.82404 0.86160 0.87901 0.89455 0.89325 0.89717 0.89534 0.89445 0.89519 0.89488 0.89433 0.89479 0.89401 0.89590 0.89562 0.89576 0.89270 0.89594 0.89831 0.89332
38 100.0000 100.0000 30.0000 75.31214 78.98841 14.87667 0.49005 0.35856 0.24846 0.17327 0.12817 0.10683 0.10456 0.11633 0.14314 0.18748 0.24888 0.32742 0.42283 0.53466 0.64595 0.74046 0.81086 0.85949 0.88055 0.88923 0.89522 0.89489 0.89290 0.89537 0.89949 0.89397 0.89683 0.89505 0.89622 0.89606 0.89694 0.89745 0.89503 0.89810 0.89607 0.89323
39 100.0000 100.0000 20.0000 74.87803 78.14941 12.56892 0.46040 0.32235 0.21421 0.14328 0.10274 0.08447 0.08158 0.09180 0.11602 0.15622 0.21418 0.29163 0.38921 0.50171 0.62211 0.72792 0.80635 0.85217 0.87842 0.88486 0.88955 0.89513 0.89620 0.89527 0.89587 0.89673 0.89406 0.89668 0.89710 0.89428 0.89713 0.89453 0.89567 0.89551 0.89532 0.89142
40 100.0000 100.0000 10.0000 74.50001 77.30588 10.72659 0.42967 0.29001 0.18592 0.11896 0.08267 0.06645 0.06405 0.07295 0.09426 0.13057 0.18433 0.25864 0.35636 0.47315 0.59827 0.70929 0.79649 0.84546 0.87811 0.88864 0.89544 0.89531 0.89707 0.89783 0.89324 0.89296 0.89690 0.89620 0.89378 0.89425 0.89418 0.89638 0.89325 0.89281 0.89449 0.89375
41 100.0000 100.0000 0.0000 74.19918 76.58496 9.23116 0.40145 0.26316 0.16104 0.09954 0.06712 0.05305 0.05084 0.05830 0.07696 0.10957 0.15963 0.23093 0.32851 0.44430 0.57595 0.69410 0.78750 0.84348 0.87421 0.88935 0.89075 0.89371 0.89327 0.89576 0.89617 0.89649 0.89251 0.89270 0.89578 0.89562 0.89359 0.89561 0.89581 0.89449 0.90056 0.89380
42 100.0000 100.0000 100.0000 86.14281 89.54101 73.06980 0.86585 0.85760 0.85526 0.85594 0.86329 0.87193 0.87970 0.88781 0.89239 0.89368 0.89584 0.89465 0.89389 0.89403 0.89370 0.89447 0.89464 0.89596 0.89463 0.89726 0.89679 0.89511 0.89316 0.89538 0.89571 0.89656 0.89667 0.89625 0.89617 0.89670 0.89856 0.89556 0.89471 0.89864 0.89659 0.89388
43 90.0000 90.0000 90.0000 56.15398 57.71501 45.59670 0.76343 0.70270 0.64165 0.58161 0.53999 0.51816 0.51722 0.53577 0.55596 0.58019 0.59021 0.59178 0.58178 0.57195 0.56205 0.55693 0.55684 0.56372 0.57461 0.58268 0.59625 0.59783 0.59700 0.59366 0.58922 0.58540 0.58487 0.59060 0.60364 0.61898 0.64031 0.66617 0.69561 0.72772 0.76027 0.78926
44 80.0000 80.0000 80.0000 39.91879 40.68550 31.31178 0.68917 0.59892 0.50526 0.42754 0.37210 0.34328 0.34119 0.35679 0.38580 0.40899 0.42400 0.42295 0.41248 0.39828 0.38474 0.37733 0.37929 0.38806 0.40121 0.41769 0.42718 0.43216 0.43254 0.42706 0.42032 0.41618 0.41760 0.42437 0.43896 0.46082 0.48906 0.52809 0.56831 0.61537 0.66366 0.71264
45 70.0000 70.0000 70.0000 29.15619 29.48191 22.18648 0.63301 0.51810 0.40945 0.32138 0.26393 0.23347 0.23087 0.24667 0.27351 0.29810 0.31203 0.31137 0.29935 0.28535 0.27307 0.26686 0.26820 0.27545 0.28908 0.30461 0.31514 0.32271 0.31958 0.31510 0.30832 0.30511 0.30485 0.31256 0.32707 0.35027 0.38315 0.42533 0.47439 0.52975 0.58820 0.64872
46 60.0000 60.0000 60.0000 21.70767 21.78386 16.05329 0.57604 0.45183 0.33351 0.24591 0.19062 0.16440 0.16045 0.17333 0.19724 0.22049 0.23326 0.23232 0.22313 0.20863 0.19750 0.19157 0.19235 0.20011 0.21314 0.22700 0.23801 0.24280 0.24206 0.23661 0.22987 0.22721 0.22675 0.23383 0.24764 0.27112 0.30419 0.34638 0.39736 0.45975 0.52385 0.59440
47 50.0000 50.0000 50.0000 16.33138 16.28174 11.79561 0.53052 0.39414 0.27535 0.18917 0.13980 0.11662 0.11327 0.12442 0.14497 0.16585 0.17733 0.17625 0.16705 0.15480 0.14410 0.13967 0.14034 0.14711 0.15865 0.17040 0.18028 0.18560 0.18429 0.18028 0.17420 0.17077 0.17167 0.17736 0.19018 0.21208 0.24148 0.28299 0.33642 0.39889 0.47114 0.54521
48 40.0000 40.0000 40.0000 12.47455 12.31024 8.79457 0.49047 0.34629 0.22854 0.14836 0.10382 0.08413 0.08124 0.09050 0.10749 0.12559 0.13581 0.13546 0.12655 0.11630 0.10746 0.10302 0.10377 0.10966 0.11898 0.12979 0.13921 0.14246 0.14258 0.13796 0.13345 0.12990 0.13055 0.13655 0.14737 0.16659 0.19527 0.23415 0.28498 0.34720 0.42177 0.50192
49 30.0000 30.0000 30.0000 9.67029 9.41535 6.62375 0.45326 0.30562 0.18909 0.11644 0.07791 0.06162 0.05920 0.06693 0.08064 0.09581 0.10559 0.10475 0.09750 0.08806 0.08071 0.07743 0.07799 0.08281 0.09066 0.10001 0.10724 0.11115 0.11079 0.10721 0.10288 0.10029 0.10089 0.10538 0.11525 0.13263 0.15822 0.19498 0.24370 0.30539 0.38058 0.46542
50 20.0000 20.0000 20.0000 7.51863 7.29078 5.04537 0.42113 0.27096 0.15867 0.09229 0.05918 0.04567 0.04384 0.04978 0.06127 0.07437 0.08208 0.08210 0.07557 0.06751 0.06129 0.05825 0.05919 0.06308 0.06970 0.07744 0.08449 0.08745 0.08672 0.08390 0.08019 0.07788 0.07820 0.08218 0.09104 0.10589 0.12936 0.16208 0.20907 0.26910 0.34251 0.42946
51 10.0000 10.0000 10.0000 5.87893 5.71795 3.89646 0.38849 0.23994 0.13415 0.07363 0.04544 0.03448 0.03292 0.03777 0.04746 0.05822 0.06456 0.06451 0.05912 0.05231 0.04716 0.04469 0.04507 0.04837 0.05419 0.06080 0.06619 0.06914 0.06875 0.06642 0.06306 0.06102 0.06126 0.06479 0.07223 0.08520 0.10632 0.13583 0.17935 0.23849 0.31133 0.39810
52 0.0000 0.0000 0.0000 4.68850 4.44480 3.07896 0.35903 0.21350 0.11286 0.05906 0.03561 0.02668 0.02531 0.02918 0.03696 0.04569 0.05135 0.05120 0.04657 0.04104 0.03681 0.03476 0.03513 0.03777 0.04275 0.04821 0.05297 0.05525 0.05479 0.05268 0.04983 0.04815 0.04847 0.05157 0.05786 0.06929 0.08712 0.11462 0.15442 0.20995 0.28070 0.36754
53 0.0000 0.0000 0.0000 4.67063 4.49586 3.07112 0.35956 0.21305 0.11282 0.05929 0.03536 0.02652 0.02528 0.02923 0.03690 0.04584 0.05149 0.05131 0.04658 0.04104 0.03675 0.03481 0.03505 0.03799 0.04252 0.04811 0.05296 0.05540 0.05489 0.05263 0.04981 0.04832 0.04844 0.05141 0.05784 0.06925 0.08735 0.11465 0.15506 0.20930 0.27961 0.36797
54 0.0000 0.0000 100.0000 9.32661 6.34009 28.98611 0.77948 0.68856 0.58938 0.49418 0.42524 0.39239 0.39040 0.40152 0.39612 0.35167 0.27096 0.18562 0.11919 0.07740 0.05425 0.04326 0.03923 0.03986 0.04335 0.04855 0.05302 0.05549 0.05493 0.05262 0.04988 0.04835 0.04847 0.05157 0.05797 0.06907 0.08727 0.11483 0.15516 0.21006 0.28161 0.36872
55 0.0000 100.0000 0.0000 11.52071 21.46759 8.04778 0.40028 0.26227 0.16088 0.09931 0.06662 0.05296 0.05039 0.05744 0.07443 0.10314 0.14515 0.19961 0.26341 0.32426 0.36499 0.37571 0.34797 0.29461 0.23407 0.17978 0.13535 0.10307 0.08030 0.06532 0.05599 0.05089 0.04979 0.05203 0.05815 0.06942 0.08748 0.11445 0.15492 0.21084 0.28172 0.36806
56 0.0000 100.0000 100.0000 22.48525 30.56772 69.08011 0.86149 0.85791 0.85593 0.86204 0.86345 0.86886 0.86989 0.86794 0.86039 0.84123 0.81512 0.77549 0.71848 0.65273 0.57041 0.48367 0.39426 0.31120 0.23971 0.18045 0.13580 0.10307 0.08011 0.06526 0.05606 0.05121 0.04985 0.05201 0.05807 0.06914 0.08739 0.11489 0.15488 0.21012 0.28222 0.36774
57 100.0000 0.0000 0.0000 43.35962 27.39908 3.28620 0.36089 0.21338 0.11257 0.05936 0.03556 0.02665 0.02550 0.02961 0.03814 0.04829 0.05585 0.05823 0.05673 0.05474 0.05509 0.06014 0.07334 0.09985 0.14668 0.22238 0.32949 0.45989 0.59398 0.70663 0.78937 0.84326 0.86815 0.88555 0.88964 0.89150 0.89799 0.89366 0.89462 0.89511 0.89699 0.89517
58 100.0000 0.0000 100.0000 48.27300 29.64735 30.14053 0.77805 0.68984 0.59077 0.49430 0.42712 0.39506 0.39436 0.41045 0.41069 0.37314 0.29777 0.21435 0.14741 0.10470 0.08238 0.07603 0.08283 0.10529 0.15026 0.22445 0.33050 0.46178 0.59453 0.70801 0.79014 0.84348 0.87027 0.88706 0.89367 0.89557 0.89586 0.89260 0.89665 0.89527 0.89885 0.89651
59 100.0000 100.0000 0.0000 74.18529 76.58788 9.26164 0.40095 0.26206 0.16099 0.09929 0.06698 0.05315 0.05099 0.05840 0.07658 0.10911 0.15955 0.23099 0.32727 0.44522 0.57545 0.69719 0.79164 0.84338 0.87497 0.89326 0.89231 0.89725 0.89587 0.89245 0.89338 0.89607 0.89648 0.89619 0.89517 0.89534 0.89484 0.89226 0.89906 0.89929 0.89868 0.89331
60 100.0000 100.0000 100.0000 86.12834 89.51325 73.08599 0.86465 0.85496 0.85401 0.86100 0.86198 0.87035 0.88201 0.88897 0.89033 0.89320 0.89394 0.89095 0.89526 0.89423 0.89636 0.89597 0.89203 0.89475 0.89428 0.89659 0.89614 0.89559 0.89502 0.89580 0.89611 0.89401 0.89457 0.89297 0.89348 0.89807 0.89583 0.89598 0.89540 0.89142 0.89437 0.89755
61 62.8570 83.2611 80.1498 29.77770 33.80777 32.14301 0.69551 0.60517 0.51616 0.43694 0.38346 0.35381 0.35195 0.36685 0.39331 0.41995 0.43497 0.43298 0.42356 0.40620 0.38770 0.37165 0.35806 0.34822 0.33983 0.32937 0.31825 0.30111 0.28452 0.26896 0.25721 0.24885 0.24948 0.25493 0.26852 0.29092 0.32387 0.36550 0.41755 0.47912 0.54283 0.61057
62 37.8570 16.5945 0.1498 9.80597 8.69746 3.54861 0.36682 0.22020 0.11870 0.06410 0.03902 0.02928 0.02803 0.03227 0.04123 0.05228 0.06112 0.06454 0.06302 0.05972 0.05715 0.05706 0.06109 0.06867 0.08045 0.09485 0.10967 0.11982 0.12529 0.12521 0.12370 0.12154 0.12302 0.12825 0.13988 0.15939 0.18635 0.22518 0.27502 0.33814 0.41307 0.49471
63 87.8570 61.0389 20.1498 38.23583 33.19347 7.63827 0.43724 0.29297 0.18258 0.11323 0.07612 0.06053 0.05828 0.06612 0.08282 0.10600 0.13036 0.15160 0.16769 0.18194 0.19665 0.21444 0.23765 0.27141 0.31427 0.36541 0.41555 0.46230 0.49527 0.51431 0.52583 0.53376 0.53870 0.54707 0.55927 0.57848 0.60320 0.63338 0.66775 0.70069 0.73954 0.77226
64 25.3570 94.3722 40.1498 16.16138 25.22218 15.03569 0.51994 0.39220 0.28008 0.20124 0.15232 0.12919 0.12520 0.13747 0.16307 0.20177 0.24702 0.29356 0.33549 0.37015 0.38573 0.37784 0.35238 0.31334 0.27035 0.22584 0.18698 0.15469 0.12997 0.11157 0.09910 0.09265 0.09114 0.09432 0.10357 0.11964 0.14408 0.17913 0.22611 0.28842 0.36230 0.44699
65 75.3570 27.7056 64.1498 24.89546 19.48441 13.52159 0.57838 0.44408 0.32064 0.22825 0.17141 0.14519 0.14289 0.15501 0.17449 0.18660 0.18460 0.16514 0.14049 0.11960 0.10618 0.10205 0.10812 0.12537 0.15378 0.19186 0.23712 0.27962 0.31155 0.33350 0.34225 0.34928 0.35518 0.36472 0.38156 0.40463 0.43550 0.47500 0.52178 0.57404 0.62693 0.68233
66 50.3570 72.1500 84.1498 22.52928 24.48861 31.71260 0.71069 0.62272 0.52888 0.44983 0.39423 0.36587 0.36447 0.37785 0.40019 0.41173 0.40739 0.38249 0.34852 0.31340 0.28196 0.26105 0.24652 0.23923 0.23585 0.23115 0.22549 0.21493 0.20317 0.19103 0.18060 0.17519 0.17412 0.18012 0.19267 0.21280 0.24399 0.28526 0.33714 0.40145 0.47104 0.54841
67 0.3570 5.4833 4.1498 4.81368 4.78396 3.35803 0.37290 0.22378 0.12115 0.06507 0.03941 0.02981 0.02837 0.03276 0.04120 0.05105 0.05689 0.05671 0.05199 0.04612 0.04122 0.03865 0.03890 0.04148 0.04592 0.05116 0.05555 0.05728 0.05583 0.05356 0.05047 0.04881 0.04916 0.05173 0.05829 0.06993 0.08791 0.11559 0.15535 0.21124 0.28132 0.36890
68 19.1070 38.8167 24.1498 8.37501 9.10123 6.35774 0.43694 0.29233 0.17925 0.10889 0.07204 0.05682 0.05454 0.06167 0.07552 0.09185 0.10398 0.10762 0.10435 0.09746 0.09109 0.08705 0.08598 0.08820 0.09202 0.09536 0.09788 0.09596 0.09101 0.08568 0.07991 0.07690 0.07693 0.08059 0.08917 0.10417 0.12692 0.16041 0.20603 0.26582 0.34054 0.42724
