.bench/S2.ti3
CTI3   
DESCRIPTOR "Synthetic ground-truth chart (ChromIQ benchmarks)"
ORIGINATOR "ChromIQ benchmarks"
DEVICE_CLASS "OUTPUT"
COLOR_REP "iRGB_XYZ"
SPECTRAL_BANDS "36"
SPECTRAL_START_NM "380"
SPECTRAL_END_NM "730"
NUMBER_OF_FIELDS 43
BEGIN_DATA_FORMAT
SAMPLE_ID RGB_R RGB_G RGB_B XYZ_X XYZ_Y XYZ_Z SPEC_380 SPEC_390 SPEC_400 SPEC_410 SPEC_420 SPEC_430 SPEC_440 SPEC_450 SPEC_460 SPEC_470 SPEC_480 SPEC_490 SPEC_500 SPEC_510 SPEC_520 SPEC_530 SPEC_540 SPEC_550 SPEC_560 SPEC_570 SPEC_580 SPEC_590 SPEC_600 SPEC_610 SPEC_620 SPEC_630 SPEC_640 SPEC_650 SPEC_660 SPEC_670 SPEC_680 SPEC_690 SPEC_700 SPEC_710 SPEC_720 SPEC_730
END_DATA_FORMAT
NUMBER_OF_SETS 900
BEGIN_DATA
1 100.0000 100.0000 100.0000 81.81235 85.34024 67.19871 0.80789 0.79736 0.78645 0.78326 0.78435 0.78781 0.79835 0.80963 0.81699 0.82937 0.83827 0.84560 0.84602 0.84986 0.85397 0.85627 0.85532 0.85354 0.85594 0.85389 0.85266 0.85542 0.85677 0.85693 0.85556 0.85392 0.85315 0.85633 0.85348 0.85564 0.85581 0.85400 0.85485 0.85505 0.85640 0.85405
2 100.0000 100.0000 100.0000 81.76926 85.34345 67.16768 0.80744 0.79756 0.78710 0.78374 0.78370 0.78928 0.79540 0.80755 0.81919 0.83128 0.83763 0.84669 0.84941 0.85276 0.85212 0.85329 0.85560 0.85396 0.85787 0.85546 0.85972 0.85423 0.85627 0.85609 0.85550 0.85589 0.85162 0.85533 0.85701 0.85509 0.85297 0.85452 0.85525 0.85669 0.85406 0.85708
3 100.0000 100.0000 100.0000 81.81770 85.34607 67.21203 0.80644 0.79873 0.78940 0.78809 0.78552 0.79094 0.79668 0.80448 0.81871 0.82906 0.83632 0.84398 0.84543 0.85103 0.85218 0.85659 0.85474 0.85501 0.85501 0.85174 0.85333 0.85715 0.85602 0.85267 0.85541 0.85428 0.85573 0.85514 0.85490 0.85268 0.85439 0.85350 0.85447 0.85647 0.85559 0.85587
4 100.0000 100.0000 100.0000 81.81646 85.34145 67.19155 0.80866 0.79516 0.78839 0.78585 0.78618 0.78536 0.79534 0.80801 0.82343 0.82755 0.83702 0.84417 0.84985 0.84893 0.85196 0.85318 0.85332 0.85378 0.85569 0.85702 0.85593 0.85533 0.85483 0.85376 0.85279 0.85285 0.85684 0.85699 0.85588 0.85548 0.85503 0.85576 0.85425 0.85339 0.85258 0.85517
5 0.0000 0.0000 0.0000 2.31652 2.36305 1.64611 0.22498 0.10780 0.04878 0.02615 0.01900 0.01700 0.01684 0.01785 0.01997 0.02253 0.02444 0.02460 0.02330 0.02179 0.02070 0.02014 0.02018 0.02110 0.02225 0.02392 0.02556 0.02621 0.02609 0.02540 0.02450 0.02403 0.02415 0.02502 0.02715 0.03130 0.03861 0.05162 0.07273 0.10796 0.16025 0.23363
6 0.0000 0.0000 0.0000 2.31918 2.28775 1.64830 0.22454 0.10798 0.04871 0.02611 0.01895 0.01700 0.01676 0.01787 0.01989 0.02258 0.02443 0.02460 0.02338 0.02175 0.02066 0.02014 0.02023 0.02093 0.02235 0.02401 0.02546 0.02636 0.02611 0.02540 0.02446 0.02392 0.02406 0.02510 0.02717 0.03133 0.03871 0.05136 0.07274 0.10769 0.16016 0.23367
7 0.0000 0.0000 0.0000 2.31654 2.32084 1.65583 0.22518 0.10852 0.04894 0.02621 0.01898 0.01697 0.01682 0.01783 0.01994 0.02255 0.02449 0.02458 0.02321 0.02184 0.02064 0.02020 0.02017 0.02089 0.02228 0.02398 0.02555 0.02634 0.02623 0.02540 0.02467 0.02406 0.02401 0.02498 0.02712 0.03125 0.03853 0.05135 0.07305 0.10734 0.16013 0.23428
8 0.0000 0.0000 0.0000 2.31491 2.29139 1.66876 0.22627 0.10864 0.04886 0.02627 0.01899 0.01689 0.01680 0.01785 0.01990 0.02254 0.02445 0.02462 0.02333 0.02175 0.02072 0.02012 0.02023 0.02098 0.02229 0.02397 0.02540 0.02643 0.02619 0.02542 0.02451 0.02401 0.02412 0.02498 0.02721 0.03130 0.03856 0.05125 0.07298 0.10819 0.16042 0.23391
9 100.0000 100.0000 100.0000 81.78388 85.33776 67.21923 0.80740 0.79586 0.79086 0.78398 0.78796 0.78796 0.79470 0.80811 0.82003 0.83035 0.83768 0.84194 0.85054 0.84978 0.85719 0.85327 0.85438 0.85448 0.85751 0.85851 0.85596 0.85600 0.85348 0.85686 0.85108 0.85711 0.85592 0.85366 0.85656 0.85648 0.85844 0.85806 0.85546 0.85595 0.85296 0.85656
10 90.0000 100.0000 100.0000 48.80652 58.12137 66.05134 0.80556 0.79615 0.78648 0.78315 0.78446 0.78608 0.79444 0.80057 0.81080 0.81609 0.81460 0.80826 0.79378 0.77583 0.74852 0.71134 0.67062 0.62486 0.57680 0.53150 0.48620 0.44969 0.41717 0.39047 0.37155 0.36048 0.35773 0.36178 0.37600 0.39719 0.42714 0.46540 0.50783 0.55798 0.60807 0.65629
11 80.0000 100.0000 100.0000 37.22418 47.21913 65.30111 0.80878 0.79729 0.78972 0.78487 0.78398 0.78649 0.79386 0.79936 0.80388 0.80608 0.79830 0.78810 0.76532 0.73053 0.68937 0.63657 0.57729 0.51601 0.45491 0.39616 0.34565 0.30249 0.26775 0.24127 0.22421 0.21262 0.21066 0.21551 0.22865 0.24797 0.27804 0.31765 0.36771 0.42549 0.48968 0.55894
12 70.0000 100.0000 100.0000 30.55949 40.32141 64.71235 0.80840 0.79692 0.78747 0.78311 0.78250 0.78906 0.78942 0.79607 0.79939 0.79806 0.78982 0.76686 0.73630 0.69629 0.64056 0.57837 0.50667 0.43560 0.36925 0.30887 0.25837 0.21636 0.18512 0.16248 0.14709 0.13853 0.13630 0.14033 0.15088 0.16821 0.19468 0.23286 0.27958 0.33995 0.40898 0.48667
13 60.0000 100.0000 100.0000 26.17668 35.33943 64.21700 0.80791 0.79909 0.79051 0.78231 0.78267 0.78242 0.78897 0.79573 0.79690 0.79233 0.77827 0.75254 0.71622 0.66419 0.60065 0.52960 0.45176 0.37830 0.30754 0.24877 0.19939 0.16161 0.13408 0.11503 0.10253 0.09578 0.09392 0.09692 0.10524 0.11996 0.14279 0.17491 0.22039 0.27816 0.34843 0.42760
14 50.0000 100.0000 100.0000 23.10780 31.61346 63.75726 0.80747 0.79798 0.78670 0.78159 0.78146 0.78462 0.78671 0.79339 0.78924 0.78814 0.76636 0.73721 0.69399 0.63486 0.56589 0.48680 0.40762 0.32884 0.26031 0.20254 0.15798 0.12438 0.10036 0.08462 0.07471 0.06935 0.06761 0.07019 0.07675 0.08871 0.10803 0.13642 0.17594 0.23062 0.30086 0.38249
15 40.0000 100.0000 100.0000 20.94419 28.65705 63.38147 0.80873 0.79492 0.78844 0.78463 0.78145 0.78289 0.78626 0.79065 0.79027 0.78252 0.75937 0.72563 0.67413 0.61335 0.53484 0.45325 0.36720 0.28941 0.22230 0.16796 0.12643 0.09774 0.07780 0.06499 0.05679 0.05258 0.05140 0.05339 0.05852 0.06800 0.08384 0.10841 0.14412 0.19474 0.26118 0.34348
16 30.0000 100.0000 100.0000 19.30969 26.25665 62.95865 0.80311 0.79468 0.78838 0.78239 0.78449 0.78448 0.78660 0.78732 0.78576 0.77415 0.74888 0.71189 0.65975 0.58990 0.50814 0.42212 0.33397 0.25646 0.19181 0.14126 0.10392 0.07866 0.06170 0.05092 0.04460 0.04122 0.04050 0.04194 0.04606 0.05398 0.06708 0.08755 0.11908 0.16557 0.22919 0.30769
17 20.0000 100.0000 100.0000 18.03863 24.28335 62.59109 0.80396 0.79859 0.78804 0.78344 0.78102 0.78156 0.78565 0.78599 0.78400 0.76914 0.74360 0.70118 0.64141 0.56790 0.48369 0.39204 0.30573 0.22861 0.16636 0.11988 0.08628 0.06428 0.05014 0.04157 0.03638 0.03363 0.03301 0.03421 0.03749 0.04371 0.05460 0.07204 0.10024 0.14243 0.20221 0.27934
18 10.0000 100.0000 100.0000 17.02708 22.61851 62.23180 0.80573 0.79867 0.78863 0.78005 0.78095 0.77907 0.78530 0.78336 0.78182 0.76616 0.73671 0.68886 0.62783 0.54828 0.45968 0.36710 0.28027 0.20538 0.14596 0.10198 0.07272 0.05361 0.04193 0.03462 0.03063 0.02854 0.02807 0.02891 0.03149 0.03661 0.04550 0.06039 0.08491 0.12327 0.17954 0.25587
19 0.0000 100.0000 100.0000 16.19447 21.23078 61.91468 0.80605 0.79862 0.78580 0.78256 0.77908 0.78180 0.78688 0.78169 0.77824 0.75752 0.72907 0.68325 0.61398 0.52968 0.43872 0.34521 0.25746 0.18533 0.12861 0.08841 0.06227 0.04567 0.03553 0.02990 0.02658 0.02480 0.02456 0.02520 0.02730 0.03130 0.03851 0.05135 0.07309 0.10727 0.16030 0.23309
20 100.0000 100.0000 100.0000 81.81798 85.33868 67.20816 0.80849 0.79492 0.78966 0.78388 0.78538 0.78886 0.79548 0.80743 0.81922 0.82921 0.84013 0.84351 0.84922 0.85308 0.85602 0.85346 0.85415 0.85469 0.85351 0.85313 0.85671 0.85614 0.85720 0.85765 0.85399 0.85485 0.85393 0.85483 0.85757 0.85291 0.85744 0.85398 0.85615 0.85877 0.85730 0.85293
21 100.0000 90.0000 100.0000 66.35499 57.10831 51.18068 0.78270 0.75012 0.70535 0.66509 0.63694 0.62242 0.62718 0.64253 0.65243 0.64015 0.60599 0.55295 0.49701 0.45016 0.41822 0.40812 0.41935 0.45160 0.50190 0.56695 0.63650 0.70416 0.75623 0.79880 0.82294 0.84253 0.84622 0.84680 0.85504 0.85549 0.85574 0.85770 0.85710 0.85428 0.85365 0.85542
22 100.0000 80.0000 100.0000 59.34002 46.04156 43.42865 0.76611 0.71828 0.65983 0.60388 0.56052 0.53950 0.54370 0.55684 0.56433 0.54547 0.49334 0.42634 0.35689 0.30359 0.27120 0.25924 0.27162 0.30525 0.36130 0.43978 0.53118 0.61923 0.70258 0.76030 0.80380 0.82951 0.84607 0.85046 0.85340 0.85542 0.85627 0.85503 0.85544 0.85582 0.85448 0.85692
23 100.0000 70.0000 100.0000 54.53124 39.09207 37.82129 0.75506 0.69636 0.62438 0.55207 0.50041 0.47672 0.47826 0.49379 0.49968 0.47479 0.41677 0.33909 0.27062 0.21796 0.18884 0.17869 0.18906 0.22029 0.27524 0.35450 0.45424 0.56176 0.65754 0.73520 0.78850 0.82211 0.83919 0.85006 0.85054 0.85241 0.85603 0.85668 0.85618 0.85826 0.85699 0.85395
24 100.0000 60.0000 100.0000 50.77330 34.20966 33.45759 0.74139 0.67377 0.59076 0.51191 0.45298 0.42577 0.42732 0.44336 0.44883 0.42024 0.35755 0.27952 0.21122 0.16383 0.13750 0.12858 0.13701 0.16432 0.21573 0.29184 0.39522 0.51171 0.61860 0.71190 0.77649 0.81529 0.83677 0.84378 0.85205 0.85159 0.85362 0.85534 0.85654 0.85596 0.85740 0.85352
25 100.0000 50.0000 100.0000 47.83855 30.69015 29.90052 0.73367 0.65567 0.56278 0.47593 0.41427 0.38533 0.38427 0.40217 0.40468 0.37500 0.30978 0.23271 0.16785 0.12573 0.10312 0.09598 0.10342 0.12690 0.17243 0.24586 0.34896 0.46881 0.59026 0.68972 0.76374 0.80630 0.83469 0.84759 0.84982 0.85529 0.85565 0.85688 0.85605 0.85519 0.85372 0.85530
26 100.0000 40.0000 100.0000 45.38787 27.95357 26.98481 0.72368 0.63713 0.53744 0.44318 0.37939 0.34943 0.35003 0.36354 0.36890 0.33628 0.27185 0.19616 0.13655 0.09938 0.07962 0.07394 0.07972 0.10044 0.13976 0.20784 0.30731 0.43154 0.55797 0.66966 0.75131 0.80542 0.83341 0.84353 0.85151 0.85311 0.85158 0.85344 0.85486 0.85445 0.85504 0.85689
27 100.0000 30.0000 100.0000 43.29440 25.78971 24.49144 0.71488 0.62284 0.51459 0.41738 0.35036 0.31880 0.31749 0.33396 0.33705 0.30447 0.23962 0.16769 0.11282 0.07983 0.06329 0.05860 0.06342 0.08064 0.11543 0.17848 0.27412 0.40025 0.53377 0.65073 0.73986 0.79704 0.82581 0.84235 0.85134 0.85001 0.85081 0.85514 0.85424 0.85201 0.85364 0.85598
28 100.0000 20.0000 100.0000 41.48290 24.02776 22.31658 0.70553 0.60581 0.49533 0.39293 0.32312 0.29229 0.29201 0.30625 0.30891 0.27733 0.21294 0.14444 0.09416 0.06534 0.05180 0.04755 0.05172 0.06605 0.09675 0.15440 0.24683 0.37074 0.50973 0.63523 0.73173 0.79354 0.82288 0.84167 0.85069 0.85508 0.85317 0.85211 0.85683 0.85415 0.85442 0.85467
29 100.0000 10.0000 100.0000 39.96494 22.55914 20.47225 0.69654 0.59486 0.47306 0.37106 0.30074 0.26845 0.26813 0.28172 0.28534 0.25246 0.18916 0.12520 0.07985 0.05467 0.04295 0.03963 0.04308 0.05503 0.08215 0.13440 0.22255 0.34704 0.48832 0.61854 0.71817 0.78514 0.82956 0.84099 0.85025 0.85247 0.85621 0.85555 0.85698 0.85554 0.85461 0.85897
30 100.0000 0.0000 100.0000 38.57275 21.38072 18.78296 0.69004 0.58085 0.45726 0.34937 0.27864 0.24785 0.24644 0.26044 0.26299 0.23099 0.16912 0.10951 0.06829 0.04654 0.03662 0.03376 0.03683 0.04683 0.07010 0.11790 0.20080 0.32395 0.46512 0.60194 0.70921 0.78023 0.82103 0.83846 0.84682 0.85097 0.85491 0.85629 0.85125 0.85537 0.85702 0.85506
31 100.0000 100.0000 100.0000 81.81614 85.34242 67.17711 0.80674 0.79796 0.79042 0.78457 0.78269 0.79003 0.80102 0.80916 0.81984 0.82693 0.83644 0.84478 0.84916 0.85118 0.84948 0.85341 0.85569 0.85972 0.85561 0.85533 0.85744 0.85468 0.85490 0.85608 0.85615 0.85654 0.85673 0.85588 0.85441 0.85487 0.85622 0.85452 0.85378 0.85570 0.85069 0.85665
32 100.0000 100.0000 90.0000 75.78382 80.51478 34.38753 0.64362 0.56091 0.48029 0.41214 0.36513 0.33915 0.33810 0.35674 0.39322 0.44371 0.50088 0.56787 0.63023 0.69220 0.74620 0.79195 0.82151 0.83922 0.84859 0.85630 0.85579 0.85688 0.85549 0.85325 0.85475 0.85365 0.85554 0.85574 0.85843 0.85327 0.85700 0.85484 0.85594 0.85371 0.85858 0.85575
33 100.0000 100.0000 80.0000 73.70624 78.13415 23.30500 0.55965 0.45375 0.35428 0.27806 0.22858 0.20332 0.19997 0.21718 0.25139 0.30094 0.36609 0.43955 0.52169 0.60871 0.69007 0.75595 0.80286 0.83292 0.84734 0.85204 0.85088 0.85408 0.85070 0.85211 0.85471 0.85612 0.85728 0.85578 0.85760 0.85769 0.85356 0.85434 0.85547 0.85330 0.85524 0.85400
34 100.0000 100.0000 70.0000 72.52889 76.40364 17.05714 0.49444 0.37588 0.27434 0.19922 0.15464 0.13327 0.13057 0.14364 0.17243 0.21875 0.28019 0.35706 0.44762 0.54636 0.64063 0.72502 0.78671 0.82405 0.84326 0.85176 0.85233 0.85523 0.85465 0.85596 0.85817 0.85389 0.85638 0.85432 0.85492 0.85400 0.85523 0.85599 0.85174 0.85820 0.85748 0.85846
35 100.0000 100.0000 60.0000 71.75772 75.01412 13.14477 0.44521 0.31926 0.21724 0.14946 0.11023 0.09291 0.09009 0.10083 0.12482 0.16468 0.22099 0.29451 0.38640 0.49420 0.60418 0.69939 0.77413 0.81854 0.84090 0.85085 0.85409 0.85347 0.85597 0.85210 0.85546 0.85661 0.85206 0.85849 0.85349 0.85700 0.85461 0.85529 0.85393 0.85515 0.85504 0.85411
36 100.0000 100.0000 50.0000 71.18647 73.84093 10.50001 0.40319 0.27404 0.17633 0.11454 0.08188 0.06755 0.06547 0.07379 0.09340 0.12716 0.17740 0.24864 0.34026 0.45067 0.57069 0.67866 0.76058 0.80923 0.83758 0.85104 0.85433 0.85525 0.85572 0.85446 0.85623 0.85186 0.85334 0.85268 0.85121 0.85615 0.85445 0.85508 0.85509 0.85407 0.85619 0.85387
37 100.0000 100.0000 40.0000 70.77043 72.83914 8.60033 0.36653 0.23732 0.14481 0.09046 0.06286 0.05118 0.04959 0.05590 0.07216 0.10008 0.14557 0.21148 0.30174 0.41503 0.53979 0.65667 0.74819 0.80428 0.83191 0.85165 0.85229 0.85664 0.85507 0.85426 0.85497 0.85468 0.85416 0.85460 0.85385 0.85565 0.85539 0.85552 0.85260 0.85569 0.85796 0.85319
38 100.0000 100.0000 30.0000 70.43345 71.94328 7.29020 0.33528 0.20826 0.12105 0.07287 0.04946 0.04002 0.03910 0.04416 0.05685 0.08103 0.12078 0.18117 0.26728 0.38253 0.51307 0.63618 0.73364 0.80103 0.83284 0.84639 0.85411 0.85445 0.85273 0.85514 0.85908 0.85381 0.85655 0.85485 0.85596 0.85580 0.85665 0.85714 0.85483 0.85775 0.85582 0.85310
39 100.0000 100.0000 20.0000 70.20243 71.18309 6.25167 0.30977 0.18307 0.10204 0.05967 0.04028 0.03291 0.03191 0.03594 0.04642 0.06671 0.10169 0.15761 0.24103 0.35344 0.48909 0.62165 0.72730 0.79309 0.83035 0.84206 0.84865 0.85466 0.85588 0.85504 0.85563 0.85645 0.85390 0.85640 0.85681 0.85411 0.85683 0.85434 0.85543 0.85529 0.85510 0.85138
40 100.0000 100.0000 10.0000 69.99185 70.42645 5.46807 0.28490 0.16166 0.08721 0.04972 0.03360 0.02759 0.02688 0.03014 0.03869 0.05578 0.08630 0.13719 0.21686 0.32883 0.46607 0.60249 0.71640 0.78585 0.82963 0.84551 0.85422 0.85482 0.85670 0.85749 0.85312 0.85284 0.85661 0.85594 0.85363 0.85407 0.85402 0.85611 0.85313 0.85270 0.85431 0.85360
41 100.0000 100.0000 0.0000 69.82893 69.79690 4.85477 0.26282 0.14448 0.07489 0.04228 0.02881 0.02399 0.02339 0.02596 0.03297 0.04739 0.07423 0.12074 0.19697 0.30513 0.44505 0.58675 0.70654 0.78311 0.82558 0.84605 0.84971 0.85328 0.85307 0.85550 0.85591 0.85622 0.85242 0.85260 0.85554 0.85539 0.85345 0.85538 0.85556 0.85431 0.86011 0.85365
42 100.0000 100.0000 100.0000 81.79700 85.35704 67.19186 0.80931 0.79722 0.78911 0.78299 0.78380 0.78853 0.79641 0.80842 0.81982 0.82911 0.83865 0.84361 0.84728 0.85029 0.85170 0.85339 0.85405 0.85554 0.85438 0.85693 0.85650 0.85489 0.85304 0.85515 0.85547 0.85629 0.85639 0.85599 0.85591 0.85642 0.85819 0.85533 0.85452 0.85827 0.85631 0.85373
43 90.0000 90.0000 90.0000 33.74209 34.38756 25.38410 0.62353 0.52672 0.43262 0.35094 0.29669 0.26927 0.26633 0.28420 0.30963 0.33820 0.35370 0.35685 0.34728 0.33544 0.32426 0.31852 0.31923 0.32743 0.34043 0.35238 0.36624 0.36987 0.36890 0.36429 0.35851 0.35419 0.35416 0.36107 0.37623 0.39704 0.42619 0.46293 0.50646 0.55553 0.60735 0.65707
44 80.0000 80.0000 80.0000 19.78668 19.89762 14.17238 0.52930 0.40739 0.29645 0.21554 0.16561 0.14213 0.13955 0.15142 0.17415 0.19565 0.20994 0.21064 0.20223 0.19044 0.17983 0.17426 0.17569 0.18290 0.19420 0.20788 0.21716 0.22187 0.22169 0.21681 0.21093 0.20726 0.20820 0.21436 0.22766 0.24868 0.27786 0.31878 0.36652 0.42468 0.48892 0.55728
45 70.0000 70.0000 70.0000 12.75626 12.69757 8.84034 0.46477 0.32856 0.21790 0.14368 0.10298 0.08455 0.08259 0.09158 0.10825 0.12551 0.13633 0.13682 0.12921 0.11983 0.11189 0.10796 0.10884 0.11386 0.12296 0.13357 0.14147 0.14647 0.14478 0.14124 0.13644 0.13388 0.13393 0.13931 0.15014 0.16819 0.19521 0.23262 0.28066 0.33996 0.40856 0.48459
46 60.0000 60.0000 60.0000 8.79974 8.69467 5.95899 0.40804 0.27128 0.16501 0.10131 0.06891 0.05578 0.05395 0.06008 0.07231 0.08566 0.09394 0.09410 0.08885 0.08097 0.07498 0.07192 0.07242 0.07659 0.08374 0.09180 0.09847 0.10155 0.10105 0.09775 0.09378 0.09194 0.09187 0.09607 0.10475 0.12003 0.14327 0.17602 0.22009 0.27880 0.34735 0.42812
47 50.0000 50.0000 50.0000 6.31812 6.23078 4.26970 0.36481 0.22643 0.12898 0.07406 0.04911 0.03941 0.03816 0.04264 0.05162 0.06184 0.06824 0.06822 0.06381 0.05799 0.05315 0.05115 0.05150 0.05460 0.06005 0.06601 0.07119 0.07399 0.07335 0.07111 0.06798 0.06619 0.06660 0.06963 0.07658 0.08903 0.10760 0.13612 0.17699 0.23115 0.30076 0.38102
48 40.0000 40.0000 40.0000 4.81398 4.68199 3.24735 0.32891 0.19191 0.10286 0.05673 0.03703 0.02994 0.02906 0.03231 0.03882 0.04660 0.05159 0.05178 0.04805 0.04376 0.04024 0.03854 0.03885 0.04120 0.04510 0.04986 0.05417 0.05581 0.05579 0.05363 0.05151 0.04991 0.05020 0.05291 0.05816 0.06797 0.08396 0.10824 0.14406 0.19392 0.26086 0.34194
49 30.0000 30.0000 30.0000 3.88158 3.69348 2.57430 0.29749 0.16447 0.08286 0.04462 0.02938 0.02423 0.02362 0.02608 0.03074 0.03659 0.04081 0.04077 0.03805 0.03454 0.03194 0.03085 0.03105 0.03276 0.03567 0.03934 0.04235 0.04402 0.04386 0.04232 0.04052 0.03946 0.03970 0.04155 0.04581 0.05381 0.06684 0.08780 0.11953 0.16556 0.22923 0.31023
50 20.0000 20.0000 20.0000 3.17317 3.05802 2.13159 0.27132 0.14241 0.06850 0.03630 0.02443 0.02062 0.02028 0.02199 0.02553 0.03015 0.03321 0.03347 0.03125 0.02853 0.02655 0.02562 0.02598 0.02720 0.02940 0.03215 0.03481 0.03596 0.03567 0.03458 0.03317 0.03232 0.03244 0.03393 0.03739 0.04366 0.05461 0.07198 0.10038 0.14247 0.20176 0.28093
51 10.0000 10.0000 10.0000 2.65925 2.64136 1.84589 0.24631 0.12378 0.05772 0.03040 0.02114 0.01836 0.01812 0.01944 0.02225 0.02574 0.02805 0.02827 0.02660 0.02450 0.02301 0.02234 0.02245 0.02339 0.02520 0.02734 0.02918 0.03025 0.03011 0.02931 0.02813 0.02742 0.02750 0.02872 0.03139 0.03643 0.04558 0.06020 0.08497 0.12398 0.18003 0.25622
52 0.0000 0.0000 0.0000 2.35992 2.24794 1.68785 0.22450 0.10861 0.04892 0.02612 0.01907 0.01701 0.01679 0.01782 0.01991 0.02252 0.02448 0.02464 0.02332 0.02177 0.02066 0.02015 0.02026 0.02094 0.02240 0.02401 0.02552 0.02627 0.02611 0.02544 0.02449 0.02396 0.02407 0.02509 0.02716 0.03131 0.03851 0.05127 0.07274 0.10771 0.15986 0.23327
53 0.0000 0.0000 0.0000 2.33931 2.30683 1.67881 0.22483 0.10838 0.04891 0.02622 0.01893 0.01691 0.01678 0.01785 0.01988 0.02259 0.02455 0.02470 0.02332 0.02178 0.02063 0.02019 0.02022 0.02106 0.02228 0.02396 0.02552 0.02634 0.02615 0.02541 0.02448 0.02405 0.02406 0.02501 0.02715 0.03129 0.03862 0.05128 0.07304 0.10737 0.15924 0.23354
54 0.0000 0.0000 100.0000 5.25667 3.25691 17.87962 0.69200 0.57744 0.45587 0.34878 0.27755 0.24518 0.24267 0.25330 0.25021 0.21286 0.14920 0.09060 0.05316 0.03432 0.02585 0.02248 0.02135 0.02154 0.02252 0.02412 0.02553 0.02638 0.02617 0.02541 0.02451 0.02406 0.02407 0.02509 0.02721 0.03121 0.03858 0.05136 0.07309 0.10776 0.16038 0.23402
55 0.0000 100.0000 0.0000 5.86391 12.16828 3.84059 0.26203 0.14397 0.07480 0.04217 0.02861 0.02399 0.02327 0.02570 0.03201 0.04442 0.06612 0.09956 0.14510 0.19451 0.23095 0.24032 0.21546 0.17065 0.12454 0.08793 0.06201 0.04568 0.03565 0.02982 0.02653 0.02482 0.02450 0.02522 0.02726 0.03136 0.03867 0.05119 0.07297 0.10816 0.16044 0.23360
56 0.0000 100.0000 100.0000 16.21899 21.19989 61.90989 0.80516 0.79734 0.78939 0.78787 0.78261 0.78326 0.78299 0.78235 0.77691 0.75860 0.72926 0.68175 0.61316 0.53316 0.43913 0.34552 0.25776 0.18443 0.12857 0.08845 0.06225 0.04568 0.03557 0.02979 0.02656 0.02498 0.02453 0.02521 0.02723 0.03123 0.03863 0.05139 0.07296 0.10780 0.16073 0.23340
57 100.0000 0.0000 0.0000 35.43834 20.15037 1.74536 0.22569 0.10857 0.04880 0.02624 0.01901 0.01694 0.01681 0.01788 0.02022 0.02332 0.02593 0.02692 0.02657 0.02602 0.02619 0.02793 0.03284 0.04418 0.06829 0.11633 0.19997 0.32203 0.46686 0.60287 0.70969 0.78157 0.81777 0.84079 0.84769 0.85072 0.85739 0.85344 0.85441 0.85490 0.85670 0.85496
58 100.0000 0.0000 100.0000 38.57836 21.32107 18.79139 0.69080 0.57864 0.45714 0.34916 0.27921 0.24755 0.24640 0.26130 0.26345 0.23149 0.16997 0.10936 0.06821 0.04627 0.03642 0.03389 0.03668 0.04673 0.07030 0.11773 0.20079 0.32346 0.46732 0.60407 0.71038 0.78177 0.81977 0.84222 0.85153 0.85460 0.85536 0.85242 0.85635 0.85504 0.85847 0.85624
59 100.0000 100.0000 0.0000 69.81505 69.79982 4.88526 0.26249 0.14387 0.07487 0.04217 0.02875 0.02404 0.02346 0.02600 0.03281 0.04719 0.07419 0.12077 0.19623 0.30575 0.44467 0.58936 0.71025 0.78302 0.82629 0.84978 0.85119 0.85667 0.85556 0.85235 0.85325 0.85581 0.85621 0.85593 0.85495 0.85512 0.85464 0.85218 0.85867 0.85889 0.85831 0.85318
60 100.0000 100.0000 100.0000 81.78253 85.32928 67.20804 0.80820 0.79477 0.78796 0.78761 0.78261 0.78710 0.79849 0.80947 0.81793 0.82867 0.83687 0.84012 0.84857 0.85048 0.85423 0.85482 0.85155 0.85438 0.85404 0.85629 0.85588 0.85536 0.85481 0.85556 0.85586 0.85385 0.85438 0.85286 0.85335 0.85772 0.85559 0.85573 0.85518 0.85138 0.85419 0.85723
61 62.8570 83.2611 80.1498 13.23298 15.49609 14.74384 0.53567 0.41379 0.30540 0.22284 0.17304 0.14865 0.14602 0.15780 0.17982 0.20351 0.21846 0.21916 0.21130 0.19737 0.18320 0.17180 0.16351 0.15856 0.15507 0.15046 0.14460 0.13489 0.12478 0.11518 0.10789 0.10306 0.10322 0.10688 0.11590 0.13143 0.15560 0.18929 0.23528 0.29490 0.36439 0.44405
62 37.8570 16.5945 0.1498 3.95642 3.53967 1.78695 0.23008 0.11244 0.05130 0.02763 0.01979 0.01742 0.01730 0.01840 0.02084 0.02419 0.02713 0.02829 0.02767 0.02647 0.02551 0.02533 0.02649 0.02875 0.03260 0.03772 0.04333 0.04726 0.04921 0.04884 0.04791 0.04686 0.04743 0.04976 0.05517 0.06483 0.07970 0.10339 0.13802 0.18755 0.25394 0.33536
63 87.8570 61.0389 20.1498 20.51538 16.32481 2.99881 0.28506 0.15700 0.08018 0.04381 0.02908 0.02412 0.02357 0.02603 0.03168 0.04043 0.05041 0.05925 0.06554 0.07072 0.07625 0.08391 0.09552 0.11434 0.14107 0.17600 0.21361 0.24987 0.27629 0.29137 0.29947 0.30467 0.30915 0.31797 0.33237 0.35501 0.38567 0.42477 0.47158 0.52155 0.57896 0.63297
64 25.3570 94.3722 40.1498 6.98971 12.05635 6.14750 0.35861 0.22894 0.13580 0.08275 0.05625 0.04557 0.04392 0.04930 0.06150 0.08184 0.10839 0.13809 0.16642 0.19001 0.20087 0.19571 0.17849 0.15331 0.12683 0.10132 0.08040 0.06421 0.05268 0.04469 0.03961 0.03711 0.03656 0.03784 0.04167 0.04878 0.06073 0.08003 0.10969 0.15454 0.21587 0.29525
65 75.3570 27.7056 64.1498 11.02925 8.29144 4.95675 0.41059 0.26634 0.15774 0.09331 0.06178 0.04945 0.04831 0.05383 0.06367 0.07144 0.07237 0.06451 0.05406 0.04556 0.04039 0.03882 0.04102 0.04770 0.05974 0.07768 0.10094 0.12430 0.14233 0.15412 0.15842 0.16166 0.16529 0.17247 0.18579 0.20570 0.23414 0.27285 0.32229 0.38206 0.44854 0.52160
66 50.3570 72.1500 84.1498 9.34458 10.16398 14.51428 0.55435 0.43276 0.31874 0.23385 0.18134 0.15673 0.15424 0.16553 0.18513 0.19903 0.19961 0.18369 0.16027 0.13692 0.11774 0.10574 0.09856 0.09584 0.09552 0.09470 0.09288 0.08814 0.08225 0.07606 0.07083 0.06809 0.06767 0.07081 0.07769 0.08947 0.10890 0.13744 0.17765 0.23297 0.30106 0.38364
67 0.3570 5.4833 4.1498 2.31592 2.35503 1.68589 0.23451 0.11447 0.05228 0.02785 0.01979 0.01753 0.01731 0.01853 0.02083 0.02391 0.02594 0.02607 0.02470 0.02303 0.02164 0.02094 0.02106 0.02178 0.02308 0.02473 0.02623 0.02685 0.02634 0.02567 0.02465 0.02416 0.02431 0.02507 0.02728 0.03152 0.03881 0.05167 0.07318 0.10841 0.16029 0.23424
68 19.1070 38.8167 24.1498 3.37812 3.59858 2.52103 0.28461 0.15597 0.07813 0.04197 0.02777 0.02311 0.02258 0.02478 0.02935 0.03540 0.04030 0.04180 0.04037 0.03755 0.03510 0.03367 0.03341 0.03444 0.03618 0.03786 0.03927 0.03885 0.03711 0.03519 0.03308 0.03202 0.03206 0.03343 0.03677 0.04305 0.05362 0.07119 0.09877 0.14048 0.20024 0.27905
