.bench/S3.ti3
CTI3   
DESCRIPTOR "Synthetic ground-truth chart (ChromIQ benchmarks)"
ORIGINATOR "ChromIQ benchmarks"
DEVICE_CLASS "OUTPUT"
COLOR_REP "CMYK_XYZ"
TOTAL_INK_LIMIT "280"
SPECTRAL_BANDS "36"
SPECTRAL_START_NM "380"
SPECTRAL_END_NM "730"
NUMBER_OF_FIELDS 44
BEGIN_DATA_FORMAT
SAMPLE_ID CMYK_C CMYK_M CMYK_Y CMYK_K XYZ_X XYZ_Y XYZ_Z SPEC_380 SPEC_390 SPEC_400 SPEC_410 SPEC_420 SPEC_430 SPEC_440 SPEC_450 SPEC_460 SPEC_470 SPEC_480 SPEC_490 SPEC_500 SPEC_510 SPEC_520 SPEC_530 SPEC_540 SPEC_550 SPEC_560 SPEC_570 SPEC_580 SPEC_590 SPEC_600 SPEC_610 SPEC_620 SPEC_630 SPEC_640 SPEC_650 SPEC_660 SPEC_670 SPEC_680 SPEC_690 SPEC_700 SPEC_710 SPEC_720 SPEC_730
END_DATA_FORMAT
NUMBER_OF_SETS 500
BEGIN_DATA
1 0.0000 0.0000 0.0000 0.0000 85.66371 88.99791 72.63877 0.85854 0.85313 0.84837 0.85395 0.85965 0.86802 0.87217 0.88349 0.88855 0.89068 0.89019 0.89221 0.89013 0.88899 0.89006 0.88889 0.89322 0.88586 0.89057 0.88865 0.88917 0.89137 0.89000 0.89203 0.88987 0.88989 0.89027 0.89226 0.88890 0.88954 0.88911 0.88927 0.88792 0.88952 0.89081 0.89250
2 0.0000 0.0000 0.0000 0.0000 85.52006 89.00861 72.53533 0.85967 0.85149 0.85243 0.84959 0.85970 0.86519 0.87509 0.87933 0.88317 0.88719 0.89237 0.89038 0.89150 0.88942 0.89006 0.88870 0.88901 0.88946 0.89168 0.89060 0.88876 0.88973 0.88853 0.89096 0.89050 0.89048 0.89127 0.89103 0.89258 0.88877 0.89135 0.88977 0.89168 0.88921 0.88723 0.88935
3 0.0000 0.0000 0.0000 0.0000 85.68155 89.01734 72.68319 0.85788 0.85071 0.84946 0.85441 0.85837 0.86844 0.87771 0.88346 0.88668 0.88981 0.88862 0.88759 0.88740 0.89168 0.89243 0.88957 0.89013 0.88609 0.89133 0.88989 0.88687 0.89094 0.89112 0.89153 0.88989 0.89053 0.88858 0.89252 0.88951 0.89228 0.89103 0.88971 0.89238 0.88898 0.89077 0.89038
4 0.0000 0.0000 0.0000 0.0000 85.67744 89.00196 72.61492 0.85876 0.85287 0.85130 0.85193 0.85816 0.86701 0.87448 0.88006 0.88638 0.88525 0.88920 0.88900 0.89024 0.89081 0.89046 0.89000 0.89230 0.88912 0.88795 0.88961 0.89123 0.89314 0.89364 0.89069 0.89207 0.89288 0.88926 0.89267 0.89087 0.88990 0.89106 0.89125 0.88665 0.89024 0.89048 0.88889
5 0.0000 0.0000 0.0000 100.0000 0.69298 1.00206 0.70214 0.01082 0.01051 0.01027 0.01011 0.00995 0.00990 0.00980 0.00967 0.00953 0.00935 0.00918 0.00898 0.00881 0.00866 0.00851 0.00833 0.00819 0.00802 0.00784 0.00769 0.00753 0.00738 0.00726 0.00713 0.00696 0.00685 0.00672 0.00657 0.00645 0.00631 0.00620 0.00608 0.00594 0.00586 0.00571 0.00562
6 0.0000 0.0000 0.0000 100.0000 0.70422 0.68407 0.71139 0.01080 0.01054 0.01027 0.01011 0.01005 0.00993 0.00981 0.00965 0.00953 0.00933 0.00918 0.00902 0.00886 0.00866 0.00851 0.00835 0.00816 0.00802 0.00785 0.00772 0.00753 0.00741 0.00726 0.00715 0.00695 0.00686 0.00670 0.00658 0.00643 0.00631 0.00620 0.00608 0.00593 0.00583 0.00572 0.00561
7 0.0000 0.0000 0.0000 100.0000 0.69305 0.82380 0.74321 0.01083 0.01053 0.01028 0.01009 0.00996 0.00989 0.00982 0.00967 0.00954 0.00934 0.00921 0.00901 0.00884 0.00868 0.00851 0.00834 0.00818 0.00802 0.00784 0.00770 0.00755 0.00743 0.00724 0.00712 0.00699 0.00685 0.00670 0.00656 0.00644 0.00633 0.00621 0.00607 0.00596 0.00584 0.00572 0.00563
8 0.0000 0.0000 0.0000 100.0000 0.68619 0.69941 0.79782 0.01085 0.01052 0.01027 0.01013 0.00996 0.00987 0.00979 0.00970 0.00952 0.00936 0.00922 0.00899 0.00881 0.00871 0.00852 0.00833 0.00818 0.00803 0.00785 0.00774 0.00753 0.00743 0.00726 0.00712 0.00698 0.00683 0.00670 0.00657 0.00643 0.00633 0.00618 0.00607 0.00598 0.00584 0.00574 0.00563
9 0.0000 0.0000 0.0000 0.0000 85.56882 88.98964 72.70719 0.85923 0.85507 0.84906 0.85094 0.85806 0.86660 0.87615 0.88504 0.88431 0.88763 0.88921 0.89020 0.88934 0.89239 0.88929 0.88833 0.89296 0.89248 0.88997 0.88843 0.89029 0.89128 0.89278 0.89294 0.88953 0.89018 0.88970 0.89015 0.88925 0.88941 0.88977 0.89025 0.88684 0.88934 0.89135 0.89085
10 10.0000 0.0000 0.0000 0.0000 60.31167 69.24088 72.30585 0.86008 0.85373 0.85094 0.85420 0.85883 0.86489 0.87692 0.88107 0.88043 0.88515 0.88253 0.87338 0.86726 0.85273 0.83410 0.80696 0.77843 0.73678 0.69512 0.65296 0.61175 0.57347 0.54420 0.51770 0.50566 0.49528 0.49910 0.51072 0.52958 0.55234 0.58266 0.62042 0.66091 0.70399 0.74188 0.78146
11 20.0000 0.0000 0.0000 0.0000 46.97152 57.80811 71.77771 0.85732 0.85383 0.85432 0.85370 0.86074 0.86716 0.87382 0.88048 0.88267 0.87513 0.87335 0.86815 0.84924 0.82449 0.79020 0.74698 0.69476 0.63125 0.57422 0.51050 0.45222 0.40495 0.36472 0.33735 0.31823 0.31157 0.31226 0.32561 0.34524 0.37698 0.41732 0.46414 0.52161 0.58134 0.64340 0.70301
12 30.0000 0.0000 0.0000 0.0000 38.41307 49.95801 71.41152 0.85895 0.85464 0.84866 0.85077 0.86026 0.86481 0.87451 0.87712 0.87967 0.87745 0.86741 0.85309 0.82914 0.79966 0.75181 0.69431 0.62749 0.55254 0.47630 0.40587 0.34302 0.29133 0.25245 0.22594 0.20879 0.20157 0.20378 0.21494 0.23565 0.26404 0.30542 0.35622 0.41867 0.48787 0.56186 0.63515
13 40.0000 0.0000 0.0000 0.0000 32.32405 43.82101 71.14258 0.85795 0.85283 0.85311 0.85052 0.85703 0.86550 0.87599 0.88021 0.88047 0.87444 0.86299 0.84262 0.81608 0.77511 0.71842 0.64887 0.56833 0.48501 0.40129 0.32685 0.26300 0.21394 0.17871 0.15409 0.13926 0.13358 0.13523 0.14476 0.16169 0.18940 0.22716 0.27676 0.33943 0.41355 0.49509 0.58085
14 50.0000 0.0000 0.0000 0.0000 27.86466 39.17350 70.84658 0.85711 0.85639 0.84809 0.85268 0.85671 0.86480 0.87265 0.87421 0.87732 0.87080 0.85853 0.83671 0.80003 0.75221 0.68742 0.60972 0.51886 0.42611 0.34013 0.26435 0.20455 0.15951 0.12769 0.10665 0.09506 0.08989 0.09140 0.09930 0.11381 0.13739 0.17082 0.21700 0.27824 0.35254 0.43971 0.52765
15 60.0000 0.0000 0.0000 0.0000 24.78769 35.36312 70.72399 0.85869 0.85083 0.84966 0.85122 0.86158 0.86693 0.87238 0.87756 0.87051 0.86989 0.84887 0.82690 0.79037 0.72992 0.65744 0.56821 0.47234 0.37754 0.28933 0.21567 0.15965 0.11908 0.09184 0.07480 0.06505 0.06105 0.06243 0.06866 0.08077 0.10014 0.12919 0.17091 0.22831 0.30196 0.38944 0.48535
16 70.0000 0.0000 0.0000 0.0000 22.42694 32.22151 70.35709 0.85948 0.84846 0.85097 0.85506 0.85606 0.86682 0.87151 0.87395 0.87449 0.86582 0.84707 0.82112 0.77480 0.70927 0.63342 0.53651 0.43551 0.33401 0.24670 0.17690 0.12551 0.09009 0.06687 0.05330 0.04514 0.04214 0.04324 0.04810 0.05775 0.07371 0.09871 0.13653 0.18828 0.25907 0.34698 0.44656
17 80.0000 0.0000 0.0000 0.0000 20.57033 29.65169 70.10651 0.86066 0.85258 0.85041 0.85292 0.85762 0.86601 0.86981 0.87289 0.87183 0.86134 0.84347 0.81009 0.76149 0.69428 0.60383 0.50356 0.39795 0.29860 0.21168 0.14634 0.09930 0.06831 0.04911 0.03775 0.03158 0.02932 0.02995 0.03373 0.04137 0.05465 0.07584 0.10862 0.15737 0.22394 0.30943 0.41032
18 90.0000 0.0000 0.0000 0.0000 19.08067 27.47260 69.82468 0.85673 0.85076 0.84772 0.85375 0.85432 0.86793 0.87041 0.87142 0.86896 0.85916 0.83777 0.80128 0.75022 0.67321 0.58083 0.47610 0.36494 0.26470 0.18234 0.12067 0.07875 0.05219 0.03616 0.02704 0.02225 0.02040 0.02097 0.02390 0.03004 0.04069 0.05855 0.08648 0.13100 0.19305 0.27705 0.37839
19 100.0000 0.0000 0.0000 0.0000 17.82350 25.73026 69.63629 0.86213 0.85000 0.84935 0.85167 0.86208 0.86773 0.86965 0.87262 0.86923 0.85530 0.83543 0.79487 0.73420 0.65782 0.55917 0.44789 0.33683 0.23702 0.15691 0.09982 0.06271 0.03981 0.02684 0.01943 0.01575 0.01432 0.01475 0.01701 0.02185 0.03037 0.04541 0.06994 0.10920 0.16744 0.24865 0.34932
20 0.0000 0.0000 0.0000 0.0000 85.68249 88.99272 72.67028 0.85885 0.85061 0.84991 0.84801 0.86076 0.86510 0.87685 0.88408 0.88705 0.88614 0.88988 0.89106 0.89136 0.89078 0.89019 0.88949 0.88958 0.89035 0.88991 0.88951 0.88941 0.89014 0.88902 0.89170 0.89016 0.89214 0.88878 0.88847 0.88909 0.88984 0.89004 0.89180 0.88638 0.89049 0.88714 0.88839
21 0.0000 10.0000 0.0000 0.0000 76.15043 69.22938 62.66506 0.84770 0.82676 0.80193 0.77143 0.75299 0.74741 0.75919 0.78309 0.79635 0.79189 0.76114 0.70578 0.64332 0.58752 0.55051 0.53695 0.55281 0.58947 0.64445 0.70873 0.77168 0.81705 0.85054 0.87399 0.88324 0.88512 0.89011 0.88976 0.88961 0.88946 0.88930 0.89042 0.89164 0.88850 0.89095 0.88750
22 0.0000 20.0000 0.0000 0.0000 70.08111 57.91818 55.88947 0.83906 0.80823 0.76177 0.71220 0.67666 0.66267 0.67821 0.71059 0.73051 0.72047 0.66970 0.58550 0.49761 0.42129 0.37453 0.35939 0.37553 0.42059 0.49717 0.58909 0.68252 0.76402 0.81954 0.85703 0.87633 0.88314 0.88787 0.88501 0.89047 0.88970 0.88671 0.88669 0.88951 0.89347 0.89004 0.88773
23 0.0000 30.0000 0.0000 0.0000 65.61715 49.90590 50.26478 0.83070 0.78485 0.72685 0.66058 0.61063 0.59331 0.60936 0.65132 0.67677 0.66150 0.59238 0.49052 0.38916 0.31000 0.26321 0.24665 0.26171 0.31070 0.39120 0.49609 0.61316 0.71666 0.79181 0.84425 0.86674 0.88017 0.88805 0.88611 0.88497 0.88862 0.89006 0.88983 0.88902 0.88744 0.89176 0.89147
24 0.0000 40.0000 0.0000 0.0000 61.68604 43.82433 45.53948 0.82415 0.77208 0.69480 0.61780 0.55706 0.53351 0.55276 0.59638 0.62865 0.60676 0.52915 0.41732 0.30950 0.23110 0.18700 0.17267 0.18764 0.23184 0.31127 0.42434 0.55140 0.67512 0.77170 0.82882 0.86297 0.88131 0.88786 0.88779 0.88870 0.88891 0.88855 0.89123 0.88946 0.88871 0.88869 0.89150
25 0.0000 50.0000 0.0000 0.0000 58.66750 39.45651 41.42363 0.81241 0.75494 0.66951 0.57603 0.50637 0.48167 0.50140 0.55152 0.58429 0.56386 0.47449 0.35700 0.24933 0.17525 0.13543 0.12305 0.13531 0.17524 0.25052 0.36280 0.49996 0.63685 0.74662 0.82083 0.85848 0.87732 0.88343 0.89005 0.89012 0.89031 0.89040 0.89107 0.88725 0.88852 0.88963 0.89149
26 0.0000 60.0000 0.0000 0.0000 56.02090 35.91543 37.99431 0.81089 0.74183 0.64340 0.54096 0.46392 0.43554 0.45629 0.50732 0.54651 0.52208 0.42815 0.30547 0.20155 0.13316 0.09867 0.08809 0.09864 0.13355 0.20206 0.31113 0.45455 0.60243 0.72431 0.80674 0.85267 0.87943 0.88411 0.88574 0.88677 0.89116 0.88696 0.89105 0.88917 0.89040 0.89004 0.89157
27 0.0000 70.0000 0.0000 0.0000 53.67075 33.08400 34.90311 0.80275 0.72585 0.61719 0.50472 0.42724 0.39483 0.41709 0.47064 0.51032 0.48370 0.38767 0.26240 0.16350 0.10241 0.07223 0.06388 0.07231 0.10243 0.16362 0.27013 0.41404 0.57028 0.70371 0.79843 0.84913 0.87431 0.88365 0.88783 0.88956 0.88870 0.89067 0.89347 0.89130 0.89183 0.89123 0.89452
28 0.0000 80.0000 0.0000 0.0000 51.58832 30.74559 32.05494 0.79667 0.70986 0.59182 0.47590 0.39220 0.36126 0.38020 0.43529 0.47889 0.44934 0.34911 0.22713 0.13287 0.07879 0.05337 0.04642 0.05353 0.07907 0.13423 0.23343 0.37628 0.54185 0.68436 0.78748 0.84063 0.86951 0.88231 0.89051 0.88760 0.88985 0.88922 0.89171 0.88984 0.89305 0.88843 0.89395
29 0.0000 90.0000 0.0000 0.0000 49.96527 28.76447 29.66740 0.79096 0.69714 0.57403 0.44780 0.36011 0.32942 0.34887 0.40347 0.44747 0.42018 0.31736 0.19619 0.10931 0.06105 0.03989 0.03398 0.03979 0.06106 0.10984 0.20334 0.34456 0.51289 0.66772 0.77755 0.84000 0.86879 0.87984 0.88368 0.88875 0.88863 0.89154 0.89361 0.88929 0.88970 0.89017 0.88671
30 0.0000 100.0000 0.0000 0.0000 48.34469 27.28551 27.27774 0.78494 0.68732 0.55556 0.42055 0.33325 0.30103 0.31975 0.37590 0.42077 0.39068 0.28761 0.17100 0.08977 0.04753 0.02977 0.02513 0.02975 0.04745 0.09026 0.17622 0.31531 0.48732 0.64754 0.76239 0.83099 0.86724 0.88373 0.88610 0.88857 0.89130 0.88797 0.89163 0.88945 0.88938 0.89146 0.88919
31 0.0000 0.0000 0.0000 0.0000 85.67635 89.00519 72.56677 0.86088 0.85085 0.84883 0.85187 0.86043 0.86579 0.87607 0.88264 0.88809 0.88738 0.89027 0.89165 0.89377 0.89025 0.89109 0.89059 0.88425 0.89041 0.88994 0.88804 0.88854 0.88977 0.89027 0.88997 0.88917 0.89017 0.89174 0.88985 0.89241 0.89296 0.89206 0.88932 0.88980 0.88531 0.88963 0.88933
32 0.0000 0.0000 10.0000 0.0000 81.13078 86.19138 47.92044 0.77609 0.71178 0.64586 0.57917 0.52650 0.50058 0.49959 0.52320 0.56885 0.62005 0.67139 0.71852 0.76005 0.79854 0.83663 0.86020 0.87663 0.88219 0.88313 0.88655 0.89201 0.89079 0.88612 0.88852 0.88761 0.88997 0.89319 0.88882 0.89070 0.88968 0.88911 0.88811 0.88878 0.89105 0.89083 0.89135
33 0.0000 0.0000 20.0000 0.0000 78.72801 84.25736 34.85208 0.71669 0.62046 0.51678 0.42300 0.35523 0.32079 0.32009 0.34675 0.39940 0.46657 0.53641 0.60797 0.67311 0.73796 0.79277 0.83824 0.86501 0.88119 0.88560 0.88808 0.88974 0.89145 0.88776 0.89030 0.89003 0.89216 0.88604 0.88746 0.89160 0.89082 0.89115 0.89026 0.89080 0.89103 0.89184 0.88788
34 0.0000 0.0000 30.0000 0.0000 77.22425 82.75834 26.22079 0.66577 0.54683 0.42193 0.31663 0.24856 0.21365 0.21104 0.23622 0.28685 0.35708 0.43580 0.51596 0.59965 0.68165 0.75422 0.81470 0.85470 0.87449 0.88643 0.89082 0.88786 0.89042 0.89081 0.89166 0.88731 0.88827 0.89074 0.89213 0.89063 0.88853 0.89092 0.88875 0.88744 0.89031 0.89172 0.89188
35 0.0000 0.0000 40.0000 0.0000 76.17306 81.47481 20.35183 0.62188 0.48135 0.34563 0.24153 0.17514 0.14477 0.14204 0.16385 0.21024 0.27732 0.35818 0.44429 0.53717 0.63322 0.72166 0.79581 0.84450 0.87222 0.88181 0.88814 0.89015 0.89246 0.89013 0.89282 0.89087 0.89130 0.88881 0.88903 0.89092 0.88897 0.89293 0.89039 0.89480 0.88907 0.89120 0.89101
36 0.0000 0.0000 50.0000 0.0000 75.32126 80.32739 16.11117 0.58123 0.42830 0.28604 0.18534 0.12622 0.09953 0.09682 0.11539 0.15578 0.21789 0.29532 0.38577 0.48284 0.59057 0.69310 0.78189 0.83740 0.87030 0.88194 0.88438 0.88953 0.89005 0.88874 0.88995 0.88669 0.88950 0.88887 0.89247 0.89003 0.89006 0.88996 0.88651 0.88815 0.89211 0.89094 0.88745
37 0.0000 0.0000 60.0000 0.0000 74.71769 79.34337 12.86750 0.54431 0.38086 0.23962 0.14347 0.09126 0.06905 0.06708 0.08198 0.11630 0.17207 0.24599 0.33474 0.43711 0.54869 0.66373 0.76234 0.82940 0.86057 0.87920 0.88790 0.89457 0.88841 0.88948 0.89015 0.89133 0.88730 0.88865 0.88891 0.88855 0.88878 0.89067 0.89201 0.89085 0.89022 0.88970 0.88858
38 0.0000 0.0000 70.0000 0.0000 74.21042 78.41055 10.67775 0.50905 0.33971 0.20094 0.11203 0.06676 0.04863 0.04686 0.05896 0.08751 0.13622 0.20475 0.29165 0.39426 0.51221 0.63691 0.74308 0.82034 0.86338 0.88092 0.88853 0.89267 0.88751 0.88773 0.88999 0.88929 0.89042 0.89202 0.88994 0.88686 0.89500 0.88811 0.88770 0.89195 0.88697 0.88789 0.89003
39 0.0000 0.0000 80.0000 0.0000 73.94636 77.69714 8.80508 0.47871 0.30515 0.16895 0.08759 0.04902 0.03442 0.03298 0.04280 0.06620 0.10927 0.17210 0.25526 0.35691 0.48036 0.61095 0.72611 0.80999 0.86019 0.87578 0.88912 0.88879 0.88971 0.88730 0.89021 0.89245 0.88880 0.88999 0.88982 0.88909 0.88804 0.89195 0.89128 0.88861 0.89201 0.88829 0.88999
40 0.0000 0.0000 90.0000 0.0000 73.67442 76.81007 7.38690 0.44941 0.27265 0.14200 0.06914 0.03630 0.02452 0.02342 0.03095 0.05040 0.08740 0.14469 0.22383 0.32524 0.45251 0.59017 0.71380 0.80333 0.85508 0.87753 0.88671 0.89083 0.88859 0.88925 0.88961 0.88599 0.89240 0.88944 0.89269 0.88638 0.88621 0.88935 0.89012 0.89176 0.89147 0.89246 0.89015
41 0.0000 0.0000 100.0000 0.0000 73.50678 76.19561 6.26157 0.42673 0.24656 0.11982 0.05436 0.02694 0.01752 0.01660 0.02261 0.03870 0.07010 0.12205 0.19718 0.29742 0.42507 0.56685 0.70069 0.79621 0.84813 0.87530 0.88733 0.88921 0.88814 0.88812 0.89075 0.89043 0.88898 0.89280 0.88910 0.88914 0.89005 0.88984 0.88975 0.88634 0.89436 0.89109 0.89067
42 0.0000 0.0000 0.0000 0.0000 85.61255 89.05391 72.61593 0.85780 0.85218 0.85079 0.85130 0.86028 0.86838 0.87473 0.88029 0.88714 0.89234 0.88972 0.89156 0.88971 0.88853 0.89213 0.88948 0.89399 0.88886 0.88726 0.89058 0.89151 0.89155 0.89020 0.88781 0.89205 0.88819 0.89410 0.88901 0.88966 0.88952 0.89256 0.89356 0.89088 0.89092 0.88829 0.89181
43 0.0000 0.0000 0.0000 10.0000 43.75292 45.57083 38.34843 0.46076 0.45927 0.45606 0.45488 0.45859 0.46172 0.46579 0.46764 0.46712 0.46732 0.46499 0.46591 0.46278 0.46213 0.46005 0.45959 0.45930 0.45675 0.45632 0.45385 0.45416 0.45331 0.45128 0.44991 0.44785 0.44807 0.44728 0.44476 0.44370 0.44206 0.44011 0.43992 0.43739 0.43860 0.43793 0.43596
44 0.0000 0.0000 0.0000 20.0000 25.56718 26.73376 22.94693 0.28214 0.27837 0.27630 0.27496 0.27648 0.27767 0.27918 0.28043 0.27951 0.27961 0.27814 0.27604 0.27548 0.27379 0.27270 0.27134 0.26989 0.26826 0.26733 0.26552 0.26397 0.26302 0.26090 0.26070 0.25952 0.25771 0.25721 0.25566 0.25405 0.25297 0.25185 0.24990 0.24912 0.24797 0.24664 0.24495
45 0.0000 0.0000 0.0000 30.0000 15.48687 16.25393 14.26884 0.17880 0.17501 0.17389 0.17328 0.17390 0.17327 0.17377 0.17378 0.17367 0.17271 0.17160 0.17116 0.16985 0.16846 0.16706 0.16601 0.16489 0.16447 0.16226 0.16130 0.16016 0.15913 0.15830 0.15651 0.15551 0.15509 0.15372 0.15302 0.15126 0.14995 0.14916 0.14808 0.14743 0.14596 0.14519 0.14436
46 0.0000 0.0000 0.0000 40.0000 9.74019 10.25454 9.12749 0.11537 0.11337 0.11203 0.11146 0.11139 0.11108 0.11102 0.11147 0.11030 0.10986 0.10889 0.10843 0.10725 0.10653 0.10556 0.10420 0.10344 0.10213 0.10143 0.10078 0.09981 0.09890 0.09794 0.09696 0.09630 0.09534 0.09445 0.09379 0.09268 0.09226 0.09105 0.09057 0.08949 0.08856 0.08781 0.08718
47 0.0000 0.0000 0.0000 50.0000 5.98110 6.40148 5.92172 0.07592 0.07455 0.07347 0.07281 0.07250 0.07239 0.07234 0.07183 0.07169 0.07107 0.07036 0.06953 0.06890 0.06825 0.06727 0.06654 0.06591 0.06526 0.06438 0.06391 0.06288 0.06265 0.06159 0.06095 0.06035 0.05960 0.05909 0.05838 0.05800 0.05720 0.05668 0.05598 0.05548 0.05480 0.05400 0.05353
48 0.0000 0.0000 0.0000 60.0000 3.93272 4.00190 3.94387 0.05052 0.04951 0.04850 0.04813 0.04781 0.04767 0.04766 0.04739 0.04678 0.04641 0.04609 0.04554 0.04494 0.04420 0.04375 0.04328 0.04263 0.04206 0.04150 0.04106 0.04058 0.04014 0.03948 0.03899 0.03837 0.03809 0.03747 0.03715 0.03651 0.03610 0.03569 0.03521 0.03458 0.03429 0.03388 0.03361
49 0.0000 0.0000 0.0000 70.0000 2.87989 2.55417 2.57286 0.03404 0.03331 0.03268 0.03235 0.03204 0.03179 0.03166 0.03150 0.03113 0.03079 0.03037 0.03005 0.02938 0.02903 0.02870 0.02826 0.02798 0.02751 0.02708 0.02664 0.02629 0.02590 0.02545 0.02512 0.02482 0.02446 0.02409 0.02382 0.02335 0.02304 0.02276 0.02245 0.02204 0.02176 0.02142 0.02108
50 0.0000 0.0000 0.0000 80.0000 1.89023 1.72513 1.66163 0.02303 0.02245 0.02210 0.02178 0.02156 0.02148 0.02134 0.02106 0.02077 0.02053 0.02025 0.01984 0.01953 0.01934 0.01898 0.01870 0.01838 0.01806 0.01780 0.01749 0.01725 0.01693 0.01667 0.01638 0.01609 0.01584 0.01563 0.01532 0.01511 0.01484 0.01461 0.01442 0.01411 0.01389 0.01367 0.01351
51 0.0000 0.0000 0.0000 90.0000 1.13010 1.25876 1.09983 0.01574 0.01528 0.01499 0.01478 0.01462 0.01449 0.01441 0.01420 0.01405 0.01382 0.01359 0.01331 0.01310 0.01292 0.01267 0.01240 0.01222 0.01195 0.01180 0.01155 0.01140 0.01119 0.01097 0.01074 0.01057 0.01036 0.01018 0.01000 0.00983 0.00967 0.00950 0.00927 0.00913 0.00896 0.00884 0.00865
52 0.0000 0.0000 0.0000 100.0000 0.87627 0.51593 0.87841 0.01082 0.01052 0.01030 0.01011 0.00998 0.00991 0.00981 0.00966 0.00952 0.00935 0.00919 0.00903 0.00883 0.00869 0.00848 0.00834 0.00816 0.00802 0.00789 0.00769 0.00757 0.00738 0.00727 0.00715 0.00698 0.00682 0.00670 0.00658 0.00643 0.00634 0.00621 0.00607 0.00597 0.00585 0.00571 0.00563
53 0.0000 0.0000 0.0000 0.0000 85.65449 88.97908 72.66105 0.86081 0.84906 0.85222 0.85236 0.86018 0.86708 0.87310 0.88179 0.88845 0.88475 0.88907 0.88844 0.89091 0.88748 0.89077 0.88936 0.89106 0.88988 0.88812 0.88982 0.89064 0.89032 0.89281 0.88946 0.89067 0.89164 0.89289 0.88921 0.88942 0.88973 0.88839 0.88795 0.89166 0.89107 0.89216 0.89263
54 9.0000 7.5000 7.2000 0.0000 52.65601 55.19032 46.66504 0.78761 0.72851 0.65667 0.58752 0.53575 0.50678 0.51386 0.54100 0.58275 0.61832 0.63120 0.62004 0.59915 0.57320 0.54709 0.53350 0.53283 0.53849 0.54993 0.56058 0.56445 0.55795 0.54780 0.53468 0.52508 0.52156 0.52299 0.53357 0.55107 0.57522 0.60459 0.64030 0.67810 0.71886 0.75373 0.79012
55 18.0000 15.0000 14.4000 0.0000 35.68250 37.50508 32.80406 0.73566 0.64491 0.53412 0.43342 0.36545 0.33116 0.33380 0.36760 0.41650 0.45841 0.47638 0.46635 0.43531 0.40032 0.37155 0.35619 0.35363 0.36159 0.37622 0.38649 0.38997 0.38374 0.36912 0.35577 0.34331 0.33870 0.34254 0.35310 0.37570 0.40541 0.44340 0.49188 0.54657 0.60079 0.66178 0.71299
56 27.0000 22.5000 21.6000 0.0000 24.92134 26.30814 23.77452 0.69038 0.57178 0.44380 0.33112 0.25671 0.22281 0.22458 0.25536 0.30444 0.34996 0.36910 0.35807 0.32528 0.28909 0.26024 0.24330 0.24095 0.24966 0.26302 0.27455 0.27762 0.27077 0.25787 0.24194 0.23236 0.22701 0.23144 0.24252 0.26361 0.29401 0.33459 0.38528 0.44650 0.51539 0.58465 0.65427
57 36.0000 30.0000 28.8000 0.0000 17.66947 18.85690 17.60059 0.65051 0.51241 0.36902 0.25516 0.18323 0.15236 0.15397 0.18153 0.22665 0.27109 0.29021 0.27714 0.24532 0.21109 0.18448 0.17030 0.16778 0.17528 0.18773 0.19844 0.20144 0.19495 0.18301 0.16974 0.16004 0.15632 0.15943 0.16902 0.18741 0.21549 0.25557 0.30498 0.36895 0.44287 0.51906 0.60170
58 45.0000 37.5000 36.0000 0.0000 12.88867 13.55166 13.15514 0.61550 0.46095 0.31041 0.19713 0.13309 0.10593 0.10678 0.13024 0.17052 0.21085 0.22970 0.21717 0.18820 0.15648 0.13284 0.12042 0.11873 0.12527 0.13539 0.14546 0.14726 0.14190 0.13125 0.11990 0.11131 0.10831 0.11086 0.11942 0.13583 0.16075 0.19672 0.24528 0.30823 0.38220 0.46740 0.55404
59 54.0000 45.0000 43.2000 0.0000 9.42744 10.15730 10.08820 0.58192 0.41456 0.26249 0.15528 0.09717 0.07484 0.07525 0.09469 0.12926 0.16552 0.18220 0.17186 0.14494 0.11668 0.09655 0.08579 0.08454 0.09004 0.09922 0.10659 0.10916 0.10404 0.09540 0.08554 0.07870 0.07631 0.07794 0.08531 0.09863 0.12110 0.15209 0.19684 0.25612 0.33109 0.41699 0.51155
60 63.0000 52.5000 50.4000 0.0000 6.74477 7.36873 7.66490 0.55048 0.37736 0.22306 0.12190 0.07182 0.05297 0.05311 0.06899 0.09858 0.13071 0.14619 0.13678 0.11245 0.08804 0.07075 0.06212 0.06094 0.06531 0.07259 0.07958 0.08131 0.07717 0.06969 0.06176 0.05615 0.05400 0.05544 0.06146 0.07259 0.09131 0.11880 0.15973 0.21509 0.28880 0.37654 0.47297
61 72.0000 60.0000 57.6000 0.0000 5.20776 5.55368 5.88392 0.52148 0.34090 0.18874 0.09650 0.05332 0.03773 0.03791 0.05090 0.07566 0.10353 0.11748 0.10907 0.08758 0.06643 0.05237 0.04515 0.04401 0.04773 0.05398 0.05944 0.06088 0.05767 0.05134 0.04485 0.04023 0.03848 0.03994 0.04448 0.05382 0.06933 0.09344 0.13004 0.18202 0.25145 0.33947 0.43950
62 81.0000 67.5000 64.8000 0.0000 3.84126 4.04929 4.55461 0.49634 0.31030 0.16106 0.07677 0.03977 0.02730 0.02733 0.03756 0.05858 0.08280 0.09504 0.08730 0.06853 0.05081 0.03862 0.03303 0.03217 0.03502 0.04015 0.04462 0.04603 0.04314 0.03783 0.03270 0.02911 0.02771 0.02866 0.03245 0.04005 0.05288 0.07390 0.10614 0.15400 0.22115 0.30707 0.40755
63 90.0000 75.0000 72.0000 0.0000 2.96451 3.07651 3.67948 0.46896 0.28107 0.13940 0.06131 0.02982 0.01968 0.01982 0.02807 0.04542 0.06642 0.07710 0.07059 0.05400 0.03880 0.02893 0.02417 0.02347 0.02589 0.02995 0.03372 0.03478 0.03248 0.02805 0.02402 0.02111 0.02007 0.02081 0.02376 0.03009 0.04068 0.05832 0.08700 0.13021 0.19390 0.27623 0.37783
64 0.0000 0.0000 0.0000 0.0000 85.49390 88.97070 72.72671 0.85817 0.85303 0.85155 0.85113 0.85667 0.86529 0.87587 0.88308 0.88185 0.88841 0.89124 0.88968 0.88899 0.89088 0.89163 0.89013 0.88801 0.89120 0.89431 0.89173 0.89131 0.88788 0.88888 0.89080 0.89061 0.88965 0.88606 0.88915 0.89102 0.89497 0.89058 0.89024 0.89243 0.88954 0.88977 0.89100
65 0.0000 0.0000 0.0000 100.0000 0.86113 0.99295 0.80588 0.01083 0.01054 0.01031 0.01012 0.00998 0.00989 0.00980 0.00966 0.00951 0.00937 0.00914 0.00903 0.00884 0.00866 0.00849 0.00832 0.00818 0.00800 0.00786 0.00770 0.00755 0.00741 0.00725 0.00716 0.00698 0.00684 0.00669 0.00657 0.00644 0.00631 0.00619 0.00610 0.00597 0.00585 0.00573 0.00560
66 0.0000 0.0000 100.0000 0.0000 73.35798 76.11074 6.36909 0.42436 0.24571 0.12030 0.05448 0.02709 0.01748 0.01666 0.02259 0.03864 0.07020 0.12270 0.19661 0.29688 0.42515 0.56673 0.69880 0.79633 0.85032 0.87458 0.88754 0.88977 0.88783 0.89140 0.88863 0.88776 0.88963 0.89031 0.88949 0.88954 0.89174 0.89188 0.89029 0.88666 0.88921 0.88546 0.88688
67 0.0000 0.0000 100.0000 100.0000 0.34079 0.52404 0.00000 0.00534 0.00304 0.00146 0.00065 0.00031 0.00020 0.00019 0.00025 0.00042 0.00074 0.00126 0.00199 0.00294 0.00412 0.00543 0.00652 0.00729 0.00766 0.00775 0.00767 0.00752 0.00741 0.00727 0.00713 0.00699 0.00685 0.00668 0.00656 0.00644 0.00632 0.00620 0.00608 0.00595 0.00584 0.00572 0.00562
