.bench/S4.ti3
CTI3   
DESCRIPTOR "Synthetic ground-truth chart (ChromIQ benchmarks)"
ORIGINATOR "ChromIQ benchmarks"
DEVICE_CLASS "OUTPUT"
COLOR_REP "CMYK_XYZ"
TOTAL_INK_LIMIT "280"
SPECTRAL_BANDS "36"
SPECTRAL_START_NM "380"
SPECTRAL_END_NM "730"
NUMBER_OF_FIELDS 44
BEGIN_DATA_FORMAT
SAMPLE_ID CMYK_C CMYK_M CMYK_Y CMYK_K XYZ_X XYZ_Y XYZ_Z SPEC_380 SPEC_390 SPEC_400 SPEC_410 SPEC_420 SPEC_430 SPEC_440 SPEC_450 SPEC_460 SPEC_470 SPEC_480 SPEC_490 SPEC_500 SPEC_510 SPEC_520 SPEC_530 SPEC_540 SPEC_550 SPEC_560 SPEC_570 SPEC_580 SPEC_590 SPEC_600 SPEC_610 SPEC_620 SPEC_630 SPEC_640 SPEC_650 SPEC_660 SPEC_670 SPEC_680 SPEC_690 SPEC_700 SPEC_710 SPEC_720 SPEC_730
END_DATA_FORMAT
NUMBER_OF_SETS 900
BEGIN_DATA
1 0.0000 0.0000 0.0000 0.0000 86.17476 89.53074 73.07492 0.86496 0.85817 0.84690 0.85366 0.86367 0.86857 0.88447 0.89362 0.88572 0.89495 0.89710 0.90011 0.88715 0.89011 0.89757 0.90178 0.89724 0.89091 0.89813 0.89157 0.88763 0.89628 0.90054 0.90102 0.89673 0.89156 0.88914 0.89913 0.89020 0.89698 0.89751 0.89181 0.89448 0.89513 0.89937 0.89197
2 0.0000 0.0000 0.0000 0.0000 86.04550 89.54037 72.98184 0.86354 0.85881 0.84904 0.85521 0.86152 0.87344 0.87469 0.88678 0.89291 0.90114 0.89505 0.90359 0.89788 0.89925 0.89175 0.89242 0.89811 0.89224 0.90418 0.89650 0.90982 0.89254 0.89895 0.89840 0.89654 0.89776 0.88435 0.89601 0.90127 0.89523 0.88858 0.89345 0.89576 0.90028 0.89200 0.90151
3 0.0000 0.0000 0.0000 0.0000 86.19081 89.54822 73.11488 0.86031 0.86261 0.85651 0.86948 0.86753 0.87894 0.87894 0.87667 0.89135 0.89395 0.89086 0.89494 0.88528 0.89380 0.89194 0.90278 0.89543 0.89553 0.89522 0.88479 0.88976 0.90171 0.89816 0.88764 0.89626 0.89271 0.89725 0.89540 0.89465 0.88766 0.89304 0.89025 0.89329 0.89957 0.89680 0.89770
4 0.0000 0.0000 0.0000 0.0000 86.18711 89.53439 73.05345 0.86745 0.85106 0.85320 0.86215 0.86971 0.86043 0.87451 0.88830 0.90675 0.88909 0.89310 0.89554 0.89927 0.88718 0.89125 0.89206 0.89098 0.89167 0.89735 0.90139 0.89791 0.89601 0.89444 0.89106 0.88802 0.88821 0.90076 0.90123 0.89771 0.89646 0.89506 0.89735 0.89259 0.88990 0.88737 0.89550
5 0.0000 0.0000 0.0000 100.0000 3.44832 3.81281 3.31224 0.04324 0.04219 0.04195 0.04148 0.04172 0.04182 0.04151 0.04141 0.04140 0.04025 0.03986 0.03973 0.03919 0.03890 0.03867 0.03797 0.03715 0.03775 0.03648 0.03602 0.03613 0.03513 0.03485 0.03472 0.03416 0.03398 0.03380 0.03323 0.03277 0.03259 0.03219 0.03233 0.03125 0.03134 0.03071 0.03050
6 0.0000 0.0000 0.0000 100.0000 3.45562 3.60655 3.31825 0.04299 0.04241 0.04176 0.04128 0.04138 0.04185 0.04096 0.04154 0.04087 0.04055 0.03980 0.03976 0.03961 0.03869 0.03841 0.03795 0.03743 0.03688 0.03695 0.03646 0.03573 0.03574 0.03490 0.03471 0.03398 0.03354 0.03345 0.03354 0.03285 0.03269 0.03246 0.03184 0.03127 0.03111 0.03065 0.03052
7 0.0000 0.0000 0.0000 100.0000 3.44837 3.69719 3.33889 0.04336 0.04304 0.04236 0.04177 0.04157 0.04159 0.04137 0.04125 0.04117 0.04040 0.04006 0.03968 0.03875 0.03916 0.03833 0.03832 0.03709 0.03665 0.03663 0.03632 0.03611 0.03567 0.03539 0.03473 0.03486 0.03413 0.03322 0.03305 0.03268 0.03246 0.03199 0.03183 0.03167 0.03080 0.03064 0.03076
8 0.0000 0.0000 0.0000 100.0000 3.44392 3.61650 3.37431 0.04399 0.04318 0.04215 0.04205 0.04166 0.04106 0.04122 0.04139 0.04095 0.04034 0.03991 0.03983 0.03934 0.03871 0.03877 0.03786 0.03744 0.03713 0.03669 0.03627 0.03545 0.03602 0.03523 0.03479 0.03420 0.03392 0.03367 0.03308 0.03301 0.03262 0.03207 0.03164 0.03158 0.03153 0.03080 0.03061
9 0.0000 0.0000 0.0000 0.0000 86.08937 89.52330 73.13648 0.86338 0.85334 0.86124 0.85602 0.87562 0.86905 0.87239 0.88863 0.89565 0.89814 0.89521 0.88847 0.90146 0.88985 0.90771 0.89234 0.89431 0.89388 0.90308 0.90608 0.89800 0.89812 0.89019 0.90079 0.88265 0.90159 0.89786 0.89076 0.89986 0.89960 0.90577 0.90456 0.89640 0.89794 0.88856 0.89988
10 10.0000 0.0000 0.0000 0.0000 70.29624 76.37871 72.60116 0.85762 0.85455 0.84759 0.85447 0.86632 0.86713 0.87939 0.87763 0.88919 0.89107 0.88336 0.87686 0.86368 0.86068 0.84868 0.82400 0.80497 0.78112 0.75505 0.73848 0.71158 0.70522 0.69249 0.67690 0.66602 0.65925 0.65878 0.65572 0.66777 0.67689 0.69290 0.71503 0.72916 0.75815 0.77884 0.79549
11 20.0000 0.0000 0.0000 0.0000 59.66326 67.18208 71.98146 0.86805 0.85842 0.85849 0.86081 0.86609 0.87105 0.88210 0.88180 0.88040 0.88133 0.86668 0.86702 0.85292 0.82767 0.80968 0.77684 0.73973 0.70492 0.66909 0.62830 0.59933 0.57167 0.54770 0.52664 0.51915 0.50137 0.50472 0.50931 0.52311 0.52801 0.54961 0.57579 0.61069 0.64487 0.68260 0.73072
12 30.0000 0.0000 0.0000 0.0000 51.42551 59.92317 71.51599 0.86690 0.85735 0.85145 0.85560 0.86233 0.88171 0.87119 0.87775 0.87723 0.87407 0.86903 0.84295 0.82347 0.80620 0.76711 0.73165 0.67669 0.62597 0.58207 0.53697 0.50090 0.46215 0.43669 0.41700 0.40061 0.39101 0.38878 0.39403 0.40555 0.41857 0.44191 0.48204 0.51213 0.56145 0.60945 0.66984
13 40.0000 0.0000 0.0000 0.0000 44.57877 53.59332 71.14251 0.86538 0.86447 0.86162 0.85351 0.86389 0.86152 0.87316 0.88266 0.87928 0.87206 0.85752 0.83562 0.81429 0.77677 0.73275 0.68682 0.62596 0.57697 0.51418 0.46788 0.41821 0.37852 0.34877 0.32773 0.31158 0.30289 0.29976 0.30305 0.31328 0.33128 0.35849 0.38944 0.43835 0.48989 0.54765 0.60650
14 50.0000 0.0000 0.0000 0.0000 38.87858 48.31498 70.74946 0.86403 0.86103 0.84946 0.85159 0.86081 0.87054 0.86876 0.88045 0.86334 0.87358 0.84219 0.82067 0.79101 0.74610 0.70065 0.64037 0.58520 0.51568 0.45625 0.39792 0.35167 0.31022 0.27587 0.25455 0.24007 0.23129 0.22549 0.23107 0.24086 0.25909 0.28840 0.32448 0.36529 0.42312 0.49353 0.56370
15 60.0000 0.0000 0.0000 0.0000 34.35603 43.68658 70.50927 0.86812 0.85125 0.85532 0.86203 0.86161 0.86642 0.87021 0.87651 0.87547 0.86922 0.84123 0.81511 0.77055 0.73503 0.66975 0.61194 0.53422 0.46614 0.40170 0.34165 0.28720 0.25087 0.22067 0.20104 0.18468 0.17652 0.17336 0.17812 0.18692 0.20273 0.22942 0.26700 0.31205 0.37115 0.43906 0.51908
16 70.0000 0.0000 0.0000 0.0000 30.55887 39.65697 70.06286 0.85011 0.85057 0.85535 0.85507 0.87249 0.87321 0.87408 0.87027 0.86872 0.85480 0.82704 0.79971 0.76492 0.71054 0.64531 0.57887 0.49420 0.42117 0.35443 0.29436 0.24128 0.20349 0.17325 0.15167 0.13880 0.13054 0.12981 0.13291 0.14184 0.15950 0.18456 0.21678 0.26141 0.32153 0.39392 0.46645
17 80.0000 0.0000 0.0000 0.0000 27.36715 36.19123 69.71932 0.85290 0.86331 0.85443 0.85891 0.86177 0.86492 0.87356 0.87043 0.87064 0.85079 0.82897 0.79242 0.74212 0.68581 0.62131 0.53807 0.46023 0.38042 0.30975 0.25171 0.19914 0.16209 0.13472 0.11710 0.10414 0.09612 0.09473 0.09817 0.10650 0.12100 0.14494 0.17587 0.22222 0.28018 0.35190 0.43018
18 90.0000 0.0000 0.0000 0.0000 24.68766 33.15948 69.35344 0.85863 0.86364 0.85655 0.84818 0.86228 0.85804 0.87487 0.86609 0.87081 0.85285 0.82445 0.77790 0.73303 0.66516 0.59209 0.50858 0.42563 0.34622 0.27402 0.20995 0.16438 0.12911 0.10543 0.08707 0.07699 0.07093 0.06968 0.07187 0.07905 0.09275 0.11347 0.14285 0.18519 0.24212 0.31464 0.40236
19 100.0000 0.0000 0.0000 0.0000 22.40953 30.60530 69.06709 0.85969 0.86358 0.84753 0.85678 0.85678 0.86843 0.88255 0.86474 0.86600 0.83554 0.81649 0.78473 0.72050 0.64430 0.56876 0.48356 0.39214 0.31476 0.24054 0.17983 0.13625 0.10318 0.07949 0.06594 0.05635 0.05045 0.05017 0.05198 0.05841 0.06927 0.08667 0.11484 0.15610 0.20750 0.28135 0.36617
20 0.0000 0.0000 0.0000 0.0000 86.19165 89.52607 73.10327 0.86688 0.85031 0.85734 0.85569 0.86708 0.87205 0.87495 0.88638 0.89302 0.89444 0.90306 0.89345 0.89729 0.90025 0.90404 0.89294 0.89358 0.89452 0.89048 0.88917 0.90035 0.89857 0.90186 0.90328 0.89178 0.89450 0.89160 0.89444 0.90304 0.88841 0.90263 0.89177 0.89858 0.90679 0.90219 0.88845
21 0.0000 10.0000 0.0000 0.0000 78.58469 75.91667 64.97753 0.85207 0.83922 0.80699 0.79081 0.78836 0.78090 0.78730 0.80152 0.81119 0.79964 0.78411 0.75370 0.72583 0.70520 0.68485 0.68119 0.68617 0.70055 0.72119 0.75432 0.78713 0.82550 0.84332 0.87100 0.87679 0.89716 0.88643 0.87735 0.89833 0.89769 0.89768 0.90357 0.90160 0.89271 0.89071 0.89628
22 0.0000 20.0000 0.0000 0.0000 73.10160 66.51732 59.08001 0.83765 0.81023 0.77833 0.75542 0.73517 0.72379 0.73298 0.73563 0.74117 0.73082 0.69181 0.65593 0.60562 0.57096 0.55083 0.53581 0.54968 0.56973 0.60173 0.65500 0.71326 0.75396 0.81126 0.83358 0.86372 0.88012 0.89722 0.89367 0.89511 0.89819 0.89961 0.89526 0.89640 0.89754 0.89333 0.90099
23 0.0000 30.0000 0.0000 0.0000 68.67206 58.84027 53.92267 0.83417 0.79909 0.75596 0.70681 0.67855 0.66897 0.67057 0.68202 0.68478 0.66563 0.62587 0.55870 0.51227 0.46362 0.44396 0.43155 0.44227 0.46902 0.51311 0.57142 0.64388 0.71906 0.77376 0.82223 0.85404 0.87667 0.88485 0.89646 0.88770 0.88932 0.89905 0.90052 0.89875 0.90524 0.90121 0.89168
24 0.0000 40.0000 0.0000 0.0000 64.53050 52.31287 49.39924 0.81781 0.77650 0.72258 0.67399 0.63309 0.61659 0.62064 0.63445 0.63839 0.61318 0.56403 0.49507 0.43145 0.38490 0.35738 0.34281 0.35091 0.38001 0.43557 0.49734 0.58537 0.67451 0.73667 0.80640 0.84988 0.87267 0.88550 0.88022 0.89387 0.88726 0.89166 0.89635 0.89989 0.89801 0.90251 0.89032
25 0.0000 50.0000 0.0000 0.0000 61.11044 47.05871 45.31654 0.81833 0.76301 0.69753 0.63743 0.59632 0.57723 0.57146 0.59450 0.58797 0.56346 0.50538 0.43040 0.35867 0.31145 0.28286 0.27151 0.28309 0.31301 0.36699 0.44272 0.53900 0.63112 0.72321 0.78689 0.83976 0.86005 0.88648 0.89550 0.88815 0.89936 0.89820 0.90124 0.89838 0.89559 0.89094 0.89589
26 0.0000 60.0000 0.0000 0.0000 57.99022 42.46957 41.77823 0.80915 0.74314 0.67293 0.59840 0.55508 0.53374 0.53683 0.54159 0.54971 0.51473 0.45795 0.37370 0.30284 0.25558 0.22292 0.21421 0.22194 0.25771 0.30548 0.38376 0.48082 0.59004 0.68420 0.76897 0.82796 0.87221 0.88949 0.88576 0.89469 0.89296 0.88557 0.89050 0.89465 0.89328 0.89511 0.90090
27 0.0000 70.0000 0.0000 0.0000 55.13828 38.54003 38.50571 0.80220 0.73433 0.65021 0.57559 0.52300 0.49521 0.49052 0.51047 0.51010 0.47598 0.41125 0.32762 0.25535 0.20593 0.17610 0.16787 0.17578 0.20722 0.25672 0.33815 0.43703 0.55755 0.66615 0.75040 0.81722 0.85932 0.87197 0.88489 0.89530 0.88364 0.88328 0.89587 0.89272 0.88562 0.89071 0.89803
28 0.0000 80.0000 0.0000 0.0000 52.54907 35.13485 35.43654 0.79201 0.71266 0.63505 0.54859 0.48558 0.46060 0.46147 0.47285 0.47202 0.44189 0.37125 0.28564 0.21253 0.16477 0.14020 0.12946 0.13849 0.16616 0.21604 0.29643 0.40192 0.51956 0.64144 0.74002 0.81571 0.86132 0.86893 0.88545 0.89433 0.89998 0.89085 0.88639 0.90086 0.89234 0.89315 0.89393
29 0.0000 90.0000 0.0000 0.0000 50.39138 32.16365 32.76467 0.78178 0.70983 0.60309 0.52409 0.45911 0.42602 0.42731 0.43766 0.44256 0.40456 0.32921 0.24729 0.17815 0.13265 0.10740 0.09941 0.10756 0.13207 0.18162 0.25844 0.36574 0.49543 0.62050 0.72234 0.79466 0.84680 0.89617 0.88591 0.89398 0.89215 0.90052 0.89726 0.90135 0.89671 0.89375 0.90742
30 0.0000 100.0000 0.0000 0.0000 48.28674 29.75374 30.11066 0.77893 0.69382 0.59162 0.49338 0.42478 0.39656 0.39304 0.40740 0.40844 0.37206 0.29315 0.21474 0.14733 0.10607 0.08298 0.07524 0.08383 0.10555 0.14919 0.22541 0.32919 0.46501 0.58748 0.70219 0.78758 0.84301 0.87478 0.88042 0.88421 0.88781 0.89658 0.89961 0.88337 0.89617 0.90131 0.89514
31 0.0000 0.0000 0.0000 0.0000 86.18613 89.53729 73.01013 0.86129 0.86013 0.85981 0.85793 0.85820 0.87593 0.89334 0.89208 0.89505 0.88708 0.89123 0.89751 0.89711 0.89426 0.88344 0.89278 0.89842 0.91033 0.89710 0.89608 0.90267 0.89396 0.89466 0.89837 0.89857 0.89980 0.90040 0.89773 0.89311 0.89456 0.89881 0.89347 0.89112 0.89718 0.88142 0.90015
32 0.0000 0.0000 10.0000 0.0000 83.13354 87.11762 56.67752 0.78230 0.73707 0.69877 0.66905 0.65613 0.64338 0.65215 0.66195 0.67941 0.70546 0.72640 0.77076 0.79008 0.81570 0.83567 0.86267 0.87565 0.88458 0.89051 0.90457 0.89913 0.90133 0.89661 0.88948 0.89419 0.89072 0.89665 0.89727 0.90575 0.88953 0.90124 0.89446 0.89793 0.89090 0.90619 0.89732
33 0.0000 0.0000 20.0000 0.0000 81.10312 85.31560 45.81993 0.72386 0.66229 0.59410 0.54519 0.51552 0.49813 0.49675 0.51663 0.54066 0.56966 0.61712 0.65658 0.70300 0.75681 0.80431 0.83922 0.86536 0.88736 0.89570 0.89435 0.88469 0.89280 0.88162 0.88593 0.89404 0.89848 0.90213 0.89743 0.90314 0.90340 0.89043 0.89289 0.89645 0.88962 0.89572 0.89183
34 0.0000 0.0000 30.0000 0.0000 79.57867 83.83397 37.28474 0.66264 0.58235 0.50971 0.44168 0.40507 0.38691 0.38801 0.40119 0.42661 0.47280 0.52218 0.58022 0.64422 0.70810 0.75765 0.81277 0.85390 0.87799 0.89043 0.89616 0.89007 0.89662 0.89409 0.89803 0.90493 0.89147 0.89931 0.89284 0.89473 0.89183 0.89567 0.89808 0.88473 0.90502 0.90276 0.90582
35 0.0000 0.0000 40.0000 0.0000 78.33732 82.50975 30.53614 0.62090 0.52269 0.43066 0.36574 0.32004 0.30289 0.29783 0.31480 0.34349 0.38965 0.44370 0.50355 0.57443 0.65778 0.73439 0.79258 0.84870 0.87709 0.88972 0.89566 0.89634 0.89130 0.89829 0.88591 0.89642 0.90001 0.88573 0.90594 0.89023 0.90124 0.89373 0.89589 0.89160 0.89544 0.89508 0.89217
36 0.0000 0.0000 50.0000 0.0000 77.23552 81.28981 25.01429 0.57826 0.46595 0.36904 0.29538 0.25350 0.23260 0.22963 0.24411 0.27328 0.31831 0.37319 0.44774 0.52675 0.61312 0.70603 0.78108 0.83666 0.86247 0.88536 0.89845 0.89775 0.89705 0.89755 0.89333 0.89885 0.88511 0.88976 0.88769 0.88307 0.89858 0.89324 0.89521 0.89525 0.89203 0.89869 0.89142
37 0.0000 0.0000 60.0000 0.0000 76.35993 80.20937 20.38769 0.53522 0.41405 0.31207 0.24223 0.19929 0.17718 0.17476 0.18566 0.21720 0.25625 0.31858 0.39280 0.48139 0.57931 0.67502 0.75910 0.82564 0.86065 0.87312 0.90238 0.89195 0.90160 0.89553 0.89270 0.89489 0.89396 0.89232 0.89369 0.89134 0.89701 0.89617 0.89661 0.88742 0.89715 0.90425 0.88927
38 0.0000 0.0000 70.0000 0.0000 75.59544 79.17408 16.82867 0.49759 0.37349 0.26701 0.19691 0.15266 0.13109 0.13171 0.14273 0.16720 0.21063 0.26895 0.34172 0.42982 0.54178 0.64989 0.73735 0.80521 0.86342 0.88146 0.88772 0.89828 0.89486 0.88823 0.89547 0.90780 0.89123 0.89982 0.89448 0.89799 0.89749 0.90014 0.90168 0.89442 0.90361 0.89753 0.88900
39 0.0000 0.0000 80.0000 0.0000 75.08401 78.33922 13.73185 0.47093 0.33156 0.22562 0.15785 0.11786 0.10021 0.09736 0.10739 0.13156 0.17140 0.22803 0.30330 0.39818 0.50508 0.62722 0.73242 0.81016 0.85031 0.87867 0.87589 0.88165 0.89569 0.89815 0.89519 0.89695 0.89951 0.89150 0.89935 0.90063 0.89217 0.90070 0.89290 0.89632 0.89586 0.89527 0.88359
40 0.0000 0.0000 90.0000 0.0000 74.60306 77.35379 11.24163 0.43526 0.29284 0.19197 0.12537 0.08926 0.07267 0.07051 0.07965 0.10134 0.13794 0.19071 0.26334 0.36093 0.47636 0.60153 0.70777 0.79846 0.83881 0.88129 0.88848 0.89972 0.89633 0.90078 0.90287 0.88906 0.88819 0.90003 0.89791 0.89065 0.89206 0.89187 0.89846 0.88907 0.88775 0.89280 0.89057
41 0.0000 0.0000 100.0000 0.0000 74.25292 76.62052 9.21237 0.40226 0.26356 0.16033 0.09978 0.06731 0.05300 0.05067 0.05797 0.07704 0.11014 0.16031 0.23128 0.33214 0.44216 0.57777 0.69221 0.78887 0.84130 0.87309 0.89185 0.88602 0.89165 0.88940 0.89665 0.89784 0.89879 0.88685 0.88741 0.89667 0.89619 0.89010 0.89616 0.89674 0.89280 0.91100 0.89072
42 0.0000 0.0000 0.0000 0.0000 86.12872 89.58113 73.05436 0.86954 0.85774 0.85557 0.85275 0.86187 0.87096 0.87803 0.88963 0.89497 0.89412 0.89833 0.89377 0.89115 0.89145 0.89044 0.89273 0.89325 0.89720 0.89321 0.90111 0.89970 0.89464 0.88881 0.89545 0.89645 0.89901 0.89932 0.89808 0.89783 0.89942 0.90500 0.89600 0.89346 0.90524 0.89909 0.89096
43 0.0000 0.0000 0.0000 10.0000 61.80656 64.22863 52.96821 0.63052 0.62329 0.62795 0.62077 0.62595 0.62975 0.63286 0.64615 0.63663 0.64880 0.64522 0.65100 0.64549 0.65081 0.65076 0.65081 0.64655 0.64591 0.64580 0.63435 0.64958 0.64091 0.63996 0.64140 0.64195 0.63923 0.63542 0.63607 0.64218 0.63744 0.63493 0.63264 0.63138 0.63283 0.63544 0.63356
44 0.0000 0.0000 0.0000 20.0000 46.37711 48.28440 40.08744 0.47608 0.47315 0.46811 0.47400 0.47880 0.48185 0.48909 0.48570 0.49367 0.48556 0.48939 0.48693 0.48768 0.48839 0.48356 0.47918 0.48136 0.48163 0.47992 0.48643 0.47961 0.47778 0.48130 0.47932 0.47656 0.47536 0.47744 0.47622 0.47657 0.47519 0.46973 0.47453 0.46661 0.46615 0.46501 0.46782
45 0.0000 0.0000 0.0000 30.0000 34.82143 36.31668 30.43750 0.37151 0.36332 0.36156 0.36090 0.36615 0.36171 0.36911 0.37151 0.37426 0.37095 0.36982 0.36883 0.36502 0.36719 0.36703 0.36700 0.36674 0.36104 0.36087 0.36308 0.35846 0.36452 0.35630 0.35825 0.35593 0.35833 0.35439 0.35557 0.35363 0.35234 0.35297 0.35409 0.35180 0.34942 0.34626 0.34656
46 0.0000 0.0000 0.0000 40.0000 26.09836 27.26222 23.04069 0.27701 0.27845 0.27317 0.27567 0.27785 0.28096 0.28092 0.27875 0.28067 0.27974 0.27740 0.27533 0.27967 0.27629 0.27687 0.27568 0.27346 0.27272 0.27396 0.27325 0.27222 0.26962 0.26928 0.26715 0.26387 0.26735 0.26285 0.26312 0.26106 0.26254 0.26384 0.26243 0.25885 0.26055 0.25522 0.25652
47 0.0000 0.0000 0.0000 50.0000 19.23759 20.17019 17.28543 0.21043 0.20857 0.20815 0.20513 0.20947 0.21019 0.21072 0.21040 0.21147 0.21141 0.20895 0.20629 0.20690 0.20655 0.20327 0.20536 0.20332 0.20242 0.20345 0.20027 0.19902 0.19977 0.19735 0.19860 0.19582 0.19535 0.19582 0.19351 0.19214 0.19345 0.18960 0.18960 0.19064 0.18889 0.18917 0.18656
48 0.0000 0.0000 0.0000 60.0000 14.13630 14.73707 12.85311 0.15885 0.15602 0.15641 0.15561 0.15617 0.15630 0.15630 0.15644 0.15574 0.15593 0.15424 0.15398 0.15165 0.15286 0.15161 0.15051 0.14948 0.14907 0.14742 0.14665 0.14769 0.14361 0.14545 0.14318 0.14355 0.14140 0.14127 0.14234 0.13924 0.13873 0.13883 0.13764 0.13648 0.13459 0.13498 0.13423
49 0.0000 0.0000 0.0000 70.0000 10.36854 10.63224 9.39023 0.11758 0.11565 0.11313 0.11397 0.11452 0.11485 0.11467 0.11576 0.11319 0.11259 0.11427 0.11230 0.11193 0.11058 0.10999 0.11091 0.10970 0.10873 0.10699 0.10641 0.10429 0.10405 0.10417 0.10359 0.10268 0.10237 0.10230 0.10096 0.09949 0.09962 0.09869 0.09859 0.09759 0.09633 0.09623 0.09647
50 0.0000 0.0000 0.0000 80.0000 7.36380 7.59140 6.74350 0.08677 0.08495 0.08296 0.08284 0.08289 0.08239 0.08293 0.08233 0.08136 0.08195 0.08117 0.08176 0.08051 0.07918 0.07843 0.07780 0.07871 0.07742 0.07609 0.07499 0.07557 0.07414 0.07313 0.07336 0.07263 0.07210 0.07148 0.07075 0.07030 0.06943 0.06958 0.06801 0.06840 0.06747 0.06637 0.06674
51 0.0000 0.0000 0.0000 90.0000 5.07242 5.38089 4.77756 0.06148 0.06077 0.06050 0.05913 0.05889 0.05860 0.05848 0.05850 0.05888 0.05851 0.05727 0.05752 0.05692 0.05578 0.05520 0.05483 0.05404 0.05338 0.05337 0.05267 0.05157 0.05143 0.05116 0.05150 0.05050 0.04987 0.04928 0.04903 0.04829 0.04769 0.04814 0.04659 0.04658 0.04682 0.04602 0.04574
52 0.0000 0.0000 0.0000 100.0000 3.56721 3.49749 3.42658 0.04296 0.04315 0.04231 0.04135 0.04218 0.04194 0.04118 0.04118 0.04103 0.04021 0.04006 0.03996 0.03928 0.03882 0.03845 0.03804 0.03763 0.03690 0.03723 0.03645 0.03598 0.03537 0.03490 0.03487 0.03408 0.03371 0.03349 0.03350 0.03281 0.03263 0.03196 0.03167 0.03127 0.03112 0.03049 0.03036
53 0.0000 0.0000 0.0000 0.0000 86.16645 89.51380 73.09496 0.85685 0.86132 0.85887 0.85995 0.85859 0.86638 0.87393 0.89065 0.88926 0.89431 0.89963 0.90616 0.89594 0.89499 0.89187 0.90135 0.89101 0.90566 0.89369 0.89355 0.89701 0.89940 0.89503 0.89707 0.88817 0.89833 0.89156 0.89456 0.89339 0.89761 0.89768 0.89300 0.90175 0.88777 0.87705 0.89657
54 9.0000 7.5000 7.2000 0.0000 64.25543 66.28436 54.60883 0.80198 0.74005 0.70571 0.67317 0.65012 0.64204 0.64517 0.65637 0.66765 0.68018 0.67723 0.67296 0.66493 0.66009 0.65059 0.65436 0.65199 0.65412 0.65034 0.66026 0.66255 0.67367 0.67268 0.67397 0.67030 0.67656 0.67257 0.68355 0.68713 0.68966 0.70596 0.72374 0.74772 0.76397 0.78498 0.81246
55 18.0000 15.0000 14.4000 0.0000 50.23770 51.44703 42.84336 0.73385 0.66699 0.60170 0.55242 0.51028 0.50285 0.49810 0.51263 0.52819 0.53714 0.54059 0.53498 0.53060 0.51828 0.50225 0.50575 0.50491 0.50276 0.50403 0.51455 0.51741 0.52612 0.52774 0.52985 0.52862 0.52293 0.52977 0.53558 0.54401 0.56079 0.58061 0.59739 0.63507 0.67546 0.70443 0.74157
56 27.0000 22.5000 21.6000 0.0000 39.64155 40.43814 34.02405 0.68457 0.60675 0.52578 0.46533 0.41425 0.39200 0.38759 0.40029 0.42066 0.43266 0.43993 0.43581 0.42067 0.41437 0.40094 0.39566 0.38897 0.38768 0.39433 0.39836 0.40893 0.41525 0.41478 0.41785 0.41884 0.41998 0.41967 0.42382 0.43295 0.44828 0.47630 0.50750 0.54515 0.58839 0.63836 0.68205
57 36.0000 30.0000 28.8000 0.0000 31.32491 31.97438 27.18836 0.64879 0.55161 0.45068 0.37850 0.32969 0.30311 0.30025 0.31370 0.33719 0.35096 0.35365 0.34777 0.33782 0.32899 0.32000 0.30976 0.30451 0.30534 0.30747 0.31378 0.32008 0.32641 0.33169 0.33013 0.32882 0.33008 0.32714 0.33655 0.34539 0.36264 0.39551 0.42323 0.46659 0.51702 0.57595 0.63045
58 45.0000 37.5000 36.0000 0.0000 24.88633 25.21624 21.72911 0.61232 0.49181 0.39357 0.31254 0.26433 0.24023 0.23617 0.25084 0.26905 0.28651 0.28986 0.28340 0.27089 0.25848 0.24704 0.24323 0.23905 0.23762 0.24309 0.24900 0.25441 0.26196 0.26358 0.26224 0.25937 0.25912 0.25862 0.26669 0.27861 0.29670 0.32285 0.35439 0.40450 0.45678 0.52448 0.58631
59 54.0000 45.0000 43.2000 0.0000 19.66855 20.08537 17.46687 0.57183 0.44553 0.33912 0.26035 0.21145 0.18937 0.18651 0.19662 0.21295 0.23029 0.23806 0.23221 0.22129 0.20782 0.19849 0.19287 0.19094 0.18677 0.19128 0.20053 0.20264 0.20886 0.20818 0.20356 0.20106 0.20090 0.20227 0.20771 0.21840 0.23693 0.26316 0.29670 0.35073 0.40878 0.47469 0.53748
60 63.0000 52.5000 50.4000 0.0000 15.37782 15.77895 13.94542 0.53992 0.40515 0.29591 0.21988 0.16851 0.14681 0.14572 0.15660 0.17231 0.18776 0.19317 0.18613 0.17792 0.16569 0.15725 0.15048 0.14532 0.14694 0.15015 0.15668 0.16159 0.16413 0.16344 0.16101 0.15764 0.15435 0.15546 0.15975 0.17066 0.19097 0.21539 0.25122 0.29759 0.35138 0.42379 0.50544
61 72.0000 60.0000 57.6000 0.0000 12.18720 12.47797 11.13584 0.50931 0.37034 0.25950 0.17977 0.13677 0.11538 0.11394 0.12178 0.13711 0.15248 0.15849 0.15165 0.14337 0.13229 0.12325 0.11760 0.11435 0.11508 0.11884 0.12297 0.12888 0.12845 0.12732 0.12416 0.12144 0.11783 0.12098 0.12474 0.13382 0.14934 0.17461 0.20795 0.25455 0.31682 0.38491 0.46733
62 81.0000 67.5000 64.8000 0.0000 9.49622 9.74986 8.88660 0.47974 0.34036 0.22367 0.15100 0.10981 0.08979 0.08803 0.09577 0.11048 0.12342 0.12903 0.12572 0.11608 0.10606 0.09733 0.09125 0.09084 0.09056 0.09326 0.09683 0.10165 0.10138 0.10057 0.09620 0.09371 0.09004 0.09103 0.09422 0.10338 0.11977 0.14047 0.17354 0.21615 0.27442 0.34878 0.43330
63 90.0000 75.0000 72.0000 0.0000 7.43784 7.66774 7.16232 0.45231 0.30599 0.19463 0.12450 0.08580 0.07010 0.06782 0.07467 0.08737 0.10047 0.10626 0.10343 0.09391 0.08493 0.07776 0.07282 0.06977 0.07082 0.07345 0.07759 0.07940 0.08046 0.07780 0.07315 0.06960 0.06804 0.06798 0.07143 0.07869 0.09199 0.11258 0.14323 0.18676 0.24153 0.31748 0.40108
64 0.0000 0.0000 0.0000 0.0000 86.02196 89.50626 73.15404 0.85959 0.86408 0.85303 0.86541 0.86596 0.87694 0.88296 0.89087 0.88165 0.89532 0.89780 0.89607 0.88958 0.90611 0.90657 0.89161 0.89182 0.88984 0.90228 0.89167 0.89010 0.88790 0.89501 0.89329 0.88596 0.89316 0.89743 0.88964 0.89414 0.89830 0.89873 0.89867 0.88984 0.89861 0.89268 0.89506
65 0.0000 0.0000 0.0000 100.0000 3.55740 3.80691 3.37953 0.04369 0.04276 0.04213 0.04182 0.04138 0.04104 0.04167 0.04104 0.04098 0.04014 0.04069 0.03977 0.03920 0.03903 0.03847 0.03786 0.03752 0.03749 0.03703 0.03615 0.03616 0.03580 0.03504 0.03501 0.03396 0.03391 0.03352 0.03311 0.03299 0.03252 0.03198 0.03161 0.03129 0.03102 0.03047 0.03038
66 0.0000 0.0000 100.0000 0.0000 74.11912 76.54421 9.30906 0.40299 0.26358 0.15946 0.09857 0.06695 0.05329 0.05181 0.05842 0.07719 0.10837 0.15931 0.22936 0.32666 0.44850 0.57344 0.70283 0.78897 0.84697 0.88251 0.88544 0.89866 0.89066 0.89568 0.89721 0.89149 0.90056 0.89486 0.90140 0.89767 0.88528 0.89266 0.89296 0.88877 0.89866 0.88881 0.89896
67 0.0000 0.0000 100.0000 100.0000 2.81916 3.09325 0.61887 0.02295 0.01645 0.01185 0.00913 0.00772 0.00721 0.00709 0.00752 0.00822 0.00955 0.01131 0.01400 0.01764 0.02216 0.02651 0.03028 0.03350 0.03516 0.03568 0.03578 0.03590 0.03553 0.03433 0.03480 0.03407 0.03400 0.03397 0.03294 0.03276 0.03279 0.03218 0.03189 0.03134 0.03128 0.03037 0.03045
