.bench/S5.ti3
CTI3   
DESCRIPTOR "Synthetic ground-truth chart (ChromIQ benchmarks)"
ORIGINATOR "ChromIQ benchmarks"
DEVICE_CLASS "OUTPUT"
COLOR_REP "CMYKOG_XYZ"
TOTAL_INK_LIMIT "320"
SPECTRAL_BANDS "36"
SPECTRAL_START_NM "380"
SPECTRAL_END_NM "730"
NUMBER_OF_FIELDS 46
BEGIN_DATA_FORMAT
SAMPLE_ID CMYKOG_C CMYKOG_M CMYKOG_Y CMYKOG_K CMYKOG_O CMYKOG_G XYZ_X XYZ_Y XYZ_Z SPEC_380 SPEC_390 SPEC_400 SPEC_410 SPEC_420 SPEC_430 SPEC_440 SPEC_450 SPEC_460 SPEC_470 SPEC_480 SPEC_490 SPEC_500 SPEC_510 SPEC_520 SPEC_530 SPEC_540 SPEC_550 SPEC_560 SPEC_570 SPEC_580 SPEC_590 SPEC_600 SPEC_610 SPEC_620 SPEC_630 SPEC_640 SPEC_650 SPEC_660 SPEC_670 SPEC_680 SPEC_690 SPEC_700 SPEC_710 SPEC_720 SPEC_730
END_DATA_FORMAT
NUMBER_OF_SETS 900
BEGIN_DATA
1 0.0000 0.0000 0.0000 0.0000 0.0000 0.0000 86.15816 89.52422 73.07665 0.86432 0.85775 0.85237 0.85625 0.86389 0.87113 0.88185 0.88914 0.88931 0.89396 0.89543 0.89676 0.89256 0.89358 0.89608 0.89749 0.89597 0.89386 0.89627 0.89408 0.89277 0.89565 0.89707 0.89723 0.89580 0.89408 0.89327 0.89660 0.89363 0.89589 0.89606 0.89416 0.89505 0.89527 0.89668 0.89422
2 0.0000 0.0000 0.0000 0.0000 0.0000 0.0000 86.11507 89.52742 73.04563 0.86385 0.85796 0.85308 0.85676 0.86317 0.87276 0.87859 0.88686 0.89170 0.89602 0.89475 0.89792 0.89613 0.89663 0.89414 0.89437 0.89626 0.89431 0.89829 0.89573 0.90017 0.89441 0.89654 0.89636 0.89574 0.89615 0.89168 0.89556 0.89732 0.89530 0.89309 0.89471 0.89548 0.89699 0.89423 0.89740
3 0.0000 0.0000 0.0000 0.0000 0.0000 0.0000 86.16351 89.53004 73.08998 0.86277 0.85923 0.85557 0.86152 0.86518 0.87459 0.88001 0.88349 0.89118 0.89362 0.89336 0.89504 0.89193 0.89481 0.89420 0.89782 0.89537 0.89540 0.89530 0.89182 0.89348 0.89746 0.89628 0.89277 0.89565 0.89446 0.89598 0.89536 0.89511 0.89278 0.89457 0.89364 0.89466 0.89675 0.89583 0.89613
4 0.0000 0.0000 0.0000 0.0000 0.0000 0.0000 86.16227 89.52543 73.06950 0.86515 0.85538 0.85447 0.85907 0.86591 0.86842 0.87853 0.88737 0.89632 0.89200 0.89410 0.89524 0.89660 0.89260 0.89397 0.89425 0.89389 0.89412 0.89601 0.89736 0.89620 0.89556 0.89504 0.89391 0.89290 0.89296 0.89715 0.89730 0.89613 0.89571 0.89525 0.89601 0.89442 0.89353 0.89268 0.89539
5 0.0000 0.0000 0.0000 100.0000 0.0000 0.0000 3.46724 3.71993 3.34810 0.04342 0.04252 0.04204 0.04164 0.04161 0.04159 0.04142 0.04127 0.04108 0.04046 0.04006 0.03973 0.03925 0.03886 0.03849 0.03797 0.03742 0.03734 0.03663 0.03621 0.03598 0.03538 0.03502 0.03472 0.03427 0.03396 0.03365 0.03321 0.03282 0.03252 0.03215 0.03196 0.03137 0.03117 0.03074 0.03045
6 0.0000 0.0000 0.0000 100.0000 0.0000 0.0000 3.46967 3.65118 3.35010 0.04334 0.04260 0.04198 0.04157 0.04149 0.04160 0.04124 0.04132 0.04091 0.04056 0.04004 0.03974 0.03939 0.03879 0.03841 0.03797 0.03751 0.03705 0.03679 0.03635 0.03584 0.03558 0.03504 0.03471 0.03421 0.03381 0.03354 0.03332 0.03285 0.03255 0.03224 0.03180 0.03138 0.03110 0.03072 0.03045
7 0.0000 0.0000 0.0000 100.0000 0.0000 0.0000 3.46725 3.68139 3.35698 0.04346 0.04281 0.04217 0.04174 0.04156 0.04151 0.04138 0.04122 0.04101 0.04051 0.04013 0.03971 0.03911 0.03895 0.03838 0.03809 0.03739 0.03697 0.03668 0.03631 0.03597 0.03556 0.03520 0.03472 0.03451 0.03401 0.03346 0.03315 0.03279 0.03248 0.03208 0.03180 0.03151 0.03100 0.03072 0.03053
8 0.0000 0.0000 0.0000 100.0000 0.0000 0.0000 3.46577 3.65449 3.36879 0.04367 0.04286 0.04211 0.04183 0.04159 0.04133 0.04133 0.04127 0.04094 0.04049 0.04008 0.03976 0.03930 0.03880 0.03853 0.03794 0.03751 0.03713 0.03670 0.03629 0.03575 0.03567 0.03515 0.03474 0.03429 0.03394 0.03361 0.03316 0.03290 0.03253 0.03211 0.03173 0.03148 0.03124 0.03077 0.03049
9 0.0000 0.0000 0.0000 0.0000 0.0000 0.0000 86.12970 89.52173 73.09718 0.86379 0.85614 0.85715 0.85703 0.86787 0.87129 0.87782 0.88748 0.89261 0.89502 0.89480 0.89288 0.89733 0.89350 0.89946 0.89434 0.89499 0.89485 0.89792 0.89892 0.89623 0.89627 0.89362 0.89716 0.89111 0.89742 0.89618 0.89381 0.89685 0.89676 0.89882 0.89841 0.89569 0.89621 0.89308 0.89685
10 10.0000 0.0000 0.0000 0.0000 0.0000 0.0000 71.12242 76.92286 72.52036 0.86186 0.85650 0.85252 0.85637 0.86449 0.87011 0.87916 0.88206 0.88748 0.88776 0.88307 0.87708 0.86709 0.85861 0.84523 0.82583 0.80690 0.78551 0.76323 0.74469 0.72382 0.71147 0.69880 0.68709 0.67892 0.67404 0.67319 0.67335 0.68060 0.68891 0.70168 0.71867 0.73500 0.75803 0.77935 0.79959
11 20.0000 0.0000 0.0000 0.0000 0.0000 0.0000 60.78749 67.98221 71.99985 0.86532 0.85777 0.85610 0.85836 0.86418 0.87098 0.87927 0.88206 0.88217 0.88060 0.87132 0.86434 0.84959 0.82793 0.80546 0.77513 0.74116 0.70683 0.67225 0.63722 0.60835 0.58271 0.56138 0.54417 0.53469 0.52460 0.52469 0.52812 0.53772 0.54745 0.56632 0.59028 0.62066 0.65382 0.69031 0.73112
12 30.0000 0.0000 0.0000 0.0000 0.0000 0.0000 52.53014 60.67135 71.55901 0.86492 0.85738 0.85369 0.85652 0.86271 0.87413 0.87490 0.87941 0.87891 0.87458 0.86641 0.84766 0.82712 0.80300 0.76730 0.72907 0.68166 0.63453 0.59024 0.54759 0.51115 0.47760 0.45264 0.43365 0.41959 0.41149 0.40944 0.41348 0.42333 0.43760 0.45970 0.49210 0.52566 0.56999 0.61711 0.66998
13 40.0000 0.0000 0.0000 0.0000 0.0000 0.0000 45.65106 54.36812 71.16695 0.86441 0.85973 0.85703 0.85571 0.86303 0.86702 0.87486 0.87982 0.87751 0.87050 0.85720 0.83707 0.81221 0.77664 0.73373 0.68583 0.63006 0.57740 0.52127 0.47364 0.42898 0.39243 0.36409 0.34337 0.32861 0.32041 0.31793 0.32147 0.33139 0.34834 0.37330 0.40482 0.44805 0.49750 0.55340 0.61219
14 50.0000 0.0000 0.0000 0.0000 0.0000 0.0000 39.87846 48.96748 70.78186 0.86394 0.85856 0.85293 0.85497 0.86181 0.86966 0.87272 0.87791 0.87020 0.86774 0.84695 0.82432 0.79319 0.75081 0.70235 0.64415 0.58479 0.52017 0.46089 0.40586 0.36000 0.32129 0.29043 0.26909 0.25466 0.24632 0.24286 0.24727 0.25718 0.27454 0.30089 0.33537 0.37782 0.43243 0.49678 0.56458
15 60.0000 0.0000 0.0000 0.0000 0.0000 0.0000 35.09859 44.24239 70.45852 0.86529 0.85527 0.85483 0.85836 0.86188 0.86793 0.87256 0.87545 0.87231 0.86312 0.84167 0.81501 0.77560 0.73228 0.67254 0.61024 0.53858 0.47027 0.40603 0.34815 0.29813 0.26054 0.23095 0.21030 0.19537 0.18738 0.18490 0.18894 0.19835 0.21470 0.24011 0.27545 0.32031 0.37726 0.44381 0.51911
16 70.0000 0.0000 0.0000 0.0000 0.0000 0.0000 31.06983 40.10872 70.07555 0.85928 0.85502 0.85479 0.85594 0.86533 0.86984 0.87321 0.87225 0.86817 0.85525 0.83213 0.80266 0.76337 0.70993 0.64590 0.57628 0.49819 0.42484 0.35743 0.29816 0.24811 0.21014 0.18099 0.16019 0.14697 0.13926 0.13774 0.14103 0.15011 0.16658 0.19085 0.22397 0.26882 0.32709 0.39725 0.47335
17 80.0000 0.0000 0.0000 0.0000 0.0000 0.0000 27.68060 36.50285 69.73467 0.86020 0.85925 0.85444 0.85713 0.86157 0.86674 0.87242 0.87122 0.86697 0.85091 0.82810 0.79322 0.74576 0.68807 0.62029 0.54108 0.46174 0.38343 0.31305 0.25385 0.20419 0.16719 0.13997 0.12147 0.10895 0.10179 0.10015 0.10335 0.11167 0.12621 0.14911 0.18086 0.22573 0.28343 0.35463 0.43518
18 90.0000 0.0000 0.0000 0.0000 0.0000 0.0000 24.84068 33.33914 69.39327 0.86210 0.85934 0.85510 0.85346 0.86156 0.86411 0.87225 0.86871 0.86523 0.84867 0.82202 0.78157 0.73304 0.66807 0.59373 0.51086 0.42680 0.34655 0.27469 0.21351 0.16702 0.13184 0.10721 0.08966 0.07905 0.07313 0.07170 0.07419 0.08144 0.09466 0.11514 0.14497 0.18734 0.24419 0.31621 0.40175
19 100.0000 0.0000 0.0000 0.0000 0.0000 0.0000 22.46251 30.59638 69.08455 0.86244 0.85930 0.85205 0.85624 0.85956 0.86725 0.87421 0.86721 0.86185 0.84003 0.81490 0.77721 0.71945 0.64847 0.56987 0.48322 0.39381 0.31271 0.23979 0.18036 0.13584 0.10303 0.08002 0.06549 0.05610 0.05085 0.04991 0.05199 0.05823 0.06929 0.08710 0.11479 0.15517 0.20910 0.28147 0.36726
20 0.0000 0.0000 0.0000 0.0000 0.0000 0.0000 86.16379 89.52266 73.08611 0.86496 0.85513 0.85585 0.85692 0.86503 0.87229 0.87867 0.88673 0.89174 0.89378 0.89742 0.89454 0.89594 0.89696 0.89824 0.89454 0.89475 0.89507 0.89372 0.89328 0.89701 0.89642 0.89751 0.89799 0.89415 0.89506 0.89409 0.89504 0.89791 0.89303 0.89777 0.89415 0.89642 0.89916 0.89762 0.89304
21 0.0000 10.0000 0.0000 0.0000 0.0000 0.0000 78.82188 76.47638 65.18308 0.85152 0.83487 0.81151 0.79578 0.78926 0.78665 0.79315 0.80351 0.80910 0.80071 0.78369 0.75743 0.73197 0.71213 0.69718 0.69323 0.69767 0.71074 0.73111 0.75988 0.79085 0.82336 0.84626 0.86831 0.87883 0.89076 0.88997 0.88831 0.89593 0.89597 0.89607 0.89807 0.89742 0.89446 0.89380 0.89565
22 0.0000 20.0000 0.0000 0.0000 0.0000 0.0000 73.46338 67.28907 59.34455 0.83994 0.81214 0.78049 0.75361 0.73388 0.72587 0.73254 0.73998 0.74388 0.73157 0.69804 0.65912 0.61589 0.58353 0.56396 0.55458 0.56364 0.58340 0.61566 0.66239 0.71522 0.76236 0.81093 0.84095 0.86627 0.88094 0.89164 0.89293 0.89452 0.89602 0.89667 0.89528 0.89568 0.89607 0.89467 0.89722
23 0.0000 30.0000 0.0000 0.0000 0.0000 0.0000 68.97022 59.71489 54.27225 0.83258 0.79654 0.75370 0.71036 0.68182 0.67101 0.67448 0.68564 0.68833 0.66956 0.62888 0.57115 0.52186 0.47943 0.45700 0.44753 0.45650 0.48164 0.52351 0.58002 0.64793 0.71793 0.77628 0.82363 0.85553 0.87598 0.88574 0.89309 0.89175 0.89295 0.89645 0.89702 0.89646 0.89864 0.89730 0.89412
24 0.0000 40.0000 0.0000 0.0000 0.0000 0.0000 64.93334 53.26311 49.77287 0.82127 0.77787 0.72464 0.67464 0.63655 0.62052 0.62424 0.63682 0.63966 0.61590 0.56645 0.50172 0.44130 0.39611 0.36913 0.35834 0.36698 0.39482 0.44426 0.50780 0.58906 0.67323 0.74344 0.80570 0.84706 0.87104 0.88427 0.88696 0.89352 0.89215 0.89395 0.89562 0.89684 0.89622 0.89773 0.89367
25 0.0000 50.0000 0.0000 0.0000 0.0000 0.0000 61.42092 47.82145 45.70529 0.81584 0.76280 0.69943 0.63942 0.59658 0.57717 0.57710 0.59329 0.59241 0.56638 0.50932 0.43765 0.37081 0.32329 0.29501 0.28509 0.29518 0.32425 0.37532 0.44768 0.53802 0.63121 0.71976 0.78719 0.83693 0.86338 0.88298 0.89136 0.89134 0.89609 0.89609 0.89724 0.89633 0.89542 0.89387 0.89552
26 0.0000 60.0000 0.0000 0.0000 0.0000 0.0000 58.24490 43.08895 42.05714 0.80739 0.74605 0.67525 0.60481 0.55710 0.53477 0.53721 0.54770 0.55154 0.51987 0.45951 0.38107 0.31222 0.26377 0.23388 0.22488 0.23363 0.26493 0.31486 0.39071 0.48617 0.59187 0.68859 0.76974 0.82649 0.86409 0.88242 0.88743 0.89325 0.89385 0.89185 0.89365 0.89509 0.89465 0.89526 0.89719
27 0.0000 70.0000 0.0000 0.0000 0.0000 0.0000 55.36138 38.99292 38.70322 0.79984 0.73337 0.65245 0.57686 0.52241 0.49603 0.49547 0.51140 0.51222 0.47905 0.41303 0.33222 0.26174 0.21256 0.18406 0.17542 0.18403 0.21343 0.26397 0.34226 0.44188 0.55706 0.66532 0.75252 0.81661 0.85655 0.87506 0.88649 0.89319 0.89065 0.89105 0.89543 0.89444 0.89209 0.89380 0.89624
28 0.0000 80.0000 0.0000 0.0000 0.0000 0.0000 52.74316 35.43332 35.59864 0.79136 0.71674 0.63283 0.54862 0.48746 0.46040 0.46134 0.47467 0.47518 0.44185 0.37153 0.28840 0.21746 0.16963 0.14382 0.13467 0.14332 0.17052 0.22039 0.29866 0.40293 0.52187 0.64061 0.73841 0.80999 0.85405 0.87255 0.88603 0.89261 0.89600 0.89354 0.89226 0.89715 0.89433 0.89461 0.89487
29 0.0000 90.0000 0.0000 0.0000 0.0000 0.0000 50.42624 32.33518 32.78907 0.78299 0.70668 0.60819 0.52219 0.45754 0.42638 0.42714 0.44034 0.44262 0.40544 0.33179 0.24907 0.18012 0.13449 0.10969 0.10197 0.10983 0.13467 0.18297 0.25946 0.36579 0.49263 0.61786 0.72222 0.79701 0.84611 0.88018 0.88555 0.89224 0.89330 0.89673 0.89587 0.89731 0.89579 0.89481 0.89937
30 0.0000 100.0000 0.0000 0.0000 0.0000 0.0000 48.26776 29.70301 30.13266 0.77720 0.69248 0.59092 0.49460 0.42626 0.39555 0.39442 0.40911 0.40997 0.37234 0.29629 0.21464 0.14760 0.10533 0.08282 0.07575 0.08317 0.10551 0.14983 0.22477 0.33052 0.46249 0.59173 0.70552 0.78883 0.84182 0.87161 0.88310 0.88873 0.89176 0.89539 0.89665 0.89132 0.89561 0.89733 0.89527
31 0.0000 0.0000 0.0000 0.0000 0.0000 0.0000 86.16195 89.52640 73.05506 0.86310 0.85840 0.85667 0.85767 0.86207 0.87358 0.88480 0.88863 0.89241 0.89133 0.89348 0.89589 0.89588 0.89497 0.89137 0.89449 0.89637 0.90034 0.89593 0.89559 0.89778 0.89488 0.89511 0.89635 0.89642 0.89683 0.89703 0.89614 0.89460 0.89508 0.89650 0.89472 0.89393 0.89595 0.89070 0.89694
32 0.0000 0.0000 10.0000 0.0000 0.0000 0.0000 83.29877 87.18903 57.58047 0.78350 0.74223 0.70629 0.67954 0.66585 0.65889 0.66458 0.67478 0.69095 0.71274 0.73491 0.76658 0.79104 0.81787 0.84145 0.86422 0.87818 0.88689 0.89178 0.89773 0.89639 0.89728 0.89575 0.89338 0.89496 0.89380 0.89578 0.89598 0.89881 0.89340 0.89731 0.89505 0.89620 0.89386 0.89896 0.89600
33 0.0000 0.0000 20.0000 0.0000 0.0000 0.0000 81.33918 85.44119 47.01963 0.72371 0.66196 0.60213 0.55774 0.53044 0.51718 0.51778 0.53278 0.55530 0.58467 0.62449 0.66499 0.71048 0.75951 0.80465 0.84050 0.86634 0.88394 0.89195 0.89378 0.89141 0.89439 0.89074 0.89220 0.89491 0.89639 0.89760 0.89604 0.89794 0.89803 0.89370 0.89452 0.89571 0.89343 0.89547 0.89417
34 0.0000 0.0000 30.0000 0.0000 0.0000 0.0000 79.79253 83.94874 38.58121 0.66790 0.58788 0.51626 0.45765 0.42281 0.40627 0.40661 0.41996 0.44540 0.48489 0.53132 0.58572 0.64634 0.70914 0.76548 0.81725 0.85481 0.87724 0.88875 0.89387 0.89305 0.89562 0.89489 0.89623 0.89853 0.89405 0.89666 0.89451 0.89514 0.89417 0.89545 0.89625 0.89180 0.89857 0.89781 0.89883
35 0.0000 0.0000 40.0000 0.0000 0.0000 0.0000 78.51470 82.61120 31.70383 0.62200 0.52620 0.44031 0.37756 0.33641 0.31845 0.31585 0.33071 0.35854 0.40055 0.45253 0.51314 0.58335 0.66137 0.73594 0.79703 0.84582 0.87356 0.88715 0.89323 0.89499 0.89381 0.89628 0.89219 0.89570 0.89690 0.89214 0.89887 0.89364 0.89731 0.89480 0.89552 0.89409 0.89537 0.89525 0.89428
36 0.0000 0.0000 50.0000 0.0000 0.0000 0.0000 77.42124 81.38838 25.99986 0.57845 0.46992 0.37674 0.30776 0.26629 0.24615 0.24379 0.25760 0.28594 0.32876 0.38346 0.45299 0.53160 0.61793 0.70610 0.78042 0.83488 0.86544 0.88438 0.89370 0.89532 0.89569 0.89602 0.89466 0.89651 0.89193 0.89348 0.89279 0.89125 0.89642 0.89464 0.89530 0.89531 0.89424 0.89646 0.89403
37 0.0000 0.0000 60.0000 0.0000 0.0000 0.0000 76.51703 80.27828 21.22703 0.53698 0.41897 0.32016 0.25086 0.20861 0.18790 0.18544 0.19753 0.22635 0.26725 0.32566 0.39765 0.48384 0.58017 0.67652 0.76089 0.82454 0.86170 0.87903 0.89456 0.89325 0.89717 0.89534 0.89445 0.89519 0.89488 0.89433 0.89479 0.89401 0.89590 0.89562 0.89576 0.89270 0.89594 0.89831 0.89332
38 0.0000 0.0000 70.0000 0.0000 0.0000 0.0000 75.74607 79.23992 17.34580 0.49924 0.37505 0.27228 0.20260 0.16044 0.14034 0.13885 0.15031 0.17573 0.21747 0.27459 0.34753 0.43677 0.54292 0.64989 0.74193 0.81127 0.85958 0.88057 0.88923 0.89522 0.89489 0.89290 0.89537 0.89949 0.89397 0.89683 0.89505 0.89622 0.89606 0.89694 0.89745 0.89503 0.89810 0.89607 0.89323
39 0.0000 0.0000 80.0000 0.0000 0.0000 0.0000 75.14174 78.31795 14.07766 0.46687 0.33350 0.22973 0.16164 0.12229 0.10444 0.10174 0.11204 0.13600 0.17513 0.23091 0.30514 0.39885 0.50751 0.62494 0.72899 0.80666 0.85224 0.87843 0.88486 0.88955 0.89513 0.89620 0.89527 0.89587 0.89673 0.89406 0.89668 0.89710 0.89428 0.89713 0.89453 0.89567 0.89551 0.89532 0.89142
40 0.0000 0.0000 90.0000 0.0000 0.0000 0.0000 74.61826 77.38975 11.40715 0.43301 0.29560 0.19342 0.12744 0.09137 0.07509 0.07274 0.08181 0.10325 0.13936 0.19235 0.26531 0.36126 0.47618 0.59977 0.70986 0.79665 0.84550 0.87811 0.88864 0.89544 0.89531 0.89707 0.89783 0.89324 0.89296 0.89690 0.89620 0.89378 0.89425 0.89418 0.89638 0.89325 0.89281 0.89449 0.89375
41 0.0000 0.0000 100.0000 0.0000 0.0000 0.0000 74.19918 76.58496 9.23116 0.40145 0.26316 0.16104 0.09954 0.06712 0.05305 0.05084 0.05830 0.07696 0.10957 0.15963 0.23093 0.32851 0.44430 0.57595 0.69410 0.78750 0.84348 0.87421 0.88935 0.89075 0.89371 0.89327 0.89576 0.89617 0.89649 0.89251 0.89270 0.89578 0.89562 0.89359 0.89561 0.89581 0.89449 0.90056 0.89380
42 0.0000 0.0000 0.0000 0.0000 0.0000 0.0000 86.14281 89.54101 73.06980 0.86585 0.85760 0.85526 0.85594 0.86329 0.87193 0.87970 0.88781 0.89239 0.89368 0.89584 0.89465 0.89389 0.89403 0.89370 0.89447 0.89464 0.89596 0.89463 0.89726 0.89679 0.89511 0.89316 0.89538 0.89571 0.89656 0.89667 0.89625 0.89617 0.89670 0.89856 0.89556 0.89471 0.89864 0.89659 0.89388
43 0.0000 0.0000 0.0000 10.0000 0.0000 0.0000 63.42892 65.95645 54.26435 0.64529 0.63931 0.63940 0.63787 0.64256 0.64774 0.65254 0.65994 0.65847 0.66350 0.66255 0.66447 0.66239 0.66395 0.66365 0.66339 0.66165 0.66114 0.66083 0.65663 0.66157 0.65832 0.65772 0.65794 0.65786 0.65666 0.65508 0.65503 0.65686 0.65497 0.65385 0.65280 0.65211 0.65234 0.65298 0.65208
44 0.0000 0.0000 0.0000 20.0000 0.0000 0.0000 48.50218 50.49850 41.81997 0.49861 0.49466 0.49152 0.49406 0.49777 0.50161 0.50680 0.50761 0.51153 0.50917 0.51049 0.50938 0.50927 0.50910 0.50700 0.50504 0.50537 0.50504 0.50402 0.50587 0.50307 0.50201 0.50283 0.50173 0.50035 0.49953 0.49985 0.49902 0.49874 0.49786 0.49555 0.49684 0.49367 0.49312 0.49233 0.49294
45 0.0000 0.0000 0.0000 30.0000 0.0000 0.0000 37.03086 38.60441 32.22292 0.38915 0.38381 0.38194 0.38190 0.38515 0.38555 0.39003 0.39222 0.39390 0.39290 0.39231 0.39158 0.38976 0.39003 0.38946 0.38894 0.38835 0.38582 0.38526 0.38555 0.38342 0.38507 0.38167 0.38188 0.38057 0.38094 0.37906 0.37901 0.37785 0.37692 0.37668 0.37662 0.37534 0.37404 0.37246 0.37211
46 0.0000 0.0000 0.0000 40.0000 0.0000 0.0000 28.05628 29.28723 24.64730 0.29742 0.29588 0.29287 0.29376 0.29544 0.29790 0.29916 0.29926 0.30032 0.29996 0.29882 0.29762 0.29866 0.29691 0.29658 0.29561 0.29428 0.29348 0.29339 0.29261 0.29171 0.29026 0.28962 0.28834 0.28665 0.28739 0.28527 0.28486 0.28362 0.28366 0.28364 0.28264 0.28087 0.28100 0.27859 0.27859
47 0.0000 0.0000 0.0000 50.0000 0.0000 0.0000 20.92500 21.88860 18.61986 0.22672 0.22434 0.22320 0.22197 0.22408 0.22522 0.22624 0.22664 0.22717 0.22699 0.22573 0.22430 0.22399 0.22332 0.22160 0.22181 0.22054 0.21968 0.21952 0.21784 0.21687 0.21662 0.21523 0.21517 0.21366 0.21298 0.21265 0.21132 0.21032 0.21031 0.20842 0.20794 0.20784 0.20673 0.20636 0.20494
48 0.0000 0.0000 0.0000 60.0000 0.0000 0.0000 15.37744 16.07640 13.85336 0.17050 0.16808 0.16735 0.16684 0.16733 0.16791 0.16841 0.16873 0.16846 0.16828 0.16728 0.16672 0.16536 0.16528 0.16432 0.16340 0.16252 0.16186 0.16075 0.15998 0.15986 0.15788 0.15806 0.15675 0.15641 0.15515 0.15463 0.15455 0.15295 0.15230 0.15188 0.15099 0.15012 0.14898 0.14868 0.14796
49 0.0000 0.0000 0.0000 70.0000 0.0000 0.0000 11.10322 11.56587 10.09493 0.12560 0.12378 0.12213 0.12216 0.12247 0.12287 0.12306 0.12354 0.12251 0.12201 0.12222 0.12107 0.12047 0.11950 0.11882 0.11867 0.11777 0.11695 0.11587 0.11520 0.11398 0.11344 0.11305 0.11239 0.11163 0.11108 0.11063 0.10972 0.10876 0.10839 0.10764 0.10719 0.10642 0.10556 0.10512 0.10481
50 0.0000 0.0000 0.0000 80.0000 0.0000 0.0000 7.77987 8.12840 7.18339 0.09089 0.08934 0.08801 0.08768 0.08769 0.08763 0.08792 0.08768 0.08717 0.08709 0.08645 0.08625 0.08539 0.08449 0.08381 0.08317 0.08307 0.08221 0.08133 0.08053 0.08034 0.07944 0.07869 0.07839 0.07774 0.07718 0.07658 0.07595 0.07542 0.07475 0.07444 0.07352 0.07331 0.07263 0.07188 0.07167
51 0.0000 0.0000 0.0000 90.0000 0.0000 0.0000 5.27341 5.56825 4.98107 0.06361 0.06265 0.06204 0.06130 0.06114 0.06104 0.06100 0.06091 0.06085 0.06045 0.05970 0.05944 0.05887 0.05811 0.05756 0.05707 0.05645 0.05587 0.05553 0.05494 0.05423 0.05385 0.05342 0.05322 0.05255 0.05202 0.05150 0.05110 0.05053 0.05002 0.04988 0.04904 0.04875 0.04854 0.04798 0.04760
52 0.0000 0.0000 0.0000 100.0000 0.0000 0.0000 3.50687 3.61482 3.38622 0.04333 0.04285 0.04216 0.04160 0.04176 0.04163 0.04132 0.04120 0.04096 0.04045 0.04013 0.03980 0.03928 0.03884 0.03842 0.03800 0.03758 0.03705 0.03688 0.03635 0.03592 0.03546 0.03503 0.03476 0.03425 0.03387 0.03355 0.03330 0.03283 0.03253 0.03207 0.03174 0.03138 0.03110 0.03067 0.03040
53 0.0000 0.0000 0.0000 0.0000 0.0000 0.0000 86.15539 89.51857 73.08334 0.86162 0.85880 0.85636 0.85834 0.86220 0.87040 0.87834 0.88815 0.89048 0.89374 0.89628 0.89878 0.89549 0.89521 0.89418 0.89734 0.89390 0.89878 0.89479 0.89474 0.89590 0.89669 0.89524 0.89592 0.89295 0.89634 0.89408 0.89508 0.89469 0.89610 0.89612 0.89456 0.89748 0.89282 0.88924 0.89575
54 0.0000 0.0000 0.0000 0.0000 10.0000 0.0000 81.23903 81.09378 56.10638 0.79534 0.75721 0.73085 0.70833 0.69169 0.68176 0.67640 0.67456 0.67442 0.67753 0.67881 0.68282 0.68864 0.69934 0.71346 0.73848 0.76673 0.79936 0.82757 0.85554 0.87252 0.88660 0.89088 0.89380 0.89338 0.89660 0.89445 0.89785 0.89671 0.89375 0.89529 0.89601 0.89804 0.89607 0.89559 0.89758
55 0.0000 0.0000 0.0000 0.0000 20.0000 0.0000 77.75557 75.01721 44.64102 0.73600 0.68676 0.64048 0.60308 0.57096 0.55356 0.53861 0.53266 0.53045 0.53090 0.53495 0.54105 0.55256 0.56737 0.58883 0.62790 0.67509 0.72707 0.77853 0.82547 0.85545 0.87698 0.88675 0.89257 0.89439 0.89219 0.89542 0.89599 0.89553 0.89689 0.89695 0.89282 0.89657 0.89935 0.89593 0.89598
56 0.0000 0.0000 0.0000 0.0000 30.0000 0.0000 74.86957 69.98377 35.61593 0.68720 0.62643 0.56721 0.51880 0.47689 0.44851 0.42940 0.41972 0.41714 0.41771 0.42323 0.43121 0.44157 0.46260 0.49136 0.53644 0.59396 0.66236 0.73430 0.79340 0.84008 0.86827 0.88096 0.89025 0.89499 0.89756 0.89653 0.89552 0.89429 0.89322 0.89604 0.89632 0.89638 0.89631 0.89753 0.89521
57 0.0000 0.0000 0.0000 0.0000 40.0000 0.0000 72.39022 65.67507 28.32092 0.64579 0.57183 0.49924 0.44069 0.39474 0.36097 0.33997 0.32899 0.32644 0.32704 0.33109 0.33901 0.35230 0.37457 0.40882 0.45784 0.52531 0.60784 0.69180 0.76662 0.82171 0.85783 0.87981 0.88831 0.89294 0.89675 0.89318 0.89640 0.89396 0.89310 0.89854 0.89384 0.89467 0.89513 0.89700 0.89517
58 0.0000 0.0000 0.0000 0.0000 50.0000 0.0000 70.28856 61.88229 22.34843 0.60641 0.51872 0.44183 0.37543 0.32622 0.29112 0.26841 0.25723 0.25255 0.25399 0.25808 0.26586 0.27860 0.30023 0.33489 0.39023 0.46472 0.55564 0.65492 0.74261 0.80782 0.85347 0.87720 0.88870 0.89332 0.89681 0.89531 0.89792 0.89801 0.89717 0.89640 0.89277 0.89670 0.89528 0.89885 0.89652
59 0.0000 0.0000 0.0000 0.0000 60.0000 0.0000 68.41943 58.61734 17.49672 0.56760 0.47293 0.38878 0.31980 0.26797 0.23257 0.21008 0.19749 0.19244 0.19376 0.19880 0.20643 0.21939 0.24048 0.27640 0.33266 0.41305 0.50961 0.61921 0.72312 0.79497 0.84779 0.87367 0.88354 0.89014 0.89499 0.89616 0.89610 0.89514 0.89534 0.89484 0.89226 0.89906 0.89929 0.89868 0.89331
60 0.0000 0.0000 0.0000 0.0000 70.0000 0.0000 66.74174 55.66073 13.51612 0.53327 0.43150 0.34293 0.27265 0.21844 0.18304 0.16189 0.15033 0.14552 0.14626 0.15026 0.15690 0.16973 0.19019 0.22552 0.28098 0.36073 0.46748 0.58516 0.69731 0.78308 0.83882 0.86961 0.88557 0.89239 0.89278 0.89420 0.89287 0.89346 0.89806 0.89583 0.89598 0.89540 0.89142 0.89437 0.89755
61 0.0000 0.0000 0.0000 0.0000 80.0000 0.0000 65.32592 53.07766 10.30689 0.50082 0.39407 0.30234 0.22893 0.17781 0.14313 0.12304 0.11168 0.10752 0.10830 0.11202 0.11796 0.12953 0.14876 0.18188 0.23640 0.31800 0.42806 0.55466 0.67378 0.77194 0.82973 0.86474 0.88209 0.89183 0.89137 0.89878 0.89686 0.89524 0.89381 0.89557 0.89408 0.89485 0.89812 0.89527 0.89666
62 0.0000 0.0000 0.0000 0.0000 90.0000 0.0000 64.02880 50.75700 7.74508 0.47003 0.36021 0.26437 0.19299 0.14298 0.11014 0.09162 0.08170 0.07817 0.07848 0.08164 0.08753 0.09738 0.11498 0.14570 0.19740 0.28061 0.39240 0.52434 0.65205 0.75870 0.82407 0.86550 0.88220 0.89444 0.89324 0.89638 0.89397 0.89535 0.89947 0.89485 0.89592 0.89294 0.89326 0.89563 0.89660
63 0.0000 0.0000 0.0000 0.0000 100.0000 0.0000 62.89319 48.71287 5.74423 0.44115 0.32647 0.23125 0.16075 0.11280 0.08361 0.06689 0.05834 0.05521 0.05567 0.05839 0.06343 0.07182 0.08749 0.11594 0.16538 0.24420 0.35869 0.49629 0.63489 0.74380 0.82100 0.86193 0.87916 0.88854 0.89497 0.89507 0.89546 0.89408 0.89476 0.89509 0.89593 0.89716 0.89371 0.89757 0.89607
64 0.0000 0.0000 0.0000 0.0000 0.0000 0.0000 86.10723 89.51605 73.10303 0.86253 0.85972 0.85441 0.86016 0.86465 0.87392 0.88134 0.88823 0.88795 0.89408 0.89567 0.89541 0.89337 0.89891 0.89908 0.89410 0.89417 0.89351 0.89765 0.89412 0.89359 0.89286 0.89523 0.89466 0.89221 0.89461 0.89604 0.89344 0.89494 0.89633 0.89647 0.89645 0.89351 0.89643 0.89445 0.89525
