.bench/S6.ti3
CTI3   
DESCRIPTOR "Synthetic ground-truth chart (ChromIQ benchmarks)"
ORIGINATOR "ChromIQ benchmarks"
DEVICE_CLASS "OUTPUT"
COLOR_REP "CMYKV_XYZ"
TOTAL_INK_LIMIT "300"
SPECTRAL_BANDS "36"
SPECTRAL_START_NM "380"
SPECTRAL_END_NM "730"
NUMBER_OF_FIELDS 45
BEGIN_DATA_FORMAT
SAMPLE_ID CMYKV_C CMYKV_M CMYKV_Y CMYKV_K CMYKV_V XYZ_X XYZ_Y XYZ_Z SPEC_380 SPEC_390 SPEC_400 SPEC_410 SPEC_420 SPEC_430 SPEC_440 SPEC_450 SPEC_460 SPEC_470 SPEC_480 SPEC_490 SPEC_500 SPEC_510 SPEC_520 SPEC_530 SPEC_540 SPEC_550 SPEC_560 SPEC_570 SPEC_580 SPEC_590 SPEC_600 SPEC_610 SPEC_620 SPEC_630 SPEC_640 SPEC_650 SPEC_660 SPEC_670 SPEC_680 SPEC_690 SPEC_700 SPEC_710 SPEC_720 SPEC_730
END_DATA_FORMAT
NUMBER_OF_SETS 900
BEGIN_DATA
1 0.0000 0.0000 0.0000 0.0000 0.0000 86.15816 89.52422 73.07665 0.86432 0.85775 0.85237 0.85625 0.86389 0.87113 0.88185 0.88914 0.88931 0.89396 0.89543 0.89676 0.89256 0.89358 0.89608 0.89749 0.89597 0.89386 0.89627 0.89408 0.89277 0.89565 0.89707 0.89723 0.89580 0.89408 0.89327 0.89660 0.89363 0.89589 0.89606 0.89416 0.89505 0.89527 0.89668 0.89422
2 0.0000 0.0000 0.0000 0.0000 0.0000 86.11507 89.52742 73.04563 0.86385 0.85796 0.85308 0.85676 0.86317 0.87276 0.87859 0.88686 0.89170 0.89602 0.89475 0.89792 0.89613 0.89663 0.89414 0.89437 0.89626 0.89431 0.89829 0.89573 0.90017 0.89441 0.89654 0.89636 0.89574 0.89615 0.89168 0.89556 0.89732 0.89530 0.89309 0.89471 0.89548 0.89699 0.89423 0.89740
3 0.0000 0.0000 0.0000 0.0000 0.0000 86.16351 89.53004 73.08998 0.86277 0.85923 0.85557 0.86152 0.86518 0.87459 0.88001 0.88349 0.89118 0.89362 0.89336 0.89504 0.89193 0.89481 0.89420 0.89782 0.89537 0.89540 0.89530 0.89182 0.89348 0.89746 0.89628 0.89277 0.89565 0.89446 0.89598 0.89536 0.89511 0.89278 0.89457 0.89364 0.89466 0.89675 0.89583 0.89613
4 0.0000 0.0000 0.0000 0.0000 0.0000 86.16227 89.52543 73.06950 0.86515 0.85538 0.85447 0.85907 0.86591 0.86842 0.87853 0.88737 0.89632 0.89200 0.89410 0.89524 0.89660 0.89260 0.89397 0.89425 0.89389 0.89412 0.89601 0.89736 0.89620 0.89556 0.89504 0.89391 0.89290 0.89296 0.89715 0.89730 0.89613 0.89571 0.89525 0.89601 0.89442 0.89353 0.89268 0.89539
5 0.0000 0.0000 0.0000 100.0000 0.0000 3.46724 3.71993 3.34810 0.04342 0.04252 0.04204 0.04164 0.04161 0.04159 0.04142 0.04127 0.04108 0.04046 0.04006 0.03973 0.03925 0.03886 0.03849 0.03797 0.03742 0.03734 0.03663 0.03621 0.03598 0.03538 0.03502 0.03472 0.03427 0.03396 0.03365 0.03321 0.03282 0.03252 0.03215 0.03196 0.03137 0.03117 0.03074 0.03045
6 0.0000 0.0000 0.0000 100.0000 0.0000 3.46967 3.65118 3.35010 0.04334 0.04260 0.04198 0.04157 0.04149 0.04160 0.04124 0.04132 0.04091 0.04056 0.04004 0.03974 0.03939 0.03879 0.03841 0.03797 0.03751 0.03705 0.03679 0.03635 0.03584 0.03558 0.03504 0.03471 0.03421 0.03381 0.03354 0.03332 0.03285 0.03255 0.03224 0.03180 0.03138 0.03110 0.03072 0.03045
7 0.0000 0.0000 0.0000 100.0000 0.0000 3.46725 3.68139 3.35698 0.04346 0.04281 0.04217 0.04174 0.04156 0.04151 0.04138 0.04122 0.04101 0.04051 0.04013 0.03971 0.03911 0.03895 0.03838 0.03809 0.03739 0.03697 0.03668 0.03631 0.03597 0.03556 0.03520 0.03472 0.03451 0.03401 0.03346 0.03315 0.03279 0.03248 0.03208 0.03180 0.03151 0.03100 0.03072 0.03053
8 0.0000 0.0000 0.0000 100.0000 0.0000 3.46577 3.65449 3.36879 0.04367 0.04286 0.04211 0.04183 0.04159 0.04133 0.04133 0.04127 0.04094 0.04049 0.04008 0.03976 0.03930 0.03880 0.03853 0.03794 0.03751 0.03713 0.03670 0.03629 0.03575 0.03567 0.03515 0.03474 0.03429 0.03394 0.03361 0.03316 0.03290 0.03253 0.03211 0.03173 0.03148 0.03124 0.03077 0.03049
9 0.0000 0.0000 0.0000 0.0000 0.0000 86.12970 89.52173 73.09718 0.86379 0.85614 0.85715 0.85703 0.86787 0.87129 0.87782 0.88748 0.89261 0.89502 0.89480 0.89288 0.89733 0.89350 0.89946 0.89434 0.89499 0.89485 0.89792 0.89892 0.89623 0.89627 0.89362 0.89716 0.89111 0.89742 0.89618 0.89381 0.89685 0.89676 0.89882 0.89841 0.89569 0.89621 0.89308 0.89685
10 10.0000 0.0000 0.0000 0.0000 0.0000 69.75481 76.00103 72.51411 0.86186 0.85650 0.85252 0.85637 0.86449 0.87011 0.87916 0.88206 0.88748 0.88774 0.88302 0.87696 0.86683 0.85808 0.84419 0.82397 0.80378 0.78063 0.75607 0.73475 0.71087 0.69530 0.67964 0.66541 0.65531 0.64927 0.64808 0.64887 0.65748 0.66800 0.68357 0.70374 0.72343 0.74956 0.77360 0.79598
11 20.0000 0.0000 0.0000 0.0000 0.0000 58.94156 66.71641 71.99052 0.86532 0.85777 0.85610 0.85836 0.86418 0.87098 0.87927 0.88205 0.88216 0.88057 0.87124 0.86416 0.84919 0.82712 0.80390 0.77234 0.73656 0.69971 0.66194 0.62322 0.59031 0.56063 0.53558 0.51527 0.50332 0.49202 0.49161 0.49569 0.50693 0.51953 0.54187 0.56988 0.60451 0.64185 0.68204 0.72580
12 30.0000 0.0000 0.0000 0.0000 0.0000 50.59206 59.31802 71.54815 0.86492 0.85738 0.85369 0.85652 0.86271 0.87413 0.87490 0.87941 0.87890 0.87454 0.86632 0.84744 0.82664 0.80202 0.76546 0.72582 0.67638 0.62651 0.57879 0.53225 0.49168 0.45422 0.42561 0.40360 0.38738 0.37800 0.37559 0.38021 0.39163 0.40852 0.43396 0.47018 0.50815 0.55674 0.60779 0.66389
13 40.0000 0.0000 0.0000 0.0000 0.0000 43.84317 53.08063 71.15569 0.86441 0.85973 0.85703 0.85571 0.86303 0.86702 0.87486 0.87982 0.87750 0.87046 0.85710 0.83684 0.81170 0.77562 0.73181 0.68247 0.62466 0.56925 0.50989 0.45860 0.41031 0.37032 0.33893 0.31570 0.29917 0.28991 0.28717 0.29123 0.30245 0.32146 0.34915 0.38412 0.43107 0.48444 0.54405 0.60601
14 50.0000 0.0000 0.0000 0.0000 0.0000 38.32732 47.83873 70.77109 0.86394 0.85856 0.85293 0.85497 0.86181 0.86966 0.87272 0.87790 0.87019 0.86770 0.84685 0.82410 0.79270 0.74981 0.70049 0.64094 0.57967 0.51261 0.45045 0.39237 0.34347 0.30204 0.26894 0.24575 0.23001 0.22093 0.21741 0.22209 0.23293 0.25177 0.28010 0.31719 0.36276 0.42061 0.48811 0.55875
15 60.0000 0.0000 0.0000 0.0000 0.0000 33.86776 43.32495 70.44896 0.86529 0.85527 0.85483 0.85836 0.86188 0.86793 0.87256 0.87544 0.87229 0.86309 0.84158 0.81480 0.77515 0.73138 0.67087 0.60738 0.53410 0.46374 0.39716 0.33689 0.28468 0.24508 0.21390 0.19199 0.17630 0.16785 0.16529 0.16950 0.17951 0.19685 0.22360 0.26071 0.30783 0.36727 0.43638 0.51401
16 70.0000 0.0000 0.0000 0.0000 0.0000 30.17947 39.42697 70.06771 0.85928 0.85502 0.85479 0.85594 0.86533 0.86984 0.87321 0.87225 0.86816 0.85522 0.83206 0.80248 0.76299 0.70918 0.64452 0.57395 0.49459 0.41967 0.35052 0.28955 0.23802 0.19878 0.16871 0.14729 0.13364 0.12573 0.12411 0.12751 0.13688 0.15380 0.17883 0.21310 0.25942 0.31939 0.39140 0.46929
17 80.0000 0.0000 0.0000 0.0000 0.0000 27.12102 36.06119 69.72907 0.86020 0.85925 0.85444 0.85713 0.86157 0.86674 0.87242 0.87122 0.86696 0.85089 0.82804 0.79310 0.74548 0.68752 0.61929 0.53943 0.45920 0.37985 0.30837 0.24812 0.19762 0.15997 0.13231 0.11351 0.10087 0.09367 0.09201 0.09523 0.10363 0.11835 0.14156 0.17387 0.21951 0.27824 0.35061 0.43234
18 90.0000 0.0000 0.0000 0.0000 0.0000 24.58208 33.12791 69.39029 0.86210 0.85934 0.85510 0.85346 0.86156 0.86411 0.87225 0.86871 0.86522 0.84866 0.82199 0.78150 0.73289 0.66778 0.59321 0.50999 0.42548 0.34472 0.27233 0.21071 0.16386 0.12846 0.10369 0.08610 0.07547 0.06956 0.06812 0.07062 0.07787 0.09109 0.11165 0.14166 0.18432 0.24161 0.31416 0.40027
19 100.0000 0.0000 0.0000 0.0000 0.0000 22.46251 30.59638 69.08455 0.86244 0.85930 0.85205 0.85624 0.85956 0.86725 0.87421 0.86721 0.86185 0.84003 0.81490 0.77721 0.71945 0.64847 0.56987 0.48322 0.39381 0.31271 0.23979 0.18036 0.13584 0.10303 0.08002 0.06549 0.05610 0.05085 0.04991 0.05199 0.05823 0.06929 0.08710 0.11479 0.15517 0.20910 0.28147 0.36726
20 0.0000 0.0000 0.0000 0.0000 0.0000 86.16379 89.52266 73.08611 0.86496 0.85513 0.85585 0.85692 0.86503 0.87229 0.87867 0.88673 0.89174 0.89378 0.89742 0.89454 0.89594 0.89696 0.89824 0.89454 0.89475 0.89507 0.89372 0.89328 0.89701 0.89642 0.89751 0.89799 0.89415 0.89506 0.89409 0.89504 0.89791 0.89303 0.89777 0.89415 0.89642 0.89916 0.89762 0.89304
21 0.0000 10.0000 0.0000 0.0000 0.0000 78.42481 75.48792 64.84192 0.85146 0.83463 0.81083 0.79435 0.78697 0.78381 0.79022 0.80075 0.80630 0.79721 0.77843 0.74921 0.71990 0.69619 0.67847 0.67347 0.67896 0.69491 0.71925 0.75210 0.78645 0.82124 0.84540 0.86802 0.87874 0.89074 0.88996 0.88831 0.89593 0.89597 0.89607 0.89807 0.89742 0.89446 0.89380 0.89565
22 0.0000 20.0000 0.0000 0.0000 0.0000 72.90467 65.92944 58.85136 0.83985 0.81178 0.77946 0.75145 0.73047 0.72165 0.72818 0.73589 0.73973 0.72642 0.69044 0.64740 0.59910 0.56177 0.53861 0.52807 0.53832 0.56173 0.59915 0.65128 0.70878 0.75922 0.80961 0.84049 0.86613 0.88091 0.89163 0.89293 0.89452 0.89602 0.89667 0.89528 0.89568 0.89607 0.89467 0.89722
23 0.0000 30.0000 0.0000 0.0000 0.0000 68.35787 58.25923 53.71709 0.83246 0.79610 0.75247 0.70785 0.67789 0.66615 0.66948 0.68092 0.68355 0.66367 0.62027 0.55826 0.50362 0.45634 0.43033 0.41970 0.42988 0.45854 0.50552 0.56769 0.64062 0.71426 0.77474 0.82309 0.85536 0.87594 0.88573 0.89309 0.89175 0.89295 0.89645 0.89702 0.89646 0.89864 0.89730 0.89412
24 0.0000 40.0000 0.0000 0.0000 0.0000 64.33552 51.87679 49.21608 0.82115 0.77741 0.72336 0.67202 0.63250 0.61554 0.61911 0.63196 0.63475 0.60989 0.55777 0.48894 0.42373 0.37417 0.34421 0.33252 0.34223 0.37305 0.42687 0.49564 0.58165 0.66943 0.74182 0.80512 0.84689 0.87100 0.88427 0.88696 0.89352 0.89215 0.89395 0.89562 0.89684 0.89622 0.89773 0.89367
25 0.0000 50.0000 0.0000 0.0000 0.0000 60.88234 46.60525 45.18965 0.81572 0.76234 0.69819 0.63690 0.59271 0.57244 0.57226 0.58867 0.58777 0.56072 0.50128 0.42604 0.35526 0.30426 0.27370 0.26306 0.27389 0.30525 0.35986 0.43653 0.53108 0.62758 0.71818 0.78662 0.83676 0.86333 0.88298 0.89135 0.89134 0.89609 0.89609 0.89724 0.89633 0.89542 0.89387 0.89552
26 0.0000 60.0000 0.0000 0.0000 0.0000 57.79433 42.10025 41.61341 0.80728 0.74564 0.67413 0.60257 0.55369 0.53061 0.53294 0.54367 0.54745 0.51493 0.45257 0.37129 0.29940 0.24840 0.21704 0.20751 0.21683 0.24956 0.30216 0.38131 0.48018 0.58866 0.68718 0.76922 0.82633 0.86405 0.88241 0.88743 0.89325 0.89385 0.89185 0.89365 0.89509 0.89465 0.89526 0.89719
27 0.0000 70.0000 0.0000 0.0000 0.0000 55.01610 38.25855 38.35317 0.79975 0.73303 0.65152 0.57503 0.51964 0.49269 0.49205 0.50813 0.50892 0.47509 0.40755 0.32465 0.25208 0.20129 0.17190 0.16295 0.17189 0.20216 0.25440 0.33496 0.43712 0.55445 0.66415 0.75208 0.81647 0.85651 0.87505 0.88648 0.89319 0.89065 0.89105 0.89543 0.89444 0.89209 0.89380 0.89624
28 0.0000 80.0000 0.0000 0.0000 0.0000 52.51199 34.95816 35.35716 0.79129 0.71649 0.63215 0.54730 0.48550 0.45804 0.45892 0.47237 0.47286 0.43907 0.36774 0.28330 0.21113 0.16245 0.13616 0.12693 0.13569 0.16333 0.21410 0.29371 0.39960 0.52002 0.63976 0.73810 0.80989 0.85402 0.87255 0.88603 0.89261 0.89600 0.89354 0.89226 0.89715 0.89433 0.89461 0.89487
29 0.0000 90.0000 0.0000 0.0000 0.0000 50.31177 32.10842 32.66574 0.78296 0.70654 0.60783 0.52150 0.45651 0.42515 0.42588 0.43914 0.44140 0.40400 0.32987 0.24653 0.17705 0.13110 0.10619 0.09844 0.10632 0.13130 0.17992 0.25699 0.36408 0.49165 0.61741 0.72205 0.79696 0.84610 0.88017 0.88555 0.89224 0.89330 0.89673 0.89587 0.89731 0.89579 0.89481 0.89937
30 0.0000 100.0000 0.0000 0.0000 0.0000 48.26776 29.70301 30.13266 0.77720 0.69248 0.59092 0.49460 0.42626 0.39555 0.39442 0.40911 0.40997 0.37234 0.29629 0.21464 0.14760 0.10533 0.08282 0.07575 0.08317 0.10551 0.14983 0.22477 0.33052 0.46249 0.59173 0.70552 0.78883 0.84182 0.87161 0.88310 0.88873 0.89176 0.89539 0.89665 0.89132 0.89561 0.89733 0.89527
31 0.0000 0.0000 0.0000 0.0000 0.0000 86.16195 89.52640 73.05506 0.86310 0.85840 0.85667 0.85767 0.86207 0.87358 0.88480 0.88863 0.89241 0.89133 0.89348 0.89589 0.89588 0.89497 0.89137 0.89449 0.89637 0.90034 0.89593 0.89559 0.89778 0.89488 0.89511 0.89635 0.89642 0.89683 0.89703 0.89614 0.89460 0.89508 0.89650 0.89472 0.89393 0.89595 0.89070 0.89694
32 0.0000 0.0000 10.0000 0.0000 0.0000 83.03044 87.09126 56.09123 0.78083 0.73653 0.69615 0.66420 0.64567 0.63560 0.64036 0.65207 0.67149 0.69734 0.72369 0.75902 0.78653 0.81554 0.84045 0.86388 0.87809 0.88687 0.89178 0.89773 0.89639 0.89728 0.89575 0.89338 0.89496 0.89380 0.89578 0.89598 0.89881 0.89340 0.89731 0.89505 0.89620 0.89386 0.89896 0.89600
33 0.0000 0.0000 20.0000 0.0000 0.0000 80.97971 85.30273 45.01908 0.71974 0.65369 0.58788 0.53675 0.50343 0.48633 0.48591 0.50257 0.52907 0.56364 0.60875 0.65426 0.70392 0.75605 0.80314 0.83998 0.86619 0.88391 0.89194 0.89378 0.89141 0.89439 0.89074 0.89220 0.89491 0.89639 0.89760 0.89604 0.89794 0.89803 0.89370 0.89452 0.89571 0.89343 0.89547 0.89417
34 0.0000 0.0000 30.0000 0.0000 0.0000 79.41812 83.79595 36.49147 0.66335 0.57863 0.50065 0.43539 0.39475 0.37453 0.37380 0.38881 0.41804 0.46238 0.51419 0.57375 0.63885 0.70512 0.76371 0.81662 0.85464 0.87721 0.88875 0.89387 0.89305 0.89562 0.89489 0.89623 0.89853 0.89405 0.89666 0.89451 0.89514 0.89417 0.89545 0.89625 0.89180 0.89857 0.89781 0.89883
35 0.0000 0.0000 40.0000 0.0000 0.0000 78.16850 82.46091 29.76539 0.61731 0.51693 0.42519 0.35644 0.31048 0.28940 0.28607 0.30213 0.33302 0.37918 0.43594 0.50133 0.57582 0.65723 0.73408 0.79637 0.84564 0.87352 0.88714 0.89323 0.89499 0.89381 0.89628 0.89219 0.89570 0.89690 0.89214 0.89887 0.89364 0.89731 0.89480 0.89552 0.89409 0.89537 0.89525 0.89428
36 0.0000 0.0000 50.0000 0.0000 0.0000 77.12710 81.25188 24.34715 0.57400 0.46136 0.36318 0.28946 0.24424 0.22187 0.21890 0.23357 0.26413 0.31014 0.36869 0.44216 0.52455 0.61400 0.70430 0.77977 0.83470 0.86541 0.88438 0.89369 0.89532 0.89569 0.89602 0.89466 0.89651 0.89193 0.89348 0.89279 0.89125 0.89642 0.89464 0.89530 0.89531 0.89424 0.89646 0.89403
37 0.0000 0.0000 60.0000 0.0000 0.0000 76.28619 80.16305 19.92489 0.53307 0.41164 0.30892 0.23609 0.19129 0.16919 0.16631 0.17898 0.20910 0.25229 0.31340 0.38847 0.47771 0.57668 0.67490 0.76030 0.82437 0.86167 0.87902 0.89455 0.89325 0.89717 0.89534 0.89445 0.89519 0.89488 0.89433 0.89479 0.89401 0.89590 0.89562 0.89576 0.89270 0.89594 0.89831 0.89332
38 0.0000 0.0000 70.0000 0.0000 0.0000 75.58117 79.15074 16.41149 0.49608 0.36927 0.26372 0.19174 0.14815 0.12734 0.12549 0.13721 0.16341 0.20640 0.26532 0.34043 0.43193 0.54009 0.64855 0.74143 0.81113 0.85955 0.88056 0.88923 0.89522 0.89489 0.89290 0.89537 0.89949 0.89397 0.89683 0.89505 0.89622 0.89606 0.89694 0.89745 0.89503 0.89810 0.89607 0.89323
39 0.0000 0.0000 80.0000 0.0000 0.0000 75.03959 78.25760 13.49597 0.46463 0.32955 0.22406 0.15471 0.11469 0.09652 0.09371 0.10407 0.12830 0.16802 0.22478 0.30030 0.39546 0.50551 0.62398 0.72863 0.80656 0.85222 0.87842 0.88486 0.88955 0.89513 0.89620 0.89527 0.89587 0.89673 0.89406 0.89668 0.89710 0.89428 0.89713 0.89453 0.89567 0.89551 0.89532 0.89142
40 0.0000 0.0000 90.0000 0.0000 0.0000 74.57185 77.35949 11.14129 0.43184 0.29359 0.19065 0.12420 0.08794 0.07161 0.06923 0.07827 0.09973 0.13600 0.18937 0.26290 0.35952 0.47513 0.59926 0.70967 0.79660 0.84549 0.87811 0.88864 0.89544 0.89531 0.89707 0.89783 0.89324 0.89296 0.89690 0.89620 0.89378 0.89425 0.89418 0.89638 0.89325 0.89281 0.89449 0.89375
41 0.0000 0.0000 100.0000 0.0000 0.0000 74.19918 76.58496 9.23116 0.40145 0.26316 0.16104 0.09954 0.06712 0.05305 0.05084 0.05830 0.07696 0.10957 0.15963 0.23093 0.32851 0.44430 0.57595 0.69410 0.78750 0.84348 0.87421 0.88935 0.89075 0.89371 0.89327 0.89576 0.89617 0.89649 0.89251 0.89270 0.89578 0.89562 0.89359 0.89561 0.89581 0.89449 0.90056 0.89380
42 0.0000 0.0000 0.0000 0.0000 0.0000 86.14281 89.54101 73.06980 0.86585 0.85760 0.85526 0.85594 0.86329 0.87193 0.87970 0.88781 0.89239 0.89368 0.89584 0.89465 0.89389 0.89403 0.89370 0.89447 0.89464 0.89596 0.89463 0.89726 0.89679 0.89511 0.89316 0.89538 0.89571 0.89656 0.89667 0.89625 0.89617 0.89670 0.89856 0.89556 0.89471 0.89864 0.89659 0.89388
43 0.0000 0.0000 0.0000 10.0000 0.0000 60.60105 63.04241 52.01317 0.61982 0.61391 0.61383 0.61220 0.61653 0.62133 0.62576 0.63269 0.63111 0.63576 0.63468 0.63635 0.63417 0.63549 0.63504 0.63461 0.63277 0.63212 0.63164 0.62746 0.63200 0.62873 0.62798 0.62802 0.62777 0.62645 0.62477 0.62455 0.62612 0.62415 0.62291 0.62174 0.62090 0.62096 0.62139 0.62036
44 0.0000 0.0000 0.0000 20.0000 0.0000 44.82998 46.71115 38.87842 0.46529 0.46138 0.45823 0.46038 0.46361 0.46696 0.47156 0.47208 0.47550 0.47307 0.47407 0.47280 0.47247 0.47208 0.46990 0.46785 0.46793 0.46739 0.46621 0.46769 0.46488 0.46367 0.46419 0.46294 0.46144 0.46045 0.46052 0.45952 0.45904 0.45800 0.45565 0.45660 0.45346 0.45272 0.45177 0.45210
45 0.0000 0.0000 0.0000 30.0000 0.0000 33.33108 34.78512 29.23957 0.35498 0.34987 0.34793 0.34767 0.35038 0.35051 0.35435 0.35610 0.35738 0.35622 0.35545 0.35454 0.35266 0.35266 0.35191 0.35120 0.35041 0.34790 0.34715 0.34717 0.34501 0.34626 0.34296 0.34291 0.34150 0.34159 0.33967 0.33938 0.33811 0.33704 0.33658 0.33629 0.33491 0.33351 0.33187 0.33133
46 0.0000 0.0000 0.0000 40.0000 0.0000 24.75836 25.87935 21.96828 0.26681 0.26520 0.26229 0.26286 0.26415 0.26613 0.26703 0.26689 0.26762 0.26707 0.26583 0.26454 0.26524 0.26347 0.26295 0.26186 0.26046 0.25953 0.25923 0.25831 0.25730 0.25579 0.25501 0.25366 0.25196 0.25239 0.25030 0.24973 0.24843 0.24824 0.24800 0.24692 0.24515 0.24505 0.24273 0.24251
47 0.0000 0.0000 0.0000 50.0000 0.0000 18.23418 19.10547 16.41703 0.20137 0.19907 0.19787 0.19660 0.19828 0.19909 0.19980 0.19997 0.20024 0.19989 0.19859 0.19714 0.19668 0.19590 0.19420 0.19419 0.19289 0.19195 0.19162 0.18997 0.18893 0.18853 0.18713 0.18689 0.18539 0.18462 0.18415 0.18281 0.18177 0.18157 0.17976 0.17916 0.17889 0.17775 0.17725 0.17585
48 0.0000 0.0000 0.0000 60.0000 0.0000 13.36229 13.98763 12.18805 0.15116 0.14887 0.14807 0.14747 0.14776 0.14812 0.14841 0.14853 0.14815 0.14784 0.14681 0.14616 0.14483 0.14461 0.14361 0.14266 0.14174 0.14102 0.13991 0.13909 0.13883 0.13698 0.13699 0.13570 0.13526 0.13403 0.13343 0.13322 0.13170 0.13100 0.13049 0.12959 0.12870 0.12758 0.12718 0.12643
49 0.0000 0.0000 0.0000 70.0000 0.0000 9.74176 10.14904 8.95470 0.11227 0.11053 0.10895 0.10887 0.10904 0.10929 0.10935 0.10967 0.10864 0.10809 0.10817 0.10704 0.10640 0.10545 0.10473 0.10450 0.10360 0.10277 0.10171 0.10103 0.09985 0.09928 0.09882 0.09815 0.09738 0.09680 0.09630 0.09541 0.09448 0.09406 0.09330 0.09281 0.09204 0.09120 0.09072 0.09036
50 0.0000 0.0000 0.0000 80.0000 0.0000 6.98765 7.30304 6.51099 0.08293 0.08145 0.08017 0.07981 0.07975 0.07963 0.07982 0.07954 0.07901 0.07887 0.07822 0.07798 0.07713 0.07626 0.07557 0.07493 0.07478 0.07393 0.07308 0.07230 0.07207 0.07119 0.07046 0.07013 0.06949 0.06892 0.06833 0.06770 0.06717 0.06651 0.06617 0.06529 0.06505 0.06438 0.06366 0.06342
51 0.0000 0.0000 0.0000 90.0000 0.0000 4.93873 5.21993 4.69304 0.06018 0.05924 0.05864 0.05791 0.05773 0.05761 0.05753 0.05742 0.05734 0.05693 0.05619 0.05591 0.05535 0.05461 0.05406 0.05357 0.05296 0.05239 0.05204 0.05146 0.05076 0.05038 0.04996 0.04974 0.04909 0.04856 0.04805 0.04765 0.04710 0.04659 0.04643 0.04563 0.04533 0.04511 0.04456 0.04418
52 0.0000 0.0000 0.0000 100.0000 0.0000 3.50687 3.61482 3.38622 0.04333 0.04285 0.04216 0.04160 0.04176 0.04163 0.04132 0.04120 0.04096 0.04045 0.04013 0.03980 0.03928 0.03884 0.03842 0.03800 0.03758 0.03705 0.03688 0.03635 0.03592 0.03546 0.03503 0.03476 0.03425 0.03387 0.03355 0.03330 0.03283 0.03253 0.03207 0.03174 0.03138 0.03110 0.03067 0.03040
53 0.0000 0.0000 0.0000 0.0000 0.0000 86.15539 89.51857 73.08334 0.86162 0.85880 0.85636 0.85834 0.86220 0.87040 0.87834 0.88815 0.89048 0.89374 0.89628 0.89878 0.89549 0.89521 0.89418 0.89734 0.89390 0.89878 0.89479 0.89474 0.89590 0.89669 0.89524 0.89592 0.89295 0.89634 0.89408 0.89508 0.89469 0.89610 0.89612 0.89456 0.89748 0.89282 0.88924 0.89575
54 0.0000 0.0000 0.0000 0.0000 10.0000 72.78307 70.55342 66.24955 0.86726 0.85286 0.85175 0.85205 0.85278 0.85206 0.84523 0.83055 0.80741 0.78107 0.74988 0.72235 0.69874 0.68159 0.66789 0.66336 0.66098 0.66401 0.66881 0.68235 0.69778 0.72107 0.74430 0.77110 0.79652 0.82396 0.84322 0.86345 0.87494 0.88071 0.88783 0.89196 0.89594 0.89504 0.89510 0.89737
55 0.0000 0.0000 0.0000 0.0000 20.0000 63.62394 57.94315 61.31564 0.86178 0.85381 0.84878 0.84859 0.84245 0.83936 0.81812 0.78854 0.74637 0.69692 0.64877 0.60510 0.57118 0.54331 0.52221 0.51484 0.51219 0.51479 0.52421 0.54311 0.56650 0.59987 0.63799 0.68168 0.72581 0.76533 0.80470 0.83487 0.85665 0.87341 0.88353 0.88556 0.89280 0.89749 0.89506 0.89559
56 0.0000 0.0000 0.0000 0.0000 30.0000 56.25306 48.15519 57.16524 0.86060 0.85565 0.85057 0.85018 0.83938 0.82376 0.79297 0.74858 0.69236 0.62745 0.56668 0.51278 0.46753 0.43721 0.41424 0.40246 0.39741 0.40074 0.41345 0.43281 0.46356 0.50297 0.54964 0.60577 0.66471 0.72183 0.77052 0.81029 0.83988 0.86036 0.87715 0.88604 0.89106 0.89369 0.89630 0.89466
57 0.0000 0.0000 0.0000 0.0000 40.0000 50.10503 40.30201 53.55615 0.86325 0.85639 0.84588 0.84083 0.83005 0.80589 0.76752 0.71197 0.64438 0.56700 0.49357 0.43191 0.38441 0.35088 0.32832 0.31433 0.30960 0.31375 0.32541 0.34680 0.37835 0.42184 0.47744 0.54023 0.60871 0.67774 0.73547 0.78864 0.82498 0.85131 0.87441 0.88076 0.88790 0.89179 0.89543 0.89447
58 0.0000 0.0000 0.0000 0.0000 50.0000 44.95180 33.85888 50.33758 0.86424 0.85102 0.84592 0.83545 0.82276 0.79513 0.74715 0.68237 0.59948 0.51395 0.43286 0.36620 0.31551 0.28003 0.25664 0.24496 0.24057 0.24383 0.25653 0.27798 0.31010 0.35641 0.41453 0.48385 0.55992 0.63796 0.70721 0.76879 0.81480 0.84663 0.86737 0.87700 0.88850 0.89124 0.89695 0.89567
59 0.0000 0.0000 0.0000 0.0000 60.0000 40.51738 28.63143 47.48273 0.86187 0.84985 0.84194 0.83252 0.81521 0.78370 0.72905 0.65045 0.55681 0.46377 0.37982 0.31069 0.25997 0.22447 0.20247 0.19064 0.18712 0.18921 0.20105 0.22319 0.25387 0.30040 0.35960 0.43101 0.51356 0.59991 0.67967 0.74716 0.79891 0.83668 0.86107 0.87388 0.88946 0.89455 0.89645 0.89232
60 0.0000 0.0000 0.0000 0.0000 70.0000 36.66575 24.24363 44.86993 0.86244 0.84954 0.84144 0.83363 0.80724 0.76890 0.70971 0.62412 0.52153 0.42067 0.33179 0.26124 0.21245 0.17871 0.15821 0.14676 0.14237 0.14602 0.15661 0.17666 0.20739 0.25177 0.31161 0.38719 0.47425 0.56432 0.65161 0.72536 0.78464 0.83123 0.85737 0.87496 0.88451 0.88607 0.89185 0.89642
61 0.0000 0.0000 0.0000 0.0000 80.0000 33.40576 20.65191 42.50521 0.86256 0.85057 0.84242 0.82610 0.80489 0.75868 0.69200 0.59490 0.48628 0.38121 0.29070 0.22040 0.17314 0.14168 0.12250 0.11234 0.10883 0.11179 0.12161 0.13938 0.16891 0.21048 0.26950 0.34564 0.43674 0.53161 0.62962 0.71021 0.77386 0.81957 0.85259 0.87061 0.88266 0.89208 0.89245 0.89540
62 0.0000 0.0000 0.0000 0.0000 90.0000 30.52945 17.64919 40.35166 0.86213 0.85311 0.83871 0.82655 0.80044 0.74706 0.67297 0.56993 0.45576 0.34515 0.25378 0.18656 0.14077 0.11190 0.09452 0.08522 0.08287 0.08513 0.09356 0.10950 0.13657 0.17620 0.23429 0.30969 0.40371 0.50285 0.60391 0.69029 0.76197 0.81720 0.84748 0.86996 0.87951 0.88663 0.89251 0.89520
63 0.0000 0.0000 0.0000 0.0000 100.0000 28.04418 15.18567 38.40129 0.86188 0.84939 0.83792 0.82244 0.78960 0.73731 0.65468 0.54514 0.42489 0.31310 0.22213 0.15707 0.11393 0.08785 0.07275 0.06482 0.06195 0.06423 0.07157 0.08604 0.10963 0.14751 0.20233 0.27633 0.36965 0.47571 0.58015 0.67441 0.74927 0.80557 0.84337 0.86757 0.88240 0.88646 0.89415 0.89454
64 0.0000 0.0000 0.0000 0.0000 0.0000 86.10723 89.51605 73.10303 0.86253 0.85972 0.85441 0.86016 0.86465 0.87392 0.88134 0.88823 0.88795 0.89408 0.89567 0.89541 0.89337 0.89891 0.89908 0.89410 0.89417 0.89351 0.89765 0.89412 0.89359 0.89286 0.89523 0.89466 0.89221 0.89461 0.89604 0.89344 0.89494 0.89633 0.89647 0.89645 0.89351 0.89643 0.89445 0.89525
65 9.0000 7.5000 7.2000 0.0000 0.0000 63.55715 65.58717 54.06870 0.79201 0.74811 0.70487 0.66897 0.64337 0.63195 0.63837 0.64746 0.66247 0.67004 0.67854 0.67250 0.66507 0.65955 0.65292 0.64750 0.64550 0.64761 0.64981 0.65157 0.65931 0.66393 0.66393 0.66659 0.66159 0.66325 0.66423 0.66753 0.67595 0.68543 0.69801 0.71508 0.73544 0.75829 0.77970 0.80469
