assets/charts/knut/rgb/widegamut/i1pro_a4_484p_1page_portrait/chart.ti1
CTI1   

DESCRIPTOR "Argyll Calibration Target chart information 1"
ORIGINATOR "ChromIQ"
APPROX_WHITE_POINT "95.050000 100.000000 108.900000"
COLOR_REP "iRGB"
WHITE_COLOR_PATCHES "2"
BLACK_COLOR_PATCHES "2"
CREATED "Tue Jun 16 15:14:35 2026"

NUMBER_OF_FIELDS 7
BEGIN_DATA_FORMAT
SAMPLE_ID RGB_R RGB_G RGB_B XYZ_X XYZ_Y XYZ_Z
END_DATA_FORMAT

NUMBER_OF_SETS 484
BEGIN_DATA
1 0.0000 0.0000 0.0000 0.9505 1.0000 1.0890
2 0.0000 0.0000 20.0000 1.5421 1.2366 4.2041
3 0.0000 0.0000 40.0000 3.3248 1.9497 13.5918
4 0.0000 0.0000 60.0000 6.6428 3.2769 31.0641
5 0.0000 0.0000 80.0000 11.7406 5.3160 57.9089
6 0.0000 0.0000 100.0000 18.8200 8.1478 95.1885
7 0.0000 20.0000 0.0000 2.1225 3.3440 1.4797
8 0.0000 20.0000 20.0000 2.7141 3.5806 4.5948
9 0.0000 20.0000 40.0000 4.4968 4.2937 13.9825
10 0.0000 20.0000 60.0000 7.8148 5.6209 31.4548
11 0.0000 20.0000 80.0000 12.9126 7.6600 58.2995
12 0.0000 20.0000 100.0000 19.9920 10.4918 95.5792
13 0.0000 40.0000 0.0000 5.6544 10.4077 2.6570
14 0.0000 40.0000 20.0000 6.2459 10.6443 5.7721
15 0.0000 40.0000 40.0000 8.0286 11.3574 15.1598
16 0.0000 40.0000 60.0000 11.3466 12.6846 32.6320
17 0.0000 40.0000 80.0000 16.4445 14.7238 59.4768
18 0.0000 40.0000 100.0000 23.5239 17.5555 96.7565
19 0.0000 60.0000 0.0000 12.2278 23.5546 4.8481
20 0.0000 60.0000 20.0000 12.8194 23.7913 7.9632
21 0.0000 60.0000 40.0000 14.6021 24.5044 17.3509
22 0.0000 60.0000 60.0000 17.9201 25.8315 34.8232
23 0.0000 60.0000 80.0000 23.0179 27.8707 61.6680
24 0.0000 60.0000 100.0000 30.0973 30.7024 98.9476
25 0.0000 80.0000 0.0000 22.3274 43.7539 8.2146
26 0.0000 80.0000 20.0000 22.9190 43.9905 11.3298
27 0.0000 80.0000 40.0000 24.7017 44.7036 20.7175
28 0.0000 80.0000 60.0000 28.0197 46.0308 38.1897
29 0.0000 80.0000 80.0000 33.1175 48.0699 65.0345
30 0.0000 80.0000 100.0000 40.1969 50.9017 102.3141
31 0.0000 100.0000 0.0000 36.3529 71.8048 12.8898
32 0.0000 100.0000 20.0000 36.9445 72.0414 16.0049
33 0.0000 100.0000 40.0000 38.7272 72.7545 25.3926
34 0.0000 100.0000 60.0000 42.0452 74.0817 42.8649
35 0.0000 100.0000 80.0000 47.1430 76.1208 69.7097
36 0.0000 100.0000 100.0000 54.2224 78.9526 106.9893
37 20.0000 0.0000 0.0000 2.3021 1.6968 1.1523
38 20.0000 0.0000 20.0000 2.8937 1.9334 4.2674
39 20.0000 0.0000 40.0000 4.6764 2.6465 13.6551
40 20.0000 0.0000 60.0000 7.9944 3.9737 31.1273
41 20.0000 0.0000 80.0000 13.0922 6.0128 57.9721
42 20.0000 0.0000 100.0000 20.1716 8.8446 95.2518
43 20.0000 20.0000 0.0000 3.4741 4.0407 1.5429
44 20.0000 20.0000 20.0000 4.0656 4.2774 4.6581
45 20.0000 20.0000 40.0000 5.8484 4.9905 14.0458
46 20.0000 20.0000 60.0000 9.1663 6.3177 31.5180
47 20.0000 20.0000 80.0000 14.2642 8.3568 58.3628
48 20.0000 20.0000 100.0000 21.3436 11.1885 95.6424
49 20.0000 40.0000 0.0000 7.0059 11.1045 2.7202
50 20.0000 40.0000 20.0000 7.5975 11.3411 5.8353
51 20.0000 40.0000 40.0000 9.3802 12.0542 15.2230
52 20.0000 40.0000 60.0000 12.6982 13.3814 32.6953
53 20.0000 40.0000 80.0000 17.7960 15.4205 59.5401
54 20.0000 40.0000 100.0000 24.8754 18.2523 96.8197
55 20.0000 60.0000 0.0000 13.5794 24.2514 4.9114
56 20.0000 60.0000 20.0000 14.1710 24.4880 8.0265
57 20.0000 60.0000 40.0000 15.9537 25.2011 17.4142
58 20.0000 60.0000 60.0000 19.2717 26.5283 34.8865
59 20.0000 60.0000 80.0000 24.3695 28.5674 61.7312
60 20.0000 60.0000 100.0000 31.4489 31.3992 99.0109
61 20.0000 80.0000 0.0000 23.6790 44.4506 8.2779
62 20.0000 80.0000 20.0000 24.2706 44.6873 11.3930
63 20.0000 80.0000 40.0000 26.0533 45.4004 20.7807
64 20.0000 80.0000 60.0000 29.3713 46.7276 38.2530
65 20.0000 80.0000 80.0000 34.4691 48.7667 65.0977
66 20.0000 80.0000 100.0000 41.5485 51.5984 102.3774
67 20.0000 100.0000 0.0000 37.7045 72.5016 12.9531
68 20.0000 100.0000 20.0000 38.2961 72.7382 16.0682
69 20.0000 100.0000 40.0000 40.0788 73.4513 25.4559
70 20.0000 100.0000 60.0000 43.3968 74.7785 42.9281
71 20.0000 100.0000 80.0000 48.4946 76.8176 69.7729
72 20.0000 100.0000 100.0000 55.5740 79.6494 107.0526
73 40.0000 0.0000 0.0000 6.3752 3.7965 1.3429
74 40.0000 0.0000 20.0000 6.9668 4.0332 4.4580
75 40.0000 0.0000 40.0000 8.7495 4.7462 13.8457
76 40.0000 0.0000 60.0000 12.0675 6.0734 31.3180
77 40.0000 0.0000 80.0000 17.1653 8.1126 58.1627
78 40.0000 0.0000 100.0000 24.2447 10.9443 95.4424
79 40.0000 20.0000 0.0000 7.5472 6.1405 1.7335
80 40.0000 20.0000 20.0000 8.1387 6.3771 4.8487
81 40.0000 20.0000 40.0000 9.9215 7.0902 14.2364
82 40.0000 20.0000 60.0000 13.2395 8.4174 31.7086
83 40.0000 20.0000 80.0000 18.3373 10.4565 58.5534
84 40.0000 20.0000 100.0000 25.4167 13.2883 95.8330
85 40.0000 40.0000 0.0000 11.0791 13.2042 2.9108
86 40.0000 40.0000 20.0000 11.6706 13.4409 6.0260
87 40.0000 40.0000 40.0000 13.4533 14.1540 15.4137
88 40.0000 40.0000 60.0000 16.7713 15.4812 32.8859
89 40.0000 40.0000 80.0000 21.8691 17.5203 59.7307
90 40.0000 40.0000 100.0000 28.9486 20.3520 97.0103
91 40.0000 60.0000 0.0000 17.6525 26.3512 5.1020
92 40.0000 60.0000 20.0000 18.2441 26.5878 8.2171
93 40.0000 60.0000 40.0000 20.0268 27.3009 17.6048
94 40.0000 60.0000 60.0000 23.3448 28.6281 35.0771
95 40.0000 60.0000 80.0000 28.4426 30.6672 61.9218
96 40.0000 60.0000 100.0000 35.5220 33.4990 99.2015
97 40.0000 80.0000 0.0000 27.7521 46.5504 8.4685
98 40.0000 80.0000 20.0000 28.3437 46.7870 11.5837
99 40.0000 80.0000 40.0000 30.1264 47.5001 20.9714
100 40.0000 80.0000 60.0000 33.4444 48.8273 38.4436
101 40.0000 80.0000 80.0000 38.5422 50.8664 65.2884
102 40.0000 80.0000 100.0000 45.6216 53.6982 102.5680
103 40.0000 100.0000 0.0000 41.7776 74.6013 13.1437
104 40.0000 100.0000 20.0000 42.3692 74.8380 16.2588
105 40.0000 100.0000 40.0000 44.1519 75.5510 25.6465
106 40.0000 100.0000 60.0000 47.4699 76.8782 43.1188
107 40.0000 100.0000 80.0000 52.5677 78.9174 69.9635
108 40.0000 100.0000 100.0000 59.6471 81.7491 107.2432
109 60.0000 0.0000 0.0000 13.9560 7.7046 1.6976
110 60.0000 0.0000 20.0000 14.5476 7.9412 4.8128
111 60.0000 0.0000 40.0000 16.3303 8.6543 14.2005
112 60.0000 0.0000 60.0000 19.6483 9.9815 31.6727
113 60.0000 0.0000 80.0000 24.7461 12.0206 58.5175
114 60.0000 0.0000 100.0000 31.8255 14.8524 95.7971
115 60.0000 20.0000 0.0000 15.1280 10.0486 2.0883
116 60.0000 20.0000 20.0000 15.7196 10.2852 5.2035
117 60.0000 20.0000 40.0000 17.5023 10.9983 14.5912
118 60.0000 20.0000 60.0000 20.8203 12.3255 32.0634
119 60.0000 20.0000 80.0000 25.9181 14.3646 58.9082
120 60.0000 20.0000 100.0000 32.9975 17.1964 96.1878
121 60.0000 40.0000 0.0000 18.6599 17.1123 3.2656
122 60.0000 40.0000 20.0000 19.2514 17.3489 6.3807
123 60.0000 40.0000 40.0000 21.0341 18.0620 15.7684
124 60.0000 40.0000 60.0000 24.3521 19.3892 33.2407
125 60.0000 40.0000 80.0000 29.4500 21.4283 60.0855
126 60.0000 40.0000 100.0000 36.5294 24.2601 97.3651
127 60.0000 60.0000 0.0000 25.2333 30.2592 5.4568
128 60.0000 60.0000 20.0000 25.8249 30.4958 8.5719
129 60.0000 60.0000 40.0000 27.6076 31.2089 17.9596
130 60.0000 60.0000 60.0000 30.9256 32.5361 35.4318
131 60.0000 60.0000 80.0000 36.0234 34.5753 62.2766
132 60.0000 60.0000 100.0000 43.1028 37.4070 99.5563
133 60.0000 80.0000 0.0000 35.3329 50.4585 8.8233
134 60.0000 80.0000 20.0000 35.9245 50.6951 11.9384
135 60.0000 80.0000 40.0000 37.7072 51.4082 21.3261
136 60.0000 80.0000 60.0000 41.0252 52.7354 38.7984
137 60.0000 80.0000 80.0000 46.1230 54.7745 65.6431
138 60.0000 80.0000 100.0000 53.2024 57.6063 102.9228
139 60.0000 100.0000 0.0000 49.3584 78.5094 13.4984
140 60.0000 100.0000 20.0000 49.9500 78.7460 16.6136
141 60.0000 100.0000 40.0000 51.7327 79.4591 26.0013
142 60.0000 100.0000 60.0000 55.0507 80.7863 43.4735
143 60.0000 100.0000 80.0000 60.1485 82.8254 70.3183
144 60.0000 100.0000 100.0000 67.2279 85.6572 107.5979
145 80.0000 0.0000 0.0000 25.6033 13.7090 2.2427
146 80.0000 0.0000 20.0000 26.1949 13.9456 5.3579
147 80.0000 0.0000 40.0000 27.9776 14.6587 14.7456
148 80.0000 0.0000 60.0000 31.2956 15.9859 32.2178
149 80.0000 0.0000 80.0000 36.3934 18.0250 59.0626
150 80.0000 0.0000 100.0000 43.4728 20.8568 96.3422
151 80.0000 20.0000 0.0000 26.7753 16.0530 2.6334
152 80.0000 20.0000 20.0000 27.3669 16.2896 5.7485
153 80.0000 20.0000 40.0000 29.1496 17.0027 15.1362
154 80.0000 20.0000 60.0000 32.4676 18.3299 32.6085
155 80.0000 20.0000 80.0000 37.5654 20.3690 59.4532
156 80.0000 20.0000 100.0000 44.6448 23.2008 96.7329
157 80.0000 40.0000 0.0000 30.3072 23.1167 3.8107
158 80.0000 40.0000 20.0000 30.8987 23.3533 6.9258
159 80.0000 40.0000 40.0000 32.6815 24.0664 16.3135
160 80.0000 40.0000 60.0000 35.9995 25.3936 33.7858
161 80.0000 40.0000 80.0000 41.0973 27.4327 60.6305
162 80.0000 40.0000 100.0000 48.1767 30.2645 97.9102
163 80.0000 60.0000 0.0000 36.8806 36.2636 6.0018
164 80.0000 60.0000 20.0000 37.4722 36.5003 9.1170
165 80.0000 60.0000 40.0000 39.2549 37.2134 18.5047
166 80.0000 60.0000 60.0000 42.5729 38.5405 35.9769
167 80.0000 60.0000 80.0000 47.6707 40.5797 62.8217
168 80.0000 60.0000 100.0000 54.7501 43.4114 100.1013
169 80.0000 80.0000 0.0000 46.9803 56.4629 9.3684
170 80.0000 80.0000 20.0000 47.5718 56.6995 12.4835
171 80.0000 80.0000 40.0000 49.3545 57.4126 21.8712
172 80.0000 80.0000 60.0000 52.6725 58.7398 39.3435
173 80.0000 80.0000 80.0000 57.7704 60.7789 66.1882
174 80.0000 80.0000 100.0000 64.8498 63.6107 103.4679
175 80.0000 100.0000 0.0000 61.0057 84.5138 14.0435
176 80.0000 100.0000 20.0000 61.5973 84.7504 17.1587
177 80.0000 100.0000 40.0000 63.3800 85.4635 26.5464
178 80.0000 100.0000 60.0000 66.6980 86.7907 44.0186
179 80.0000 100.0000 80.0000 71.7958 88.8298 70.8634
180 80.0000 100.0000 100.0000 78.8752 91.6616 108.1430
181 100.0000 0.0000 0.0000 41.7781 22.0474 2.9997
182 100.0000 0.0000 20.0000 42.3697 22.2840 6.1148
183 100.0000 0.0000 40.0000 44.1524 22.9971 15.5025
184 100.0000 0.0000 60.0000 47.4704 24.3243 32.9748
185 100.0000 0.0000 80.0000 52.5682 26.3634 59.8196
186 100.0000 0.0000 100.0000 59.6476 29.1952 97.0992
187 100.0000 20.0000 0.0000 42.9501 24.3914 3.3904
188 100.0000 20.0000 20.0000 43.5417 24.6280 6.5055
189 100.0000 20.0000 40.0000 45.3244 25.3411 15.8932
190 100.0000 20.0000 60.0000 48.6424 26.6683 33.3655
191 100.0000 20.0000 80.0000 53.7402 28.7074 60.2102
192 100.0000 20.0000 100.0000 60.8196 31.5392 97.4899
193 100.0000 40.0000 0.0000 46.4820 31.4551 4.5677
194 100.0000 40.0000 20.0000 47.0735 31.6917 7.6828
195 100.0000 40.0000 40.0000 48.8562 32.4048 17.0705
196 100.0000 40.0000 60.0000 52.1742 33.7320 34.5427
197 100.0000 40.0000 80.0000 57.2721 35.7712 61.3875
198 100.0000 40.0000 100.0000 64.3515 38.6029 98.6672
199 100.0000 60.0000 0.0000 53.0554 44.6020 6.7588
200 100.0000 60.0000 20.0000 53.6470 44.8387 9.8739
201 100.0000 60.0000 40.0000 55.4297 45.5518 19.2616
202 100.0000 60.0000 60.0000 58.7477 46.8789 36.7339
203 100.0000 60.0000 80.0000 63.8455 48.9181 63.5787
204 100.0000 60.0000 100.0000 70.9249 51.7498 100.8583
205 100.0000 80.0000 0.0000 63.1550 64.8013 10.1253
206 100.0000 80.0000 20.0000 63.7466 65.0379 13.2405
207 100.0000 80.0000 40.0000 65.5293 65.7510 22.6282
208 100.0000 80.0000 60.0000 68.8473 67.0782 40.1004
209 100.0000 80.0000 80.0000 73.9451 69.1173 66.9452
210 100.0000 80.0000 100.0000 81.0245 71.9491 104.2248
211 100.0000 100.0000 0.0000 77.1805 92.8522 14.8005
212 100.0000 100.0000 20.0000 77.7721 93.0888 17.9156
213 100.0000 100.0000 40.0000 79.5548 93.8019 27.3033
214 100.0000 100.0000 60.0000 82.8728 95.1291 44.7756
215 100.0000 100.0000 80.0000 87.9706 97.1682 71.6204
216 100.0000 100.0000 100.0000 95.0500 100.0000 108.9000
217 71.7316 63.0300 57.1276 37.9454 38.1413 33.0995
218 78.1700 66.9060 59.1518 44.2173 43.9617 36.0178
219 83.9016 71.0212 62.0963 50.9090 50.3605 40.1624
220 88.9391 75.3832 65.9938 57.9822 57.3651 45.7756
221 93.2539 79.9971 70.8734 65.3951 65.0028 53.1799
222 96.7828 84.8655 76.7612 73.1023 73.3011 62.7911
223 99.4270 89.9894 83.6815 81.0557 82.2874 75.1342
224 69.9704 63.7066 56.3088 37.0462 38.1413 32.3139
225 75.8804 67.8076 58.0702 42.9230 43.9617 34.9385
226 81.2781 72.0656 60.8480 49.2890 50.3605 38.8399
227 86.1783 76.4816 64.6807 56.1411 57.3651 44.2707
228 90.5595 81.0577 69.6008 63.4738 65.0028 51.5763
229 94.3691 85.7968 75.6359 71.2793 73.3011 61.2110
230 97.5238 90.7024 82.8109 79.5479 82.2874 73.7575
231 68.1392 55.5166 50.2397 31.5547 30.4520 25.4166
232 75.3035 58.9445 52.0405 37.4944 35.4581 27.6762
233 81.4775 62.7464 54.8112 43.7532 41.0015 31.0285
234 86.6784 66.9447 58.5879 50.2452 47.1098 35.7061
235 90.8624 71.5494 63.4036 56.8802 53.8102 42.0274
236 93.9344 76.5597 69.2887 63.5654 61.1302 50.4120
237 95.7433 81.9669 76.2719 70.2070 69.0971 61.3995
238 66.4590 56.2865 48.6657 30.6603 30.4520 24.1181
239 73.1070 59.9866 49.9591 36.1894 35.4581 25.8948
240 78.9530 63.9622 52.4068 42.1044 41.0015 28.8387
241 84.0198 68.2232 56.0570 48.3602 47.1098 33.1956
242 88.2709 72.7761 60.9497 54.9074 53.8102 39.3229
243 91.6196 77.6243 67.1177 61.6931 61.1302 47.7109
244 93.9254 82.7688 74.5908 68.6617 69.0971 59.0096
245 64.1411 49.8857 43.1136 26.3407 24.9609 18.9630
246 71.5357 53.1026 44.2307 31.7197 29.3401 20.3422
247 77.8465 56.7452 46.5368 37.3950 34.2227 22.7560
248 83.0998 60.8431 50.0837 43.2706 39.6362 26.4361
249 87.2415 65.4081 54.9148 49.2462 45.6079 31.7291
250 90.1509 70.4374 61.0673 55.2193 52.1654 39.1204
251 91.6299 75.9172 68.5758 61.0873 59.3359 49.2641
252 62.0415 50.8596 41.3588 25.3605 24.9609 17.7827
253 68.7928 54.4286 41.8981 30.2764 29.3401 18.7407
254 74.6929 58.2962 43.8342 35.5582 34.2227 20.7892
255 79.7755 62.4740 47.2381 41.1589 39.6362 24.1632
256 83.9966 66.9695 52.1608 47.0268 45.6079 29.2427
257 87.2462 71.7868 58.6380 53.1065 52.1654 36.5843
258 89.3413 76.9280 66.7004 59.3399 59.3359 46.9636
259 57.8997 40.2001 32.6256 19.2844 17.3288 11.4154
260 65.7790 42.8747 32.9822 23.9192 20.7461 12.0147
261 72.3964 46.1260 34.7453 28.8034 24.6099 13.4480
262 77.7806 50.0129 37.9920 33.8076 28.9474 15.9187
263 81.8543 54.5507 42.7790 38.7986 33.7860 19.7700
264 84.4501 59.7203 49.1480 43.6433 39.1531 25.5199
265 85.2890 65.4810 57.1388 48.2131 45.0762 33.9084
266 55.4767 41.4633 30.2370 18.3086 17.3288 10.2960
267 62.5965 44.6290 29.7694 22.4516 20.7461 10.5204
268 68.7252 48.1949 30.9981 26.9066 24.6099 11.6098
269 73.9055 52.1850 34.0477 31.6036 28.9474 13.7566
270 78.0724 56.6106 38.9821 36.4664 33.7860 17.3324
271 81.0696 61.4731 45.8224 41.4155 39.1531 22.9353
272 82.6307 66.7673 54.5867 46.3696 45.0762 31.4590
273 43.3928 27.7735 22.2998 10.3445 9.0536 5.9631
274 50.6335 30.2706 23.1470 13.3533 11.2233 6.5082
275 56.8255 33.3360 25.1301 16.6292 13.7515 7.5380
276 61.9618 37.0348 28.3198 20.0769 16.6655 9.2108
277 65.9502 41.3765 32.7694 23.5939 19.9926 11.7764
278 68.6246 46.3313 38.5213 27.0751 23.7604 15.6013
279 69.7229 51.8474 45.6172 30.4167 27.9961 21.2024
280 41.5096 28.8496 20.0483 9.8072 9.0536 5.2914
281 48.1381 31.7850 20.1027 12.5163 11.2233 5.5834
282 53.9319 35.1289 21.5702 15.5168 13.7515 6.3613
283 58.8994 38.9116 24.5694 18.7546 16.6655 7.7796
284 62.9599 43.1433 29.1565 22.1685 19.9926 10.1116
285 65.9556 47.8194 35.3520 25.6927 23.7604 13.7869
286 67.6315 52.9270 43.1793 29.2583 27.9961 19.4425
287 28.0553 20.4052 18.8539 5.3094 4.9928 4.4066
288 33.5292 23.4421 21.4169 6.9661 6.3810 5.3409
289 38.5019 26.7879 24.4429 8.8912 8.0585 6.5918
290 42.9394 30.4615 27.9555 11.0642 10.0529 8.2528
291 46.7806 34.4674 31.9761 13.4582 12.3914 10.4406
292 49.9419 38.7995 36.5246 16.0409 15.1015 13.2996
293 52.3123 43.4453 41.6201 18.7754 18.2105 17.0063
294 27.4374 20.7633 17.7251 5.1792 4.9928 4.1145
295 32.7016 23.9367 19.9095 6.7568 6.3810 4.8959
296 37.5369 27.3692 22.6866 8.6046 8.0585 5.9913
297 41.9160 31.0725 26.0914 10.7137 10.0529 7.5065
298 45.7823 35.0503 30.1535 13.0696 12.3914 9.5801
299 49.0544 39.3010 34.8985 15.6533 15.1015 12.3907
300 51.6227 43.8192 40.3505 18.4412 18.2105 16.1651
301 1.0000 0.0000 0.0000 0.9821 1.0163 1.0905
302 2.6667 0.0000 0.0000 1.0348 1.0434 1.0929
303 1.3333 1.3333 0.0000 1.0292 1.0948 1.1032
304 0.0000 2.6667 0.0000 1.0236 1.1461 1.1134
305 0.0000 1.3333 1.3333 1.0055 1.0804 1.1983
306 0.0000 0.0000 2.6667 0.9874 1.0148 1.2832
307 1.3333 0.0000 1.3333 1.0111 1.0291 1.1881
308 6.6667 6.6667 6.6667 1.4780 1.5549 1.6933
309 9.3333 5.3333 5.3333 1.5447 1.5205 1.5555
310 8.0000 8.0000 4.0000 1.5543 1.6830 1.4790
311 5.3333 9.3333 5.3333 1.5188 1.7582 1.6028
312 4.0000 8.0000 8.0000 1.4602 1.6260 1.8568
313 5.3333 5.3333 9.3333 1.4351 1.4542 1.9959
314 8.0000 4.0000 8.0000 1.4824 1.4221 1.8163
315 13.3333 13.3333 13.3333 2.4557 2.5836 2.8136
316 16.0000 12.0000 12.0000 2.5624 2.5081 2.5513
317 14.6667 14.6667 10.6667 2.5856 2.8107 2.3909
318 12.0000 16.0000 12.0000 2.5159 2.9345 2.6361
319 10.6667 14.6667 14.6667 2.4074 2.7028 3.1064
320 12.0000 12.0000 16.0000 2.3657 2.3890 3.3413
321 14.6667 10.6667 14.6667 2.4495 2.3166 3.0297
322 21.0000 20.0000 20.0000 4.1964 4.3448 4.6642
323 22.6667 18.6667 18.6667 4.2168 4.1532 4.2512
324 21.3333 21.3333 17.3333 4.2562 4.6179 3.9917
325 18.6667 22.6667 18.6667 4.1466 4.7964 4.3790
326 17.3333 21.3333 21.3333 3.9804 4.4509 5.0995
327 18.6667 18.6667 22.6667 3.9200 3.9735 5.4430
328 21.3333 17.3333 21.3333 4.0456 3.8530 4.9806
329 26.6667 26.6667 26.6667 6.3900 6.7227 7.3211
330 29.3333 25.3333 25.3333 6.5896 6.5437 6.7529
331 28.0000 28.0000 24.0000 6.6474 7.1889 6.3821
332 25.3333 29.3333 25.3333 6.4932 7.4274 6.9286
333 24.0000 28.0000 28.0000 6.2626 6.9559 7.9271
334 25.3333 25.3333 29.3333 6.1818 6.2968 8.3902
335 28.0000 24.0000 28.0000 6.3535 6.1220 7.7613
336 33.3333 33.3333 33.3333 9.4987 9.9933 10.8827
337 36.0000 32.0000 32.0000 9.7503 9.7542 10.1390
338 34.6667 34.6667 30.6667 9.8283 10.5956 9.6462
339 32.0000 36.0000 32.0000 9.6255 10.8988 10.3665
340 30.6667 34.6667 34.6667 9.3249 10.2908 11.6674
341 32.0000 32.0000 36.0000 9.2222 9.4344 12.2597
342 34.6667 30.6667 34.6667 9.4439 9.1999 11.4505
343 41.0000 40.0000 40.0000 13.7439 14.3037 15.4273
344 42.6667 38.6667 38.6667 13.7603 13.8500 14.4815
345 41.3333 41.3333 37.3333 13.8600 14.9018 13.8574
346 38.6667 42.6667 38.6667 13.6050 15.2739 14.7645
347 37.3333 41.3333 41.3333 13.2294 14.5201 16.3894
348 38.6667 38.6667 42.6667 13.1033 13.4523 17.1195
349 41.3333 37.3333 41.3333 13.3784 13.1534 16.1177
350 46.6667 46.6667 46.6667 18.3095 19.2630 20.9774
351 49.3333 45.3333 45.3333 18.6747 18.8901 19.8452
352 48.0000 48.0000 44.0000 18.7976 20.1651 19.0814
353 45.3333 49.3333 45.3333 18.4872 20.6098 20.1870
354 44.0000 48.0000 48.0000 18.0320 19.7016 22.1556
355 45.3333 45.3333 49.3333 17.8813 18.4098 23.0314
356 48.0000 44.0000 48.0000 18.2129 18.0423 21.8258
357 53.3333 53.3333 53.3333 24.1179 25.3739 27.6322
358 56.0000 52.0000 52.0000 24.5442 24.9283 26.2893
359 54.6667 54.6667 50.6667 24.6915 26.4381 25.3780
360 52.0000 56.0000 52.0000 24.3228 26.9592 26.6930
361 50.6667 54.6667 54.6667 23.7837 25.8885 29.0233
362 52.0000 52.0000 56.0000 23.6071 24.3609 30.0521
363 54.6667 50.6667 54.6667 23.9982 23.9210 28.6323
364 61.0000 60.0000 60.0000 31.4072 32.7844 35.4544
365 62.6667 58.6667 58.6667 31.4155 32.0141 33.8684
366 61.3333 61.3333 57.3333 31.5885 33.7698 32.8024
367 58.6667 62.6667 58.6667 31.1586 34.3705 34.3367
368 57.3333 61.3333 61.3333 30.5317 33.1301 37.0457
369 58.6667 58.6667 62.6667 30.3282 31.3558 38.2343
370 61.3333 57.3333 61.3333 30.7814 30.8398 36.5905
371 66.6667 66.6667 66.6667 38.7764 40.7958 44.4266
372 69.3333 65.3333 65.3333 39.3324 40.1941 42.6333
373 68.0000 68.0000 64.0000 39.5321 42.2060 41.4060
374 65.3333 69.3333 65.3333 39.0385 42.8894 43.1690
375 64.0000 68.0000 68.0000 38.3203 41.4723 46.2723
376 65.3333 65.3333 69.3333 38.0888 39.4411 47.6271
377 68.0000 64.0000 68.0000 38.6066 38.8457 45.7503
378 73.3333 73.3333 73.3333 47.7116 50.1964 54.6638
379 76.0000 72.0000 72.0000 48.3360 49.5118 52.6318
380 74.6667 74.6667 70.6667 48.5636 51.7896 51.2369
381 72.0000 76.0000 72.0000 48.0038 52.5588 53.2375
382 70.6667 74.6667 74.6667 47.1907 50.9583 56.7501
383 72.0000 72.0000 76.0000 46.9302 48.6607 58.2771
384 74.6667 70.6667 74.6667 47.5151 47.9827 56.1586
385 81.0000 80.0000 80.0000 58.4680 61.1386 66.2209
386 82.6667 78.6667 78.6667 58.4654 60.0086 63.9093
387 81.3333 81.3333 77.3333 58.7218 62.5614 62.3408
388 78.6667 82.6667 78.6667 58.0935 63.4191 64.5872
389 77.3333 81.3333 81.3333 57.1822 61.6292 68.5232
390 78.6667 78.6667 82.6667 56.8918 59.0559 70.2282
391 81.3333 77.3333 81.3333 57.5460 58.2924 67.8600
392 86.6667 86.6667 86.6667 68.9896 72.5825 79.0423
393 89.3333 85.3333 85.3333 69.7574 71.7235 76.5085
394 88.0000 88.0000 84.0000 70.0436 74.5601 74.7607
395 85.3333 89.3333 85.3333 69.3446 75.5091 77.2609
396 84.0000 88.0000 88.0000 68.3320 73.5238 81.6338
397 85.3333 85.3333 89.3333 68.0107 70.6661 83.5222
398 88.0000 84.0000 88.0000 68.7365 69.8142 80.8965
399 93.3333 93.3333 93.3333 81.4049 85.6443 93.2666
400 96.0000 92.0000 92.0000 82.2474 84.6941 90.4704
401 94.6667 94.6667 90.6667 82.5644 87.8227 88.5380
402 92.0000 96.0000 92.0000 81.7925 88.8656 91.2996
403 90.6667 94.6667 94.6667 80.6756 86.6793 96.1222
404 92.0000 92.0000 96.0000 80.3226 83.5288 98.1992
405 94.6667 90.6667 94.6667 81.1220 82.5858 95.3085
406 99.0000 100.0000 100.0000 94.1274 99.5244 108.8568
407 100.0000 98.6667 98.6667 93.4484 97.6564 105.7162
408 100.0000 100.0000 97.3333 93.9851 99.5740 103.2923
409 98.6667 100.0000 98.6667 93.2853 99.1523 106.0136
410 97.3333 100.0000 100.0000 92.6169 98.7457 108.7861
411 98.6667 98.6667 100.0000 92.7582 97.2386 108.4878
412 100.0000 97.3333 100.0000 92.9402 95.7805 108.1967
413 70.0000 0.0000 0.0000 19.2408 10.4290 1.9450
414 30.0000 0.0000 0.0000 3.9407 2.5415 1.2289
415 50.0000 0.0000 0.0000 9.6893 5.5050 1.4980
416 90.0000 0.0000 0.0000 33.0987 17.5730 2.5935
417 11.3333 0.0000 0.0000 1.4493 1.2572 1.1123
418 0.0000 70.0000 0.0000 16.8104 32.7197 6.3756
419 0.0000 30.0000 0.0000 3.5433 6.1857 1.9533
420 0.0000 50.0000 0.0000 8.5281 16.1551 3.6149
421 0.0000 90.0000 0.0000 28.8268 56.7526 10.3811
422 0.0000 11.3333 0.0000 1.3830 1.8651 1.2332
423 0.0000 0.0000 70.0000 8.9558 4.2021 43.2445
424 0.0000 0.0000 30.0000 2.2592 1.5235 7.9807
425 0.0000 0.0000 50.0000 4.7753 2.5299 21.2302
426 0.0000 0.0000 90.0000 15.0212 6.6283 75.1841
427 0.0000 0.0000 11.3333 1.1688 1.0873 2.2387
428 100.0000 70.0000 0.0000 57.6380 53.7671 8.2863
429 100.0000 10.0000 0.0000 42.1329 22.7571 3.1180
430 100.0000 30.0000 0.0000 44.3709 27.2331 3.8640
431 100.0000 50.0000 0.0000 49.3557 37.2025 5.5256
432 100.0000 90.0000 0.0000 69.6544 77.8000 12.2918
433 100.0000 0.0000 70.0000 49.7834 25.2495 45.1552
434 100.0000 0.0000 10.0000 41.9572 22.1190 3.9428
435 100.0000 0.0000 30.0000 43.0868 22.5709 9.8914
436 100.0000 0.0000 50.0000 45.6029 23.5773 23.1409
437 100.0000 0.0000 90.0000 55.8488 27.6757 77.0948
438 70.0000 100.0000 0.0000 54.6432 81.2338 13.7458
439 10.0000 100.0000 0.0000 36.7621 72.0158 12.9090
440 30.0000 100.0000 0.0000 39.3431 73.3463 13.0297
441 50.0000 100.0000 0.0000 45.0917 76.3098 13.2988
442 90.0000 100.0000 0.0000 68.5011 88.3778 14.3943
443 0.0000 100.0000 70.0000 44.3582 75.0069 55.0453
444 0.0000 100.0000 10.0000 36.5320 71.8764 13.8329
445 0.0000 100.0000 30.0000 37.6616 72.3283 19.7815
446 0.0000 100.0000 50.0000 40.1777 73.3347 33.0310
447 0.0000 100.0000 90.0000 50.4236 77.4331 86.9849
448 0.0000 70.0000 100.0000 34.6799 39.8675 100.4751
449 0.0000 10.0000 100.0000 19.1748 8.8575 95.3068
450 0.0000 30.0000 100.0000 21.4128 13.3335 96.0528
451 0.0000 50.0000 100.0000 26.3976 23.3029 97.7144
452 0.0000 90.0000 100.0000 46.6963 63.9004 104.4806
453 70.0000 0.0000 100.0000 37.1103 17.5768 96.0445
454 10.0000 0.0000 100.0000 19.2292 8.3588 95.2077
455 30.0000 0.0000 100.0000 21.8102 9.6893 95.3284
456 50.0000 0.0000 100.0000 27.5588 12.6528 95.5975
457 90.0000 0.0000 100.0000 50.9682 24.7208 96.6930
458 100.0000 100.0000 70.0000 85.1858 96.0543 56.9560
459 100.0000 100.0000 10.0000 77.3596 92.9238 15.7436
460 100.0000 100.0000 30.0000 78.4892 93.3757 21.6922
461 100.0000 100.0000 50.0000 81.0053 94.3821 34.9417
462 100.0000 100.0000 88.6667 90.7843 98.2937 86.4371
