mxfdlg/real_i1pro.ti3
CTI3

DESCRIPTOR "Measurement data converted from i1Profiler CxF"
ORIGINATOR "ChromIQ"
KEYWORD "TARGET_INSTRUMENT"
TARGET_INSTRUMENT "i1Pro 2"
KEYWORD "CHROMIQ_MEASURED"
CHROMIQ_MEASURED "2014-08-05"
DEVICE_CLASS "OUTPUT"
COLOR_REP "iRGB_XYZ"

NUMBER_OF_FIELDS 8
BEGIN_DATA_FORMAT
SAMPLE_ID SAMPLE_LOC RGB_R RGB_G RGB_B XYZ_X XYZ_Y XYZ_Z
END_DATA_FORMAT

NUMBER_OF_SETS 2033
BEGIN_DATA
1 "1" 0.0000 0.0000 0.0000 2.5009 2.5387 1.8706
2 "2" 9.0196 0.0000 0.0000 3.0612 2.9902 2.0807
3 "3" 18.0392 0.0000 0.0000 4.2364 3.9011 2.6250
4 "4" 27.0588 0.0000 0.0000 5.2622 4.5637 2.7470
5 "5" 36.0784 0.0000 0.0000 6.4105 5.2727 2.8349
6 "6" 45.0980 0.0000 0.0000 7.6811 5.9862 2.8819
7 "7" 54.5098 0.0000 0.0000 9.7481 7.0878 2.9120
8 "8" 63.5294 0.0000 0.0000 12.5986 8.5424 3.0452
9 "9" 72.5490 0.0000 0.0000 16.1326 10.2633 3.2047
10 "10" 81.5686 0.0000 0.0000 22.8262 13.7060 3.7992
11 "11" 90.5882 0.0000 0.0000 28.8402 16.4033 4.0249
12 "12" 100.0000 0.0000 0.0000 37.7119 20.8561 4.8655
13 "13" 0.0000 8.2353 0.0000 2.8949 3.0404 2.2583
14 "14" 9.0196 8.2353 0.0000 3.4483 3.5498 2.5197
15 "15" 18.0392 8.2353 0.0000 4.3247 4.1884 2.6902
16 "16" 27.0588 8.2353 0.0000 5.3406 4.8856 2.7836
17 "17" 36.0784 8.2353 0.0000 6.5390 5.6326 2.8617
18 "18" 45.0980 8.2353 0.0000 8.2978 6.7249 2.9802
19 "19" 54.5098 8.2353 0.0000 10.6823 8.1207 2.9909
20 "20" 63.5294 8.2353 0.0000 13.8918 9.8696 3.0971
21 "21" 72.5490 8.2353 0.0000 18.0161 11.9807 3.1746
22 "22" 81.5686 8.2353 0.0000 23.9752 14.8457 3.3347
23 "23" 90.5882 8.2353 0.0000 29.1640 17.0215 3.4704
24 "24" 100.0000 8.2353 0.0000 37.7192 20.9551 4.3610
25 "25" 0.0000 16.4706 0.0000 3.4866 3.9426 2.9493
26 "26" 9.0196 16.4706 0.0000 3.8618 4.2571 2.9290
27 "27" 18.0392 16.4706 0.0000 4.4816 4.6634 2.8372
28 "28" 27.0588 16.4706 0.0000 5.6897 5.5711 2.9928
29 "29" 36.0784 16.4706 0.0000 7.2196 6.6409 3.0701
30 "30" 45.0980 16.4706 0.0000 9.0718 7.8397 3.2098
31 "31" 54.5098 16.4706 0.0000 11.5225 9.2728 3.1551
32 "32" 63.5294 16.4706 0.0000 15.1812 11.4325 3.2592
33 "33" 72.5490 16.4706 0.0000 20.3367 14.1397 3.2914
34 "34" 81.5686 16.4706 0.0000 25.8211 16.7808 3.2123
35 "35" 90.5882 16.4706 0.0000 31.5190 19.0128 3.2131
36 "36" 100.0000 16.4706 0.0000 39.3110 22.1975 3.6824
37 "37" 0.0000 24.7059 0.0000 3.8512 4.6294 3.3493
38 "38" 9.0196 24.7059 0.0000 4.0218 4.7563 3.2162
39 "39" 18.0392 24.7059 0.0000 4.7438 5.3407 3.1525
40 "40" 27.0588 24.7059 0.0000 6.1494 6.4517 3.2115
41 "41" 36.0784 24.7059 0.0000 8.0587 7.9847 3.3868
42 "42" 45.0980 24.7059 0.0000 10.5345 9.7268 3.4410
43 "43" 54.5098 24.7059 0.0000 13.1039 11.2293 3.3081
44 "44" 63.5294 24.7059 0.0000 16.8623 13.4732 3.3640
45 "45" 72.5490 24.7059 0.0000 21.9142 16.1958 3.3069
46 "46" 81.5686 24.7059 0.0000 27.9359 19.2850 3.2392
47 "47" 90.5882 24.7059 0.0000 35.4009 22.6201 3.1437
48 "48" 100.0000 24.7059 0.0000 44.5222 26.2879 3.2648
49 "49" 0.0000 33.3333 0.0000 4.0381 5.2088 3.6284
50 "50" 9.0196 33.3333 0.0000 4.2315 5.4108 3.4038
51 "51" 18.0392 33.3333 0.0000 4.9374 6.0927 3.3139
52 "52" 27.0588 33.3333 0.0000 6.8787 7.7674 3.4816
53 "53" 36.0784 33.3333 0.0000 8.8419 9.3386 3.6457
54 "54" 45.0980 33.3333 0.0000 11.4043 11.3496 3.6616
55 "55" 54.5098 33.3333 0.0000 14.6538 13.5649 3.6953
56 "56" 63.5294 33.3333 0.0000 18.1814 15.5638 3.5971
57 "57" 72.5490 33.3333 0.0000 23.1267 18.3719 3.5210
58 "58" 81.5686 33.3333 0.0000 29.6378 21.8608 3.3629
59 "59" 90.5882 33.3333 0.0000 38.6960 26.5083 3.1543
60 "60" 100.0000 33.3333 0.0000 50.8628 31.9277 3.1685
61 "61" 0.0000 41.5686 0.0000 4.3041 6.0047 4.0159
62 "62" 9.0196 41.5686 0.0000 4.5604 6.3567 3.7664
63 "63" 18.0392 41.5686 0.0000 5.1872 6.9744 3.6350
64 "64" 27.0588 41.5686 0.0000 7.4144 9.3114 3.7578
65 "65" 36.0784 41.5686 0.0000 10.1211 11.6122 3.8651
66 "66" 45.0980 41.5686 0.0000 12.9830 13.8694 3.9883
67 "67" 54.5098 41.5686 0.0000 16.2278 16.2188 3.9776
68 "68" 63.5294 41.5686 0.0000 19.7676 18.3231 3.7837
69 "69" 72.5490 41.5686 0.0000 24.9697 21.4295 3.6231
70 "70" 81.5686 41.5686 0.0000 32.3616 25.6523 3.4846
71 "71" 90.5882 41.5686 0.0000 42.6036 31.5819 3.3632
72 "72" 100.0000 41.5686 0.0000 57.9300 39.6826 3.3181
73 "73" 0.0000 49.8039 0.0000 4.5801 6.9573 4.4838
74 "74" 9.0196 49.8039 0.0000 4.9197 7.5508 4.1668
75 "75" 18.0392 49.8039 0.0000 5.4173 7.9996 3.9083
76 "76" 27.0588 49.8039 0.0000 7.4861 10.4585 3.9849
77 "77" 36.0784 49.8039 0.0000 10.5697 13.4010 4.1653
78 "78" 45.0980 49.8039 0.0000 13.8606 16.0286 4.2648
79 "79" 54.5098 49.8039 0.0000 17.2553 18.6118 4.1205
80 "80" 63.5294 49.8039 0.0000 21.0946 21.2058 3.9790
81 "81" 72.5490 49.8039 0.0000 26.4119 24.5436 3.7003
82 "82" 81.5686 49.8039 0.0000 34.3320 29.5568 3.5331
83 "83" 90.5882 49.8039 0.0000 45.2202 36.2777 3.4965
84 "84" 100.0000 49.8039 0.0000 62.1152 46.4533 3.6428
85 "85" 0.0000 58.0392 0.0000 4.7892 8.0132 4.9549
86 "86" 9.0196 58.0392 0.0000 5.0571 8.4764 4.4732
87 "87" 18.0392 58.0392 0.0000 5.7329 9.3507 4.2487
88 "88" 27.0588 58.0392 0.0000 7.4164 11.3977 4.1345
89 "89" 36.0784 58.0392 0.0000 10.2989 14.5726 4.2296
90 "90" 45.0980 58.0392 0.0000 13.9065 17.5136 4.2705
91 "91" 54.5098 58.0392 0.0000 17.5674 20.3494 4.2635
92 "92" 63.5294 58.0392 0.0000 22.0891 23.7682 4.1114
93 "93" 72.5490 58.0392 0.0000 27.9588 27.9470 4.0663
94 "94" 81.5686 58.0392 0.0000 36.4563 33.7299 3.7883
95 "95" 90.5882 58.0392 0.0000 48.3848 41.9594 3.7470
96 "96" 100.0000 58.0392 0.0000 65.0087 52.6487 3.9736
97 "97" 0.0000 66.6667 0.0000 5.0933 9.3206 5.7197
98 "98" 9.0196 66.6667 0.0000 5.3949 9.9209 5.1221
99 "99" 18.0392 66.6667 0.0000 6.0950 10.9187 4.6972
100 "100" 27.0588 66.6667 0.0000 7.5397 12.8549 4.5628
101 "101" 36.0784 66.6667 0.0000 10.0416 15.7958 4.4963
102 "102" 45.0980 66.6667 0.0000 13.5757 18.9555 4.4033
103 "103" 54.5098 66.6667 0.0000 18.2860 23.0100 4.3261
104 "104" 63.5294 66.6667 0.0000 22.9281 26.7227 4.2854
105 "105" 72.5490 66.6667 0.0000 29.4083 31.7182 4.2816
106 "106" 81.5686 66.6667 0.0000 39.3038 39.2584 4.1026
107 "107" 90.5882 66.6667 0.0000 51.6583 48.6224 4.1407
108 "108" 100.0000 66.6667 0.0000 68.2548 59.9742 4.2102
109 "109" 0.0000 74.9020 0.0000 5.8796 11.9020 7.2964
110 "110" 9.0196 74.9020 0.0000 6.0244 12.1406 6.0762
111 "111" 18.0392 74.9020 0.0000 6.4749 12.7761 5.4306
112 "112" 27.0588 74.9020 0.0000 7.7877 14.8809 5.0489
113 "113" 36.0784 74.9020 0.0000 9.8581 17.2172 4.7885
114 "114" 45.0980 74.9020 0.0000 13.5961 21.0391 4.6613
115 "115" 54.5098 74.9020 0.0000 18.6079 25.8154 4.6925
116 "116" 63.5294 74.9020 0.0000 23.8906 30.1968 4.6550
117 "117" 72.5490 74.9020 0.0000 30.0947 35.1787 4.4875
118 "118" 81.5686 74.9020 0.0000 40.5020 43.5664 4.3939
119 "119" 90.5882 74.9020 0.0000 54.0686 54.6538 4.5525
120 "120" 100.0000 74.9020 0.0000 70.7811 66.6576 4.7057
121 "121" 0.0000 83.1373 0.0000 7.6403 16.0660 10.2204
122 "122" 9.0196 83.1373 0.0000 7.4803 15.9233 8.1021
123 "123" 18.0392 83.1373 0.0000 7.8677 16.5333 6.9375
124 "124" 27.0588 83.1373 0.0000 8.9140 18.2182 6.1115
125 "125" 36.0784 83.1373 0.0000 10.6249 20.5279 5.4748
126 "126" 45.0980 83.1373 0.0000 14.0056 24.1593 5.1864
127 "127" 54.5098 83.1373 0.0000 19.1554 29.6355 5.0943
128 "128" 63.5294 83.1373 0.0000 24.8270 34.6881 4.8897
129 "129" 72.5490 83.1373 0.0000 31.1277 39.7566 4.7622
130 "130" 81.5686 83.1373 0.0000 42.1915 48.8857 4.7113
131 "131" 90.5882 83.1373 0.0000 56.0551 60.7024 4.9606
132 "132" 100.0000 83.1373 0.0000 72.5516 73.6895 5.1743
133 "133" 0.0000 91.3725 0.0000 10.8346 22.8374 15.4024
134 "134" 9.0196 91.3725 0.0000 10.5188 22.4459 12.7542
135 "135" 18.0392 91.3725 0.0000 10.4621 22.4129 10.1850
136 "136" 27.0588 91.3725 0.0000 11.0112 23.2794 8.2838
137 "137" 36.0784 91.3725 0.0000 12.3897 25.2169 6.9949
138 "138" 45.0980 91.3725 0.0000 15.3071 29.0783 6.2869
139 "139" 54.5098 91.3725 0.0000 19.7661 33.8684 5.7199
140 "140" 63.5294 91.3725 0.0000 25.6458 39.4224 5.3313
141 "141" 72.5490 91.3725 0.0000 32.7994 45.5281 5.0146
142 "142" 81.5686 91.3725 0.0000 44.7790 55.7991 5.0332
143 "143" 90.5882 91.3725 0.0000 57.3138 65.4624 5.2297
144 "144" 100.0000 91.3725 0.0000 74.5603 79.2337 5.7993
145 "145" 0.0000 100.0000 0.0000 14.6101 29.5862 21.3370
146 "146" 9.0196 100.0000 0.0000 14.5767 29.7884 19.5431
147 "147" 18.0392 100.0000 0.0000 14.4879 30.0581 16.5157
148 "148" 27.0588 100.0000 0.0000 15.2587 31.6022 13.5647
149 "149" 36.0784 100.0000 0.0000 17.1362 34.7543 11.2899
150 "150" 45.0980 100.0000 0.0000 19.1641 37.6431 9.6797
151 "151" 54.5098 100.0000 0.0000 21.4634 39.9808 7.7793
152 "152" 63.5294 100.0000 0.0000 27.1249 45.1986 6.3183
153 "153" 72.5490 100.0000 0.0000 35.6382 52.7611 5.8578
154 "154" 81.5686 100.0000 0.0000 47.5908 62.4752 5.7776
155 "155" 90.5882 100.0000 0.0000 59.3911 71.0462 5.9491
156 "156" 100.0000 100.0000 0.0000 74.6253 80.4534 6.2392
157 "157" 0.0000 0.0000 9.0196 2.7466 2.7985 2.1135
158 "158" 9.0196 0.0000 9.0196 3.3407 3.2060 2.3484
159 "159" 18.0392 0.0000 9.0196 4.3660 3.8581 2.7450
160 "160" 27.0588 0.0000 9.0196 5.2858 4.3647 2.9739
161 "161" 36.0784 0.0000 9.0196 6.5208 5.0808 3.1399
162 "162" 45.0980 0.0000 9.0196 7.9839 5.8934 3.2402
163 "163" 54.5098 0.0000 9.0196 10.1894 7.0649 3.4895
164 "164" 63.5294 0.0000 9.0196 13.1667 8.6085 3.7959
165 "165" 72.5490 0.0000 9.0196 16.8560 10.3926 4.2031
166 "166" 81.5686 0.0000 9.0196 23.0027 13.3262 4.7341
167 "167" 90.5882 0.0000 9.0196 29.0456 16.1686 5.0802
168 "168" 100.0000 0.0000 9.0196 37.8182 20.8001 5.8545
169 "169" 0.0000 8.2353 9.0196 3.1035 3.2558 2.6005
170 "170" 9.0196 8.2353 9.0196 3.4770 3.5497 2.6176
171 "171" 18.0392 8.2353 9.0196 4.4063 4.1268 2.7301
172 "172" 27.0588 8.2353 9.0196 5.6079 4.9218 2.9811
173 "173" 36.0784 8.2353 9.0196 7.2033 5.8850 3.1457
174 "174" 45.0980 8.2353 9.0196 9.0387 6.9921 3.3844
175 "175" 54.5098 8.2353 9.0196 11.5701 8.4797 3.5956
176 "176" 63.5294 8.2353 9.0196 15.1260 10.4069 3.8046
177 "177" 72.5490 8.2353 9.0196 19.4303 12.6519 4.0749
178 "178" 81.5686 8.2353 9.0196 24.6810 15.1546 4.3412
179 "179" 90.5882 8.2353 9.0196 31.6224 18.5472 4.7925
180 "180" 100.0000 8.2353 9.0196 40.9487 23.2238 5.5799
181 "181" 0.0000 16.4706 9.0196 3.4713 3.9092 3.1252
182 "182" 9.0196 16.4706 9.0196 3.6317 4.0354 2.9447
183 "183" 18.0392 16.4706 9.0196 4.6776 4.8274 3.1226
184 "184" 27.0588 16.4706 9.0196 6.1287 5.8620 3.2575
185 "185" 36.0784 16.4706 9.0196 8.0945 7.2658 3.5251
186 "186" 45.0980 16.4706 9.0196 10.2701 8.6503 3.7195
187 "187" 54.5098 16.4706 9.0196 12.8107 10.1174 3.7182
188 "188" 63.5294 16.4706 9.0196 16.3214 12.1538 3.8527
189 "189" 72.5490 16.4706 9.0196 20.9341 14.5732 3.9737
190 "190" 81.5686 16.4706 9.0196 26.9032 17.7184 4.3711
191 "191" 90.5882 16.4706 9.0196 35.0317 21.8299 4.8584
192 "192" 100.0000 16.4706 9.0196 45.0828 26.7227 5.4536
193 "193" 0.0000 24.7059 9.0196 3.7888 4.5458 3.6073
194 "194" 9.0196 24.7059 9.0196 4.0514 4.8121 3.5164
195 "195" 18.0392 24.7059 9.0196 4.9976 5.6324 3.5178
196 "196" 27.0588 24.7059 9.0196 6.7820 7.0685 3.6754
197 "197" 36.0784 24.7059 9.0196 8.8144 8.5857 3.8794
198 "198" 45.0980 24.7059 9.0196 11.2497 10.2673 4.0585
199 "199" 54.5098 24.7059 9.0196 14.1366 12.1686 4.0897
200 "200" 63.5294 24.7059 9.0196 18.0500 14.5423 4.0686
201 "201" 72.5490 24.7059 9.0196 22.4040 16.9711 4.1025
202 "202" 81.5686 24.7059 9.0196 28.8756 20.4125 4.2972
203 "203" 90.5882 24.7059 9.0196 37.7917 25.1822 4.6964
204 "204" 100.0000 24.7059 9.0196 50.6480 31.7854 5.4559
205 "205" 0.0000 33.3333 9.0196 3.9559 5.0132 3.9935
206 "206" 9.0196 33.3333 9.0196 4.2107 5.3816 3.7799
207 "207" 18.0392 33.3333 9.0196 5.2798 6.5071 3.9370
208 "208" 27.0588 33.3333 9.0196 7.2985 8.2559 4.0504
209 "209" 36.0784 33.3333 9.0196 9.5639 10.1133 4.1517
210 "210" 45.0980 33.3333 9.0196 12.0734 12.0110 4.2296
211 "211" 54.5098 33.3333 9.0196 15.1061 14.0578 4.2215
212 "212" 63.5294 33.3333 9.0196 19.2281 16.7581 4.2554
213 "213" 72.5490 33.3333 9.0196 24.1566 19.6869 4.2800
214 "214" 81.5686 33.3333 9.0196 31.6500 24.0702 4.4444
215 "215" 90.5882 33.3333 9.0196 41.1498 29.3296 4.8211
216 "216" 100.0000 33.3333 9.0196 56.1030 37.4994 5.4495
217 "217" 0.0000 41.5686 9.0196 4.1883 5.7719 4.4734
218 "218" 9.0196 41.5686 9.0196 4.5069 6.2139 4.1864
219 "219" 18.0392 41.5686 9.0196 5.5278 7.4312 4.1965
220 "220" 27.0588 41.5686 9.0196 7.7742 9.6115 4.3581
221 "221" 36.0784 41.5686 9.0196 10.3706 11.8345 4.4015
222 "222" 45.0980 41.5686 9.0196 13.1276 14.1016 4.4665
223 "223" 54.5098 41.5686 9.0196 16.3793 16.4900 4.4980
224 "224" 63.5294 41.5686 9.0196 20.8819 19.5804 4.4976
225 "225" 72.5490 41.5686 9.0196 26.1975 23.0941 4.6205
226 "226" 81.5686 41.5686 9.0196 34.0750 27.9385 4.6252
227 "227" 90.5882 41.5686 9.0196 44.8319 34.3494 4.9502
228 "228" 100.0000 41.5686 9.0196 61.2388 43.8671 5.6467
229 "229" 0.0000 49.8039 9.0196 4.4577 6.7447 5.1076
230 "230" 9.0196 49.8039 9.0196 4.9660 7.5467 4.8572
231 "231" 18.0392 49.8039 9.0196 5.9818 8.7894 4.6434
232 "232" 27.0588 49.8039 9.0196 8.2036 11.1696 4.6940
233 "233" 36.0784 49.8039 9.0196 10.9544 13.6285 4.7359
234 "234" 45.0980 49.8039 9.0196 13.9662 16.2410 4.8039
235 "235" 54.5098 49.8039 9.0196 17.4958 18.9395 4.8030
236 "236" 63.5294 49.8039 9.0196 22.3344 22.6095 4.8809
237 "237" 72.5490 49.8039 9.0196 28.5532 27.0251 4.9496
238 "238" 81.5686 49.8039 9.0196 36.2505 32.0302 4.9301
239 "239" 90.5882 49.8039 9.0196 47.6835 39.5229 5.0081
240 "240" 100.0000 49.8039 9.0196 64.1363 49.7721 5.6859
241 "241" 0.0000 58.0392 9.0196 4.6655 7.6852 5.8499
242 "242" 9.0196 58.0392 9.0196 5.2481 8.7607 5.3214
243 "243" 18.0392 58.0392 9.0196 6.5372 10.4774 5.1940
244 "244" 27.0588 58.0392 9.0196 8.7573 12.9204 5.1408
245 "245" 36.0784 58.0392 9.0196 11.7760 15.9107 5.1454
246 "246" 45.0980 58.0392 9.0196 15.1924 19.0313 5.2431
247 "247" 54.5098 58.0392 9.0196 18.7129 21.7585 5.1457
248 "248" 63.5294 58.0392 9.0196 23.4993 25.5357 5.1822
249 "249" 72.5490 58.0392 9.0196 30.1297 30.5467 5.2433
250 "250" 81.5686 58.0392 9.0196 38.8348 36.7175 5.3947
251 "251" 90.5882 58.0392 9.0196 50.0851 44.7173 5.5102
252 "252" 100.0000 58.0392 9.0196 66.5655 55.7080 6.1578
253 "253" 0.0000 66.6667 9.0196 5.1038 9.2404 6.9976
254 "254" 9.0196 66.6667 9.0196 5.7450 10.4489 6.2494
255 "255" 18.0392 66.6667 9.0196 7.0635 12.2597 5.7922
256 "256" 27.0588 66.6667 9.0196 9.3966 15.0817 5.8079
257 "257" 36.0784 66.6667 9.0196 12.2519 18.0172 5.7382
258 "258" 45.0980 66.6667 9.0196 16.0296 21.5679 5.7896
259 "259" 54.5098 66.6667 9.0196 19.9202 24.9696 5.6365
260 "260" 63.5294 66.6667 9.0196 25.0560 29.0971 5.6253
261 "261" 72.5490 66.6667 9.0196 31.3334 33.8781 5.4953
262 "262" 81.5686 66.6667 9.0196 40.8627 41.1289 5.7093
263 "263" 90.5882 66.6667 9.0196 52.8534 50.1039 5.9280
264 "264" 100.0000 66.6667 9.0196 68.6040 61.5223 6.5204
265 "265" 0.0000 74.9020 9.0196 5.8274 11.4862 8.9239
266 "266" 9.0196 74.9020 9.0196 6.4783 12.7818 7.5729
267 "267" 18.0392 74.9020 9.0196 8.1599 15.1083 7.0677
268 "268" 27.0588 74.9020 9.0196 10.3425 17.7989 6.7345
269 "269" 36.0784 74.9020 9.0196 13.2006 20.9346 6.5022
270 "270" 45.0980 74.9020 9.0196 16.8285 24.6361 6.3380
271 "271" 54.5098 74.9020 9.0196 21.3753 28.8585 6.1741
272 "272" 63.5294 74.9020 9.0196 26.6027 33.1390 5.9977
273 "273" 72.5490 74.9020 9.0196 33.1588 38.2723 5.9404
274 "274" 81.5686 74.9020 9.0196 43.1084 46.0504 6.0489
275 "275" 90.5882 74.9020 9.0196 54.9206 55.3012 6.2951
276 "276" 100.0000 74.9020 9.0196 70.5796 67.4493 6.8202
277 "277" 0.0000 83.1373 9.0196 7.4336 15.4692 11.9429
278 "278" 9.0196 83.1373 9.0196 8.1883 16.7666 9.9701
279 "279" 18.0392 83.1373 9.0196 9.8904 19.2247 9.0271
280 "280" 27.0588 83.1373 9.0196 11.9351 21.9962 8.5665
281 "281" 36.0784 83.1373 9.0196 14.9470 25.5568 8.0036
282 "282" 45.0980 83.1373 9.0196 18.6268 29.5437 7.5365
283 "283" 54.5098 83.1373 9.0196 23.3758 34.1573 7.1516
284 "284" 63.5294 83.1373 9.0196 29.1811 39.2422 6.8801
285 "285" 72.5490 83.1373 9.0196 36.3231 44.9803 6.7693
286 "286" 81.5686 83.1373 9.0196 45.8692 52.1020 6.6769
287 "287" 90.5882 83.1373 9.0196 57.6382 61.6592 6.8503
288 "288" 100.0000 83.1373 9.0196 73.1544 73.9888 7.2856
289 "289" 0.0000 91.3725 9.0196 10.5918 22.0568 17.0279
290 "290" 9.0196 91.3725 9.0196 11.4141 23.4413 15.0130
291 "291" 18.0392 91.3725 9.0196 13.1913 26.1753 13.6605
292 "292" 27.0588 91.3725 9.0196 15.5727 29.5106 12.7079
293 "293" 36.0784 91.3725 9.0196 18.2951 32.8959 11.4749
294 "294" 45.0980 91.3725 9.0196 21.8147 37.0108 10.0884
295 "295" 54.5098 91.3725 9.0196 25.8765 40.8832 8.8822
296 "296" 63.5294 91.3725 9.0196 32.1930 46.5961 8.1610
297 "297" 72.5490 91.3725 9.0196 39.4352 52.2802 7.6866
298 "298" 81.5686 91.3725 9.0196 49.6842 60.0285 7.6436
299 "299" 90.5882 91.3725 9.0196 59.9374 67.7388 7.4449
300 "300" 100.0000 91.3725 9.0196 74.5877 78.8599 7.8044
301 "301" 0.0000 100.0000 9.0196 14.1229 28.2334 23.7002
302 "302" 9.0196 100.0000 9.0196 16.3683 32.6189 23.2633
303 "303" 18.0392 100.0000 9.0196 18.4836 36.3941 22.5329
304 "304" 27.0588 100.0000 9.0196 21.3471 41.0844 20.9620
305 "305" 36.0784 100.0000 9.0196 24.2183 45.2189 18.3787
306 "306" 45.0980 100.0000 9.0196 26.9535 48.4157 15.4489
307 "307" 54.5098 100.0000 9.0196 30.3425 51.6923 12.3771
308 "308" 63.5294 100.0000 9.0196 35.7146 56.2158 10.1729
309 "309" 72.5490 100.0000 9.0196 43.4486 62.3540 9.3279
310 "310" 81.5686 100.0000 9.0196 54.1529 69.8212 9.0240
311 "311" 90.5882 100.0000 9.0196 63.3822 75.5649 8.7515
312 "312" 100.0000 100.0000 9.0196 75.7834 83.0460 8.8621
313 "313" 0.0000 0.0000 18.0392 3.0115 3.0504 2.6205
314 "314" 9.0196 0.0000 18.0392 3.5987 3.4435 2.9737
315 "315" 18.0392 0.0000 18.0392 4.6854 4.0195 3.1208
316 "316" 27.0588 0.0000 18.0392 5.7250 4.5934 3.5102
317 "317" 36.0784 0.0000 18.0392 6.9221 5.2106 3.8263
318 "318" 45.0980 0.0000 18.0392 8.4506 6.0673 4.0776
319 "319" 54.5098 0.0000 18.0392 11.0401 7.4069 4.4993
320 "320" 63.5294 0.0000 18.0392 14.3605 9.0790 5.0356
321 "321" 72.5490 0.0000 18.0392 17.6493 10.6256 5.4356
322 "322" 81.5686 0.0000 18.0392 23.5080 13.3790 5.9986
323 "323" 90.5882 0.0000 18.0392 29.3777 16.1246 6.4233
324 "324" 100.0000 0.0000 18.0392 37.9474 20.8317 7.1675
325 "325" 0.0000 8.2353 18.0392 3.3610 3.5147 3.1797
326 "326" 9.0196 8.2353 18.0392 3.6318 3.7398 3.2950
327 "327" 18.0392 8.2353 18.0392 4.9211 4.5472 3.4827
328 "328" 27.0588 8.2353 18.0392 6.1073 5.2298 3.6849
329 "329" 36.0784 8.2353 18.0392 7.7296 6.1536 3.9005
330 "330" 45.0980 8.2353 18.0392 9.5102 7.1600 4.0513
331 "331" 54.5098 8.2353 18.0392 12.3018 8.7361 4.3675
332 "332" 63.5294 8.2353 18.0392 15.7580 10.6254 4.7194
333 "333" 72.5490 8.2353 18.0392 19.8363 12.7196 5.1980
334 "334" 81.5686 8.2353 18.0392 25.9834 15.8536 5.8179
335 "335" 90.5882 8.2353 18.0392 33.1283 19.4414 6.6296
336 "336" 100.0000 8.2353 18.0392 42.4949 24.4888 7.3888
337 "337" 0.0000 16.4706 18.0392 3.6762 4.0615 3.6674
338 "338" 9.0196 16.4706 18.0392 3.9976 4.3585 3.7879
339 "339" 18.0392 16.4706 18.0392 5.2931 5.4262 4.1219
340 "340" 27.0588 16.4706 18.0392 6.8869 6.4765 4.2350
341 "341" 36.0784 16.4706 18.0392 8.5258 7.5048 4.4352
342 "342" 45.0980 16.4706 18.0392 10.9419 9.0121 4.5744
343 "343" 54.5098 16.4706 18.0392 13.5158 10.5463 4.6891
344 "344" 63.5294 16.4706 18.0392 17.2117 12.6792 4.9523
345 "345" 72.5490 16.4706 18.0392 21.8984 15.3199 5.4001
346 "346" 81.5686 16.4706 18.0392 28.8171 19.1158 6.1774
347 "347" 90.5882 16.4706 18.0392 37.6395 23.9983 7.2928
348 "348" 100.0000 16.4706 18.0392 49.0126 30.1864 7.8794
349 "349" 0.0000 24.7059 18.0392 3.9317 4.6685 4.2562
350 "350" 9.0196 24.7059 18.0392 4.2857 5.0551 4.3611
351 "351" 18.0392 24.7059 18.0392 5.5276 6.1763 4.7044
352 "352" 27.0588 24.7059 18.0392 7.6203 7.8620 4.8893
353 "353" 36.0784 24.7059 18.0392 9.3508 8.9983 4.9038
354 "354" 45.0980 24.7059 18.0392 11.8940 10.7624 5.0656
355 "355" 54.5098 24.7059 18.0392 15.0964 12.8390 5.2238
356 "356" 63.5294 24.7059 18.0392 18.9102 15.2880 5.3902
357 "357" 72.5490 24.7059 18.0392 23.9073 18.3203 5.9278
358 "358" 81.5686 24.7059 18.0392 31.1344 22.5979 6.5646
359 "359" 90.5882 24.7059 18.0392 40.5364 27.9650 7.5572
360 "360" 100.0000 24.7059 18.0392 54.9263 36.2163 8.5360
361 "361" 0.0000 33.3333 18.0392 4.1025 5.1765 4.8165
362 "362" 9.0196 33.3333 18.0392 4.4798 5.7553 4.7896
363 "363" 18.0392 33.3333 18.0392 5.8305 7.1208 5.1619
364 "364" 27.0588 33.3333 18.0392 8.0614 9.0247 5.3237
365 "365" 36.0784 33.3333 18.0392 10.2129 10.6609 5.3620
366 "366" 45.0980 33.3333 18.0392 12.8562 12.6299 5.4546
367 "367" 54.5098 33.3333 18.0392 16.3563 15.1450 5.8387
368 "368" 63.5294 33.3333 18.0392 20.9092 18.2840 6.1011
369 "369" 72.5490 33.3333 18.0392 26.1940 21.8458 6.5083
370 "370" 81.5686 33.3333 18.0392 33.8691 26.7007 7.2249
371 "371" 90.5882 33.3333 18.0392 44.7721 33.3368 8.3097
372 "372" 100.0000 33.3333 18.0392 60.2943 42.5780 9.3759
373 "373" 0.0000 41.5686 18.0392 4.2965 5.9027 5.4943
374 "374" 9.0196 41.5686 18.0392 4.8653 6.7025 5.4851
375 "375" 18.0392 41.5686 18.0392 6.0671 7.9939 5.3952
376 "376" 27.0588 41.5686 18.0392 8.6377 10.3823 5.6451
377 "377" 36.0784 41.5686 18.0392 11.2086 12.5192 5.8074
378 "378" 45.0980 41.5686 18.0392 14.1394 14.8608 5.9892
379 "379" 54.5098 41.5686 18.0392 17.7552 17.7093 6.2776
380 "380" 63.5294 41.5686 18.0392 22.6165 21.2753 6.6496
381 "381" 72.5490 41.5686 18.0392 28.2045 25.1360 6.9179
382 "382" 81.5686 41.5686 18.0392 36.2370 30.5591 7.4983
383 "383" 90.5882 41.5686 18.0392 47.7316 38.0170 8.5412
384 "384" 100.0000 41.5686 18.0392 63.7040 47.7130 9.4572
385 "385" 0.0000 49.8039 18.0392 4.5060 6.7498 6.2186
386 "386" 9.0196 49.8039 18.0392 5.0883 7.7027 6.0789
387 "387" 18.0392 49.8039 18.0392 6.5280 9.3231 5.8926
388 "388" 27.0588 49.8039 18.0392 9.1417 11.8658 6.1166
389 "389" 36.0784 49.8039 18.0392 12.0180 14.4333 6.2916
390 "390" 45.0980 49.8039 18.0392 15.1767 17.1730 6.4640
391 "391" 54.5098 49.8039 18.0392 19.3438 20.6056 6.7452
392 "392" 63.5294 49.8039 18.0392 24.2832 24.4735 7.1912
393 "393" 72.5490 49.8039 18.0392 30.4323 28.9050 7.2333
394 "394" 81.5686 49.8039 18.0392 38.8612 34.8324 7.6945
395 "395" 90.5882 49.8039 18.0392 50.5440 43.0502 8.6341
396 "396" 100.0000 49.8039 18.0392 65.7643 52.9743 9.7065
397 "397" 0.0000 58.0392 18.0392 4.8008 7.7476 7.3444
398 "398" 9.0196 58.0392 18.0392 5.3979 8.8736 6.8423
399 "399" 18.0392 58.0392 18.0392 7.3895 11.2229 6.7289
400 "400" 27.0588 58.0392 18.0392 10.0878 14.0289 6.9659
401 "401" 36.0784 58.0392 18.0392 13.1639 17.0208 7.1303
402 "402" 45.0980 58.0392 18.0392 16.6681 20.2020 7.2189
403 "403" 54.5098 58.0392 18.0392 20.7809 23.6657 7.4669
404 "404" 63.5294 58.0392 18.0392 26.0612 27.8895 7.6802
405 "405" 72.5490 58.0392 18.0392 32.9740 33.2595 8.0444
406 "406" 81.5686 58.0392 18.0392 41.7359 39.7300 8.3237
407 "407" 90.5882 58.0392 18.0392 53.2275 48.1485 8.8451
408 "408" 100.0000 58.0392 18.0392 68.5308 58.8992 10.0483
409 "409" 0.0000 66.6667 18.0392 5.1958 9.0946 8.6308
410 "410" 9.0196 66.6667 18.0392 6.1026 10.9270 8.1973
411 "411" 18.0392 66.6667 18.0392 8.6097 13.9200 8.0315
412 "412" 27.0588 66.6667 18.0392 11.5455 17.1587 8.2371
413 "413" 36.0784 66.6667 18.0392 14.6441 20.2375 8.2954
414 "414" 45.0980 66.6667 18.0392 18.1993 23.6003 8.2797
415 "415" 54.5098 66.6667 18.0392 22.7192 27.5406 8.4063
416 "416" 63.5294 66.6667 18.0392 27.9105 31.7228 8.4378
417 "417" 72.5490 66.6667 18.0392 34.7432 37.1091 8.4519
418 "418" 81.5686 66.6667 18.0392 44.7944 44.8664 8.7769
419 "419" 90.5882 66.6667 18.0392 55.6503 53.3596 9.1873
420 "420" 100.0000 66.6667 18.0392 70.1836 64.0179 10.3661
421 "421" 0.0000 74.9020 18.0392 6.0382 11.5489 10.8754
422 "422" 9.0196 74.9020 18.0392 7.4373 13.9236 9.9819
423 "423" 18.0392 74.9020 18.0392 10.2840 17.3246 10.0322
424 "424" 27.0588 74.9020 18.0392 13.0461 20.5908 9.9349
425 "425" 36.0784 74.9020 18.0392 16.6386 24.5836 9.9862
426 "426" 45.0980 74.9020 18.0392 20.3245 28.0980 9.8034
427 "427" 54.5098 74.9020 18.0392 24.8927 32.0468 9.5916
428 "428" 63.5294 74.9020 18.0392 30.4352 36.7342 9.5583
429 "429" 72.5490 74.9020 18.0392 37.2972 42.2235 9.6098
