dlg2/c.ti3
CTI3   

DESCRIPTOR "Argyll Calibration Target chart information 3"
ORIGINATOR "Argyll target"
CREATED "Tue Jul 21 00:53:10 2026"
DEVICE_CLASS "OUTPUT"
TARGET_INSTRUMENT "i1iSis"
COLOR_REP "iRGB_XYZ"

NUMBER_OF_FIELDS 8
BEGIN_DATA_FORMAT
SAMPLE_ID SAMPLE_LOC RGB_R RGB_G RGB_B XYZ_X XYZ_Y XYZ_Z 
END_DATA_FORMAT

NUMBER_OF_SETS 216
BEGIN_DATA
1 "1" 0.00000 0.00000 0.00000 0.954300 1.010800 1.107600 
2 "2" 0.00000 0.00000 20.00000 1.538700 1.229700 4.248900 
3 "3" 0.00000 0.00000 40.00000 3.340000 1.959500 13.60340 
4 "4" 0.00000 0.00000 60.00000 6.660000 3.276200 31.15360 
5 "5" 0.00000 0.00000 80.00000 11.59680 5.237100 57.92730 
6 "6" 0.00000 0.00000 100.0000 18.72650 8.132300 95.21780 
7 "7" 0.00000 20.00000 0.00000 2.097600 3.317300 1.459600 
8 "8" 0.00000 20.00000 20.00000 2.691200 3.555900 4.554500 
9 "9" 0.00000 20.00000 40.00000 4.520000 4.310300 14.02960 
10 "10" 0.00000 20.00000 60.00000 7.799000 5.596900 31.26830 
11 "11" 0.00000 20.00000 80.00000 12.90690 7.681400 58.27030 
12 "12" 0.00000 20.00000 100.0000 19.99270 10.49900 95.95200 
13 "13" 0.00000 40.00000 0.00000 5.639700 10.38830 2.630700 
14 "14" 0.00000 40.00000 20.00000 6.249000 10.68720 5.731900 
15 "15" 0.00000 40.00000 40.00000 8.022500 11.34070 15.27770 
16 "16" 0.00000 40.00000 60.00000 11.30910 12.67110 32.66990 
17 "17" 0.00000 40.00000 80.00000 16.44760 14.70190 59.55840 
18 "18" 0.00000 40.00000 100.0000 23.44730 17.50790 96.96550 
19 "19" 0.00000 60.00000 0.00000 12.22220 23.48660 4.835200 
20 "20" 0.00000 60.00000 20.00000 12.90350 23.87840 7.926700 
21 "21" 0.00000 60.00000 40.00000 14.57820 24.46000 17.26880 
22 "22" 0.00000 60.00000 60.00000 17.97430 25.89900 34.78570 
23 "23" 0.00000 60.00000 80.00000 23.04000 27.80170 61.77100 
24 "24" 0.00000 60.00000 100.0000 29.93970 30.55490 99.01200 
25 "25" 0.00000 80.00000 0.00000 22.49280 44.01220 8.450200 
26 "26" 0.00000 80.00000 20.00000 22.89440 43.99330 11.25180 
27 "27" 0.00000 80.00000 40.00000 24.78500 44.68480 20.64200 
28 "28" 0.00000 80.00000 60.00000 27.96650 45.94560 38.13060 
29 "29" 0.00000 80.00000 80.00000 33.10930 48.17210 65.30940 
30 "30" 0.00000 80.00000 100.0000 40.25690 50.91920 102.6116 
31 "31" 0.00000 100.0000 0.00000 36.36150 71.84410 13.01840 
32 "32" 0.00000 100.0000 20.00000 37.12380 72.15170 16.00140 
33 "33" 0.00000 100.0000 40.00000 38.59360 72.55230 25.09930 
34 "34" 0.00000 100.0000 60.00000 42.17110 74.18620 42.63270 
35 "35" 0.00000 100.0000 80.00000 47.15330 76.29550 69.99330 
36 "36" 0.00000 100.0000 100.0000 54.32860 78.93100 106.5303 
37 "37" 20.00000 0.00000 0.00000 2.313500 1.711500 1.156300 
38 "38" 20.00000 0.00000 20.00000 2.887000 1.927800 4.302200 
39 "39" 20.00000 0.00000 40.00000 4.707800 2.671900 13.83450 
40 "40" 20.00000 0.00000 60.00000 8.093900 4.004800 31.65090 
41 "41" 20.00000 0.00000 80.00000 13.12970 6.043600 58.38890 
42 "42" 20.00000 0.00000 100.0000 20.14710 8.853600 95.07610 
43 "43" 20.00000 20.00000 0.00000 3.466600 4.030600 1.582200 
44 "44" 20.00000 20.00000 20.00000 4.062000 4.253700 4.584100 
45 "45" 20.00000 20.00000 40.00000 5.849700 4.969300 13.98640 
46 "46" 20.00000 20.00000 60.00000 9.163600 6.313800 31.37610 
47 "47" 20.00000 20.00000 80.00000 14.31800 8.419000 58.80650 
48 "48" 20.00000 20.00000 100.0000 21.40100 11.19790 95.86870 
49 "49" 20.00000 40.00000 0.00000 7.064300 11.15770 2.744300 
50 "50" 20.00000 40.00000 20.00000 7.593700 11.29560 5.758500 
51 "51" 20.00000 40.00000 40.00000 9.354100 12.03910 15.15000 
52 "52" 20.00000 40.00000 60.00000 12.66040 13.32090 32.52070 
53 "53" 20.00000 40.00000 80.00000 17.78970 15.48340 59.69720 
54 "54" 20.00000 40.00000 100.0000 25.01760 18.32820 96.56600 
55 "55" 20.00000 60.00000 0.00000 13.57550 24.22550 4.829200 
56 "56" 20.00000 60.00000 20.00000 14.05140 24.37240 7.982100 
57 "57" 20.00000 60.00000 40.00000 15.90860 25.12680 17.44600 
58 "58" 20.00000 60.00000 60.00000 19.22600 26.53300 35.03380 
59 "59" 20.00000 60.00000 80.00000 24.22020 28.39530 61.54680 
60 "60" 20.00000 60.00000 100.0000 31.36360 31.28780 98.87120 
61 "61" 20.00000 80.00000 0.00000 23.68870 44.43950 8.202700 
62 "62" 20.00000 80.00000 20.00000 24.26530 44.58470 11.32420 
63 "63" 20.00000 80.00000 40.00000 25.94180 45.35360 20.72180 
64 "64" 20.00000 80.00000 60.00000 29.40970 46.81370 38.62240 
65 "65" 20.00000 80.00000 80.00000 34.45040 48.61540 64.99390 
66 "66" 20.00000 80.00000 100.0000 41.55650 51.60810 102.0812 
67 "67" 20.00000 100.0000 0.00000 37.62790 72.50820 12.98770 
68 "68" 20.00000 100.0000 20.00000 38.15450 72.70750 16.04130 
69 "69" 20.00000 100.0000 40.00000 40.09660 73.55310 25.45410 
70 "70" 20.00000 100.0000 60.00000 43.58770 74.90100 43.05060 
71 "71" 20.00000 100.0000 80.00000 48.33080 76.73340 69.40340 
72 "72" 20.00000 100.0000 100.0000 55.50080 79.55730 106.5720 
73 "73" 40.00000 0.00000 0.00000 6.397400 3.810000 1.337400 
74 "74" 40.00000 0.00000 20.00000 6.965400 4.022200 4.480200 
75 "75" 40.00000 0.00000 40.00000 8.765300 4.744800 13.74580 
76 "76" 40.00000 0.00000 60.00000 12.06880 6.056100 31.12900 
77 "77" 40.00000 0.00000 80.00000 17.04570 8.060800 58.18160 
78 "78" 40.00000 0.00000 100.0000 24.30730 10.96470 95.26120 
79 "79" 40.00000 20.00000 0.00000 7.573700 6.181400 1.771800 
80 "80" 40.00000 20.00000 20.00000 8.193800 6.408000 4.853900 
81 "81" 40.00000 20.00000 40.00000 9.899100 7.104200 14.27450 
82 "82" 40.00000 20.00000 60.00000 13.03210 8.313200 31.91260 
83 "83" 40.00000 20.00000 80.00000 18.36690 10.45310 58.55610 
84 "84" 40.00000 20.00000 100.0000 25.46210 13.27760 95.99820 
85 "85" 40.00000 40.00000 0.00000 10.97440 13.13770 2.892300 
86 "86" 40.00000 40.00000 20.00000 11.67820 13.45490 5.955100 
87 "87" 40.00000 40.00000 40.00000 13.50400 14.19310 15.52230 
88 "88" 40.00000 40.00000 60.00000 16.77800 15.50280 33.18600 
89 "89" 40.00000 40.00000 80.00000 21.86950 17.46140 59.40350 
90 "90" 40.00000 40.00000 100.0000 28.94670 20.37680 96.88670 
91 "91" 40.00000 60.00000 0.00000 17.79630 26.48940 5.111200 
92 "92" 40.00000 60.00000 20.00000 18.10440 26.42550 8.160300 
93 "93" 40.00000 60.00000 40.00000 19.95380 27.21160 17.47110 
94 "94" 40.00000 60.00000 60.00000 23.36630 28.55490 35.05250 
95 "95" 40.00000 60.00000 80.00000 28.40380 30.71650 61.87470 
96 "96" 40.00000 60.00000 100.0000 35.53670 33.50650 98.92780 
97 "97" 40.00000 80.00000 0.00000 27.80270 46.73020 8.490800 
98 "98" 40.00000 80.00000 20.00000 28.15430 46.60310 11.55490 
99 "99" 40.00000 80.00000 40.00000 30.05900 47.32330 20.87140 
100 "100" 40.00000 80.00000 60.00000 33.49770 48.83990 38.24820 
101 "101" 40.00000 80.00000 80.00000 38.65430 50.98030 65.30190 
102 "102" 40.00000 80.00000 100.0000 45.48410 53.64540 103.0864 
103 "103" 40.00000 100.0000 0.00000 41.85060 74.68100 13.01500 
104 "104" 40.00000 100.0000 20.00000 42.43600 74.82320 16.28130 
105 "105" 40.00000 100.0000 40.00000 43.96480 75.37650 25.68400 
106 "106" 40.00000 100.0000 60.00000 47.63930 76.95860 43.18530 
107 "107" 40.00000 100.0000 80.00000 52.73090 79.01610 70.09300 
108 "108" 40.00000 100.0000 100.0000 59.61710 81.72870 107.5063 
109 "109" 60.00000 0.00000 0.00000 13.98810 7.694500 1.654800 
110 "110" 60.00000 0.00000 20.00000 14.54170 7.958900 4.775900 
111 "111" 60.00000 0.00000 40.00000 16.23970 8.602200 14.07760 
112 "112" 60.00000 0.00000 60.00000 19.74230 10.04310 32.00140 
113 "113" 60.00000 0.00000 80.00000 24.68900 12.03060 58.91270 
114 "114" 60.00000 0.00000 100.0000 32.04350 14.94300 96.10510 
115 "115" 60.00000 20.00000 0.00000 15.09770 10.06230 2.106100 
116 "116" 60.00000 20.00000 20.00000 15.72500 10.33600 5.218800 
117 "117" 60.00000 20.00000 40.00000 17.43990 10.93180 14.46550 
118 "118" 60.00000 20.00000 60.00000 20.92800 12.35020 32.06600 
119 "119" 60.00000 20.00000 80.00000 26.00870 14.42030 58.83470 
120 "120" 60.00000 20.00000 100.0000 33.12120 17.28300 96.53700 
121 "121" 60.00000 40.00000 0.00000 18.69260 17.11090 3.261900 
122 "122" 60.00000 40.00000 20.00000 19.29700 17.36800 6.448500 
123 "123" 60.00000 40.00000 40.00000 20.98930 18.07980 15.74130 
124 "124" 60.00000 40.00000 60.00000 24.33080 19.36390 33.42030 
125 "125" 60.00000 40.00000 80.00000 29.24720 21.32810 59.75820 
126 "126" 60.00000 40.00000 100.0000 36.44180 24.22220 97.16180 
127 "127" 60.00000 60.00000 0.00000 25.36600 30.14310 5.477000 
128 "128" 60.00000 60.00000 20.00000 26.01110 30.62600 8.592800 
129 "129" 60.00000 60.00000 40.00000 27.54390 31.08160 17.85880 
130 "130" 60.00000 60.00000 60.00000 30.94550 32.49770 35.50860 
131 "131" 60.00000 60.00000 80.00000 35.97710 34.59750 62.13930 
132 "132" 60.00000 60.00000 100.0000 43.13260 37.37620 99.51370 
133 "133" 60.00000 80.00000 0.00000 35.37530 50.44460 8.893500 
134 "134" 60.00000 80.00000 20.00000 35.95880 50.81940 12.01410 
135 "135" 60.00000 80.00000 40.00000 37.44990 51.18150 21.17210 
136 "136" 60.00000 80.00000 60.00000 41.13010 52.87020 38.98240 
137 "137" 60.00000 80.00000 80.00000 46.31220 54.86170 65.94140 
138 "138" 60.00000 80.00000 100.0000 53.23190 57.51790 102.3623 
139 "139" 60.00000 100.0000 0.00000 49.14060 78.36330 13.43020 
140 "140" 60.00000 100.0000 20.00000 50.19170 78.94110 16.59250 
141 "141" 60.00000 100.0000 40.00000 51.79930 79.53570 25.86320 
142 "142" 60.00000 100.0000 60.00000 54.99980 80.63340 43.33000 
143 "143" 60.00000 100.0000 80.00000 59.81570 82.56810 70.02280 
144 "144" 60.00000 100.0000 100.0000 67.26290 85.54610 107.0938 
145 "145" 80.00000 0.00000 0.00000 25.66820 13.72420 2.301500 
146 "146" 80.00000 0.00000 20.00000 26.24940 13.95240 5.384800 
147 "147" 80.00000 0.00000 40.00000 27.83240 14.57470 14.56310 
148 "148" 80.00000 0.00000 60.00000 31.29310 16.03170 32.06730 
149 "149" 80.00000 0.00000 80.00000 36.37280 18.02550 58.77730 
150 "150" 80.00000 0.00000 100.0000 43.33140 20.72970 96.05930 
151 "151" 80.00000 20.00000 0.00000 26.83630 16.04970 2.636400 
152 "152" 80.00000 20.00000 20.00000 27.45210 16.35850 5.742000 
153 "153" 80.00000 20.00000 40.00000 29.26630 17.08110 15.23370 
154 "154" 80.00000 20.00000 60.00000 32.42190 18.33530 32.55720 
155 "155" 80.00000 20.00000 80.00000 37.37900 20.26040 59.00790 
156 "156" 80.00000 20.00000 100.0000 44.53510 23.16030 96.70850 
157 "157" 80.00000 40.00000 0.00000 30.30750 23.07120 3.843400 
158 "158" 80.00000 40.00000 20.00000 30.89730 23.29610 6.873200 
159 "159" 80.00000 40.00000 40.00000 32.66800 24.07140 16.22130 
160 "160" 80.00000 40.00000 60.00000 36.07430 25.43240 33.90280 
161 "161" 80.00000 40.00000 80.00000 40.97580 27.37320 60.67310 
162 "162" 80.00000 40.00000 100.0000 48.30090 30.37220 97.55290 
163 "163" 80.00000 60.00000 0.00000 36.93140 36.35370 6.030700 
164 "164" 80.00000 60.00000 20.00000 37.43560 36.38910 9.122800 
165 "165" 80.00000 60.00000 40.00000 39.23830 37.25180 18.65480 
166 "166" 80.00000 60.00000 60.00000 42.64580 38.53740 36.09940 
167 "167" 80.00000 60.00000 80.00000 47.89490 40.70450 63.25420 
168 "168" 80.00000 60.00000 100.0000 54.71110 43.44030 100.4845 
169 "169" 80.00000 80.00000 0.00000 46.81620 56.31310 9.338900 
170 "170" 80.00000 80.00000 20.00000 47.47080 56.65040 12.44480 
171 "171" 80.00000 80.00000 40.00000 49.39390 57.38750 21.76730 
172 "172" 80.00000 80.00000 60.00000 52.46850 58.52090 39.14720 
173 "173" 80.00000 80.00000 80.00000 57.76160 60.81980 66.08080 
174 "174" 80.00000 80.00000 100.0000 64.93590 63.52850 102.9337 
175 "175" 80.00000 100.0000 0.00000 61.32900 84.85280 14.46520 
176 "176" 80.00000 100.0000 20.00000 61.65820 84.78800 17.33400 
177 "177" 80.00000 100.0000 40.00000 63.54340 85.66870 26.72290 
178 "178" 80.00000 100.0000 60.00000 66.63110 86.73290 43.80930 
179 "179" 80.00000 100.0000 80.00000 72.06630 88.98400 71.30420 
180 "180" 80.00000 100.0000 100.0000 78.57740 91.46590 107.4733 
181 "181" 100.0000 0.00000 0.00000 41.68470 22.01860 2.982400 
182 "182" 100.0000 0.00000 20.00000 42.46770 22.35960 6.128500 
183 "183" 100.0000 0.00000 40.00000 44.23540 23.06490 15.62940 
184 "184" 100.0000 0.00000 60.00000 47.65160 24.36780 33.09620 
185 "185" 100.0000 0.00000 80.00000 52.42680 26.30050 60.04080 
186 "186" 100.0000 0.00000 100.0000 59.41910 29.03840 97.07970 
187 "187" 100.0000 20.00000 0.00000 43.11480 24.52860 3.412300 
188 "188" 100.0000 20.00000 20.00000 43.51530 24.53200 6.493700 
189 "189" 100.0000 20.00000 40.00000 45.31720 25.39550 15.94020 
190 "190" 100.0000 20.00000 60.00000 48.81210 26.68950 33.37190 
191 "191" 100.0000 20.00000 80.00000 53.88910 28.75760 60.15490 
192 "192" 100.0000 20.00000 100.0000 60.79530 31.56320 98.10320 
193 "193" 100.0000 40.00000 0.00000 46.29500 31.30450 4.485400 
194 "194" 100.0000 40.00000 20.00000 47.06890 31.64480 7.610700 
195 "195" 100.0000 40.00000 40.00000 49.00360 32.50770 17.20500 
196 "196" 100.0000 40.00000 60.00000 52.16390 33.71320 34.37420 
197 "197" 100.0000 40.00000 80.00000 57.22400 35.84150 61.53080 
198 "198" 100.0000 40.00000 100.0000 64.12180 38.52080 98.22620 
199 "199" 100.0000 60.00000 0.00000 53.08090 44.70410 6.786400 
200 "200" 100.0000 60.00000 20.00000 53.57660 44.87380 9.852700 
201 "201" 100.0000 60.00000 40.00000 55.68150 45.64320 19.38300 
202 "202" 100.0000 60.00000 60.00000 58.09750 46.57650 36.81260 
203 "203" 100.0000 60.00000 80.00000 63.75560 48.89570 63.30680 
204 "204" 100.0000 60.00000 100.0000 71.07210 51.79620 101.3264 
205 "205" 100.0000 80.00000 0.00000 63.30170 65.00020 10.10680 
206 "206" 100.0000 80.00000 20.00000 63.49070 64.91100 13.21000 
207 "207" 100.0000 80.00000 40.00000 65.49560 65.57440 22.62100 
208 "208" 100.0000 80.00000 60.00000 68.90050 67.04870 39.96940 
209 "209" 100.0000 80.00000 80.00000 74.08700 69.19960 67.01920 
210 "210" 100.0000 80.00000 100.0000 81.17240 72.05030 104.3292 
211 "211" 100.0000 100.0000 0.00000 77.37520 93.09570 14.88330 
212 "212" 100.0000 100.0000 20.00000 77.96320 93.06590 17.91930 
213 "213" 100.0000 100.0000 40.00000 79.52230 93.70640 27.03120 
214 "214" 100.0000 100.0000 60.00000 82.88570 95.03000 44.91210 
215 "215" 100.0000 100.0000 80.00000 87.92340 97.33480 71.58540 
216 "216" 100.0000 100.0000 100.0000 94.86840 99.74160 108.9526 
END_DATA
