assets/charts/knut/rgb/scanner/letter_3page/chart.ti1
CTI1   

DESCRIPTOR "Argyll Calibration Target chart information 1"
ORIGINATOR "ChromIQ"
APPROX_WHITE_POINT "95.050000 100.000000 108.900000"
COLOR_REP "iRGB"
WHITE_COLOR_PATCHES "3"
BLACK_COLOR_PATCHES "3"
CREATED "Thu Jul 09 16:53:43 2026"

NUMBER_OF_FIELDS 7
BEGIN_DATA_FORMAT
SAMPLE_ID RGB_R RGB_G RGB_B XYZ_X XYZ_Y XYZ_Z
END_DATA_FORMAT

NUMBER_OF_SETS 9750
BEGIN_DATA
1 0.0000 0.0000 0.0000 0.9505 1.0000 1.0890
2 0.0000 0.0000 5.8824 1.0359 1.0341 1.5385
3 0.0000 0.0000 11.7647 1.1825 1.0928 2.3107
4 0.0000 0.0000 17.6471 1.4194 1.1876 3.5583
5 0.0000 0.0000 23.5294 1.7580 1.3230 5.3410
6 0.0000 0.0000 29.4118 2.2078 1.5029 7.7098
7 0.0000 0.0000 35.2941 2.7775 1.7308 10.7099
8 0.0000 0.0000 41.1765 3.4748 2.0097 14.3818
9 0.0000 0.0000 47.0588 4.3068 2.3425 18.7628
10 0.0000 0.0000 52.9412 5.2799 2.7318 23.8875
11 0.0000 0.0000 58.8235 6.4005 3.1800 29.7882
12 0.0000 0.0000 64.7059 7.6741 3.6894 36.4951
13 0.0000 0.0000 70.5882 9.1063 4.2623 44.0370
14 0.0000 0.0000 76.4706 10.7023 4.9007 52.4414
15 0.0000 0.0000 82.3529 12.4670 5.6066 61.7342
16 0.0000 0.0000 88.2353 14.4052 6.3819 71.9405
17 0.0000 0.0000 94.1176 16.5214 7.2284 83.0842
18 0.0000 0.0000 100.0000 18.8200 8.1478 95.1885
19 0.0000 5.8824 0.0000 1.1196 1.3382 1.1454
20 0.0000 5.8824 5.8824 1.2050 1.3724 1.5949
21 0.0000 5.8824 11.7647 1.3516 1.4310 2.3671
22 0.0000 5.8824 17.6471 1.5885 1.5258 3.6147
23 0.0000 5.8824 23.5294 1.9271 1.6612 5.3974
24 0.0000 5.8824 29.4118 2.3769 1.8412 7.7662
25 0.0000 5.8824 35.2941 2.9466 2.0690 10.7663
26 0.0000 5.8824 41.1765 3.6439 2.3480 14.4382
27 0.0000 5.8824 47.0588 4.4759 2.6807 18.8192
28 0.0000 5.8824 52.9412 5.4491 3.0700 23.9439
29 0.0000 5.8824 58.8235 6.5696 3.5182 29.8445
30 0.0000 5.8824 64.7059 7.8432 4.0277 36.5514
31 0.0000 5.8824 70.5882 9.2755 4.6006 44.0934
32 0.0000 5.8824 76.4706 10.8714 5.2390 52.4978
33 0.0000 5.8824 82.3529 12.6361 5.9448 61.7906
34 0.0000 5.8824 88.2353 14.5743 6.7201 71.9969
35 0.0000 5.8824 94.1176 16.6905 7.5666 83.1406
36 0.0000 5.8824 100.0000 18.9891 8.4860 95.2449
37 0.0000 11.7647 0.0000 1.4101 1.9193 1.2422
38 0.0000 11.7647 5.8824 1.4955 1.9534 1.6917
39 0.0000 11.7647 11.7647 1.6421 2.0121 2.4639
40 0.0000 11.7647 17.6471 1.8790 2.1068 3.7115
41 0.0000 11.7647 23.5294 2.2176 2.2422 5.4942
42 0.0000 11.7647 29.4118 2.6674 2.4222 7.8631
43 0.0000 11.7647 35.2941 3.2371 2.6501 10.8631
44 0.0000 11.7647 41.1765 3.9344 2.9290 14.5350
45 0.0000 11.7647 47.0588 4.7664 3.2618 18.9161
46 0.0000 11.7647 52.9412 5.7396 3.6510 24.0407
47 0.0000 11.7647 58.8235 6.8601 4.0992 29.9414
48 0.0000 11.7647 64.7059 8.1337 4.6087 36.6483
49 0.0000 11.7647 70.5882 9.5660 5.1816 44.1903
50 0.0000 11.7647 76.4706 11.1620 5.8200 52.5946
51 0.0000 11.7647 82.3529 12.9267 6.5259 61.8874
52 0.0000 11.7647 88.2353 14.8648 7.3011 72.0937
53 0.0000 11.7647 94.1176 16.9810 8.1476 83.2374
54 0.0000 11.7647 100.0000 19.2796 9.0671 95.3417
55 0.0000 17.6471 0.0000 1.8795 2.8580 1.3987
56 0.0000 17.6471 5.8824 1.9649 2.8921 1.8482
57 0.0000 17.6471 11.7647 2.1115 2.9508 2.6204
58 0.0000 17.6471 17.6471 2.3484 3.0456 3.8680
59 0.0000 17.6471 23.5294 2.6870 3.1810 5.6507
60 0.0000 17.6471 29.4118 3.1368 3.3609 8.0195
61 0.0000 17.6471 35.2941 3.7065 3.5888 11.0196
62 0.0000 17.6471 41.1765 4.4038 3.8677 14.6915
63 0.0000 17.6471 47.0588 5.2358 4.2005 19.0725
64 0.0000 17.6471 52.9412 6.2089 4.5898 24.1972
65 0.0000 17.6471 58.8235 7.3295 5.0380 30.0978
66 0.0000 17.6471 64.7059 8.6031 5.5475 36.8047
67 0.0000 17.6471 70.5882 10.0353 6.1203 44.3467
68 0.0000 17.6471 76.4706 11.6313 6.7587 52.7511
69 0.0000 17.6471 82.3529 13.3960 7.4646 62.0439
70 0.0000 17.6471 88.2353 15.3342 8.2399 72.2502
71 0.0000 17.6471 94.1176 17.4504 9.0864 83.3939
72 0.0000 17.6471 100.0000 19.7490 10.0058 95.4982
73 0.0000 23.5294 0.0000 2.5502 4.1994 1.6222
74 0.0000 23.5294 5.8824 2.6356 4.2335 2.0717
75 0.0000 23.5294 11.7647 2.7822 4.2922 2.8439
76 0.0000 23.5294 17.6471 3.0191 4.3870 4.0915
77 0.0000 23.5294 23.5294 3.3577 4.5224 5.8742
78 0.0000 23.5294 29.4118 3.8075 4.7023 8.2431
79 0.0000 23.5294 35.2941 4.3772 4.9302 11.2431
80 0.0000 23.5294 41.1765 5.0745 5.2091 14.9150
81 0.0000 23.5294 47.0588 5.9065 5.5419 19.2961
82 0.0000 23.5294 52.9412 6.8796 5.9312 24.4208
83 0.0000 23.5294 58.8235 8.0002 6.3794 30.3214
84 0.0000 23.5294 64.7059 9.2738 6.8888 37.0283
85 0.0000 23.5294 70.5882 10.7060 7.4617 44.5703
86 0.0000 23.5294 76.4706 12.3020 8.1001 52.9746
87 0.0000 23.5294 82.3529 14.0667 8.8060 62.2674
88 0.0000 23.5294 88.2353 16.0049 9.5813 72.4737
89 0.0000 23.5294 94.1176 18.1211 10.4278 83.6174
90 0.0000 23.5294 100.0000 20.4197 11.3472 95.7217
91 0.0000 29.4118 0.0000 3.4414 5.9818 1.9193
92 0.0000 29.4118 5.8824 3.5268 6.0160 2.3688
93 0.0000 29.4118 11.7647 3.6734 6.0746 3.1410
94 0.0000 29.4118 17.6471 3.9103 6.1694 4.3886
95 0.0000 29.4118 23.5294 4.2489 6.3048 6.1713
96 0.0000 29.4118 29.4118 4.6987 6.4848 8.5402
97 0.0000 29.4118 35.2941 5.2684 6.7126 11.5402
98 0.0000 29.4118 41.1765 5.9657 6.9916 15.2121
99 0.0000 29.4118 47.0588 6.7977 7.3243 19.5931
100 0.0000 29.4118 52.9412 7.7709 7.7136 24.7178
101 0.0000 29.4118 58.8235 8.8914 8.1618 30.6185
102 0.0000 29.4118 64.7059 10.1650 8.6713 37.3254
103 0.0000 29.4118 70.5882 11.5973 9.2442 44.8674
104 0.0000 29.4118 76.4706 13.1932 9.8826 53.2717
105 0.0000 29.4118 82.3529 14.9579 10.5884 62.5645
106 0.0000 29.4118 88.2353 16.8961 11.3637 72.7708
107 0.0000 29.4118 94.1176 19.0123 12.2102 83.9145
108 0.0000 29.4118 100.0000 21.3109 13.1296 96.0188
109 0.0000 35.2941 0.0000 4.5701 8.2392 2.2955
110 0.0000 35.2941 5.8824 4.6555 8.2734 2.7450
111 0.0000 35.2941 11.7647 4.8021 8.3320 3.5172
112 0.0000 35.2941 17.6471 5.0390 8.4268 4.7648
113 0.0000 35.2941 23.5294 5.3776 8.5622 6.5475
114 0.0000 35.2941 29.4118 5.8274 8.7421 8.9164
115 0.0000 35.2941 35.2941 6.3971 8.9700 11.9164
116 0.0000 35.2941 41.1765 7.0944 9.2489 15.5883
117 0.0000 35.2941 47.0588 7.9264 9.5817 19.9694
118 0.0000 35.2941 52.9412 8.8995 9.9710 25.0941
119 0.0000 35.2941 58.8235 10.0201 10.4192 30.9947
120 0.0000 35.2941 64.7059 11.2937 10.9287 37.7016
121 0.0000 35.2941 70.5882 12.7259 11.5015 45.2436
122 0.0000 35.2941 76.4706 14.3219 12.1399 53.6479
123 0.0000 35.2941 82.3529 16.0866 12.8458 62.9408
124 0.0000 35.2941 88.2353 18.0248 13.6211 73.1470
125 0.0000 35.2941 94.1176 20.1410 14.4676 84.2907
126 0.0000 35.2941 100.0000 22.4396 15.3870 96.3950
127 0.0000 41.1765 0.0000 5.9516 11.0021 2.7560
128 0.0000 41.1765 5.8824 6.0369 11.0363 3.2055
129 0.0000 41.1765 11.7647 6.1836 11.0949 3.9777
130 0.0000 41.1765 17.6471 6.4205 11.1897 5.2253
131 0.0000 41.1765 23.5294 6.7590 11.3251 7.0080
132 0.0000 41.1765 29.4118 7.2089 11.5050 9.3769
133 0.0000 41.1765 35.2941 7.7786 11.7329 12.3769
134 0.0000 41.1765 41.1765 8.4759 12.0118 16.0488
135 0.0000 41.1765 47.0588 9.3078 12.3446 20.4299
136 0.0000 41.1765 52.9412 10.2810 12.7339 25.5546
137 0.0000 41.1765 58.8235 11.4015 13.1821 31.4552
138 0.0000 41.1765 64.7059 12.6752 13.6916 38.1621
139 0.0000 41.1765 70.5882 14.1074 14.2645 45.7041
140 0.0000 41.1765 76.4706 15.7034 14.9028 54.1084
141 0.0000 41.1765 82.3529 17.4681 15.6087 63.4012
142 0.0000 41.1765 88.2353 19.4063 16.3840 73.6075
143 0.0000 41.1765 94.1176 21.5225 17.2305 84.7512
144 0.0000 41.1765 100.0000 23.8211 18.1499 96.8555
145 0.0000 47.0588 0.0000 7.5998 14.2986 3.3054
146 0.0000 47.0588 5.8824 7.6852 14.3328 3.7549
147 0.0000 47.0588 11.7647 7.8318 14.3914 4.5271
148 0.0000 47.0588 17.6471 8.0687 14.4862 5.7747
149 0.0000 47.0588 23.5294 8.4073 14.6216 7.5574
150 0.0000 47.0588 29.4118 8.8571 14.8015 9.9263
151 0.0000 47.0588 35.2941 9.4268 15.0294 12.9263
152 0.0000 47.0588 41.1765 10.1241 15.3083 16.5982
153 0.0000 47.0588 47.0588 10.9561 15.6411 20.9793
154 0.0000 47.0588 52.9412 11.9292 16.0304 26.1040
155 0.0000 47.0588 58.8235 13.0498 16.4786 32.0046
156 0.0000 47.0588 64.7059 14.3234 16.9881 38.7115
157 0.0000 47.0588 70.5882 15.7556 17.5609 46.2535
158 0.0000 47.0588 76.4706 17.3516 18.1993 54.6578
159 0.0000 47.0588 82.3529 19.1163 18.9052 63.9507
160 0.0000 47.0588 88.2353 21.0545 19.6805 74.1569
161 0.0000 47.0588 94.1176 23.1707 20.5270 85.3006
162 0.0000 47.0588 100.0000 25.4693 21.4464 97.4049
163 0.0000 52.9412 0.0000 9.5278 18.1547 3.9481
164 0.0000 52.9412 5.8824 9.6132 18.1888 4.3976
165 0.0000 52.9412 11.7647 9.7598 18.2475 5.1698
166 0.0000 52.9412 17.6471 9.9968 18.3422 6.4174
167 0.0000 52.9412 23.5294 10.3353 18.4776 8.2001
168 0.0000 52.9412 29.4118 10.7851 18.6576 10.5690
169 0.0000 52.9412 35.2941 11.3548 18.8855 13.5690
170 0.0000 52.9412 41.1765 12.0521 19.1644 17.2409
171 0.0000 52.9412 47.0588 12.8841 19.4972 21.6220
172 0.0000 52.9412 52.9412 13.8573 19.8864 26.7466
173 0.0000 52.9412 58.8235 14.9778 20.3347 32.6473
174 0.0000 52.9412 64.7059 16.2514 20.8441 39.3542
175 0.0000 52.9412 70.5882 17.6837 21.4170 46.8962
176 0.0000 52.9412 76.4706 19.2797 22.0554 55.3005
177 0.0000 52.9412 82.3529 21.0444 22.7613 64.5933
178 0.0000 52.9412 88.2353 22.9825 23.5365 74.7996
179 0.0000 52.9412 94.1176 25.0987 24.3830 85.9433
180 0.0000 52.9412 100.0000 27.3973 25.3025 98.0476
181 0.0000 58.8235 0.0000 11.7478 22.5946 4.6881
182 0.0000 58.8235 5.8824 11.8331 22.6287 5.1376
183 0.0000 58.8235 11.7647 11.9798 22.6874 5.9098
184 0.0000 58.8235 17.6471 12.2167 22.7821 7.1574
185 0.0000 58.8235 23.5294 12.5552 22.9175 8.9401
186 0.0000 58.8235 29.4118 13.0051 23.0975 11.3089
187 0.0000 58.8235 35.2941 13.5748 23.3254 14.3090
188 0.0000 58.8235 41.1765 14.2721 23.6043 17.9809
189 0.0000 58.8235 47.0588 15.1040 23.9371 22.3619
190 0.0000 58.8235 52.9412 16.0772 24.3263 27.4866
191 0.0000 58.8235 58.8235 17.1978 24.7746 33.3872
192 0.0000 58.8235 64.7059 18.4714 25.2840 40.0942
193 0.0000 58.8235 70.5882 19.9036 25.8569 47.6361
194 0.0000 58.8235 76.4706 21.4996 26.4953 56.0405
195 0.0000 58.8235 82.3529 23.2643 27.2012 65.3333
196 0.0000 58.8235 88.2353 25.2025 27.9764 75.5396
197 0.0000 58.8235 94.1176 27.3187 28.8229 86.6833
198 0.0000 58.8235 100.0000 29.6173 29.7424 98.7876
199 0.0000 64.7059 0.0000 14.2711 27.6412 5.5292
200 0.0000 64.7059 5.8824 14.3564 27.6753 5.9787
201 0.0000 64.7059 11.7647 14.5031 27.7340 6.7509
202 0.0000 64.7059 17.6471 14.7400 27.8287 7.9985
203 0.0000 64.7059 23.5294 15.0785 27.9641 9.7812
204 0.0000 64.7059 29.4118 15.5284 28.1441 12.1500
205 0.0000 64.7059 35.2941 16.0981 28.3720 15.1501
206 0.0000 64.7059 41.1765 16.7954 28.6509 18.8220
207 0.0000 64.7059 47.0588 17.6273 28.9837 23.2030
208 0.0000 64.7059 52.9412 18.6005 29.3729 28.3277
209 0.0000 64.7059 58.8235 19.7211 29.8212 34.2283
210 0.0000 64.7059 64.7059 20.9947 30.3306 40.9353
211 0.0000 64.7059 70.5882 22.4269 30.9035 48.4772
212 0.0000 64.7059 76.4706 24.0229 31.5419 56.8816
213 0.0000 64.7059 82.3529 25.7876 32.2478 66.1744
214 0.0000 64.7059 88.2353 27.7258 33.0230 76.3807
215 0.0000 64.7059 94.1176 29.8420 33.8695 87.5244
216 0.0000 64.7059 100.0000 32.1406 34.7890 99.6287
217 0.0000 70.5882 0.0000 17.1085 33.3161 6.4750
218 0.0000 70.5882 5.8824 17.1939 33.3502 6.9245
219 0.0000 70.5882 11.7647 17.3405 33.4089 7.6967
220 0.0000 70.5882 17.6471 17.5775 33.5037 8.9443
221 0.0000 70.5882 23.5294 17.9160 33.6391 10.7270
222 0.0000 70.5882 29.4118 18.3658 33.8190 13.0959
223 0.0000 70.5882 35.2941 18.9356 34.0469 16.0959
224 0.0000 70.5882 41.1765 19.6328 34.3258 19.7678
225 0.0000 70.5882 47.0588 20.4648 34.6586 24.1489
226 0.0000 70.5882 52.9412 21.4380 35.0479 29.2735
227 0.0000 70.5882 58.8235 22.5585 35.4961 35.1742
228 0.0000 70.5882 64.7059 23.8322 36.0055 41.8811
229 0.0000 70.5882 70.5882 25.2644 36.5784 49.4231
230 0.0000 70.5882 76.4706 26.8604 37.2168 57.8274
231 0.0000 70.5882 82.3529 28.6251 37.9227 67.1202
232 0.0000 70.5882 88.2353 30.5632 38.6980 77.3265
233 0.0000 70.5882 94.1176 32.6794 39.5444 88.4702
234 0.0000 70.5882 100.0000 34.9780 40.4639 100.5745
235 0.0000 76.4706 0.0000 20.2705 39.6399 7.5290
236 0.0000 76.4706 5.8824 20.3558 39.6741 7.9785
237 0.0000 76.4706 11.7647 20.5025 39.7327 8.7507
238 0.0000 76.4706 17.6471 20.7394 39.8275 9.9983
239 0.0000 76.4706 23.5294 21.0779 39.9629 11.7810
240 0.0000 76.4706 29.4118 21.5278 40.1428 14.1498
241 0.0000 76.4706 35.2941 22.0975 40.3707 17.1499
242 0.0000 76.4706 41.1765 22.7948 40.6496 20.8218
243 0.0000 76.4706 47.0588 23.6267 40.9824 25.2028
244 0.0000 76.4706 52.9412 24.5999 41.3717 30.3275
245 0.0000 76.4706 58.8235 25.7204 41.8199 36.2281
246 0.0000 76.4706 64.7059 26.9941 42.3294 42.9351
247 0.0000 76.4706 70.5882 28.4263 42.9022 50.4770
248 0.0000 76.4706 76.4706 30.0223 43.5406 58.8814
249 0.0000 76.4706 82.3529 31.7870 44.2465 68.1742
250 0.0000 76.4706 88.2353 33.7252 45.0218 78.3805
251 0.0000 76.4706 94.1176 35.8414 45.8683 89.5242
252 0.0000 76.4706 100.0000 38.1400 46.7877 101.6285
253 0.0000 82.3529 0.0000 23.7666 46.6323 8.6944
254 0.0000 82.3529 5.8824 23.8520 46.6664 9.1439
255 0.0000 82.3529 11.7647 23.9986 46.7251 9.9161
256 0.0000 82.3529 17.6471 24.2355 46.8198 11.1637
257 0.0000 82.3529 23.5294 24.5741 46.9552 12.9464
258 0.0000 82.3529 29.4118 25.0239 47.1352 15.3152
259 0.0000 82.3529 35.2941 25.5936 47.3631 18.3153
260 0.0000 82.3529 41.1765 26.2909 47.6420 21.9872
261 0.0000 82.3529 47.0588 27.1229 47.9748 26.3682
262 0.0000 82.3529 52.9412 28.0961 48.3640 31.4929
263 0.0000 82.3529 58.8235 29.2166 48.8122 37.3935
264 0.0000 82.3529 64.7059 30.4902 49.3217 44.1005
265 0.0000 82.3529 70.5882 31.9225 49.8946 51.6424
266 0.0000 82.3529 76.4706 33.5185 50.5330 60.0468
267 0.0000 82.3529 82.3529 35.2832 51.2389 69.3396
268 0.0000 82.3529 88.2353 37.2213 52.0141 79.5459
269 0.0000 82.3529 94.1176 39.3375 52.8606 90.6896
270 0.0000 82.3529 100.0000 41.6361 53.7801 102.7939
271 0.0000 88.2353 0.0000 27.6065 54.3119 9.9743
272 0.0000 88.2353 5.8824 27.6918 54.3461 10.4238
273 0.0000 88.2353 11.7647 27.8385 54.4047 11.1960
274 0.0000 88.2353 17.6471 28.0754 54.4995 12.4436
275 0.0000 88.2353 23.5294 28.4139 54.6349 14.2263
276 0.0000 88.2353 29.4118 28.8638 54.8148 16.5952
277 0.0000 88.2353 35.2941 29.4335 55.0427 19.5952
278 0.0000 88.2353 41.1765 30.1308 55.3216 23.2671
279 0.0000 88.2353 47.0588 30.9627 55.6544 27.6482
280 0.0000 88.2353 52.9412 31.9359 56.0437 32.7729
281 0.0000 88.2353 58.8235 33.0564 56.4919 38.6735
282 0.0000 88.2353 64.7059 34.3301 57.0014 45.3804
283 0.0000 88.2353 70.5882 35.7623 57.5743 52.9224
284 0.0000 88.2353 76.4706 37.3583 58.2127 61.3267
285 0.0000 88.2353 82.3529 39.1230 58.9185 70.6195
286 0.0000 88.2353 88.2353 41.0612 59.6938 80.8258
287 0.0000 88.2353 94.1176 43.1774 60.5403 91.9695
288 0.0000 88.2353 100.0000 45.4760 61.4597 104.0738
289 0.0000 94.1176 0.0000 31.7990 62.6970 11.3718
290 0.0000 94.1176 5.8824 31.8843 62.7311 11.8213
291 0.0000 94.1176 11.7647 32.0310 62.7898 12.5935
292 0.0000 94.1176 17.6471 32.2679 62.8845 13.8411
293 0.0000 94.1176 23.5294 32.6064 63.0200 15.6238
294 0.0000 94.1176 29.4118 33.0563 63.1999 17.9927
295 0.0000 94.1176 35.2941 33.6260 63.4278 20.9927
296 0.0000 94.1176 41.1765 34.3233 63.7067 24.6646
297 0.0000 94.1176 47.0588 35.1553 64.0395 29.0457
298 0.0000 94.1176 52.9412 36.1284 64.4288 34.1704
299 0.0000 94.1176 58.8235 37.2490 64.8770 40.0710
300 0.0000 94.1176 64.7059 38.5226 65.3864 46.7779
301 0.0000 94.1176 70.5882 39.9548 65.9593 54.3199
302 0.0000 94.1176 76.4706 41.5508 66.5977 62.7242
303 0.0000 94.1176 82.3529 43.3155 67.3036 72.0170
304 0.0000 94.1176 88.2353 45.2537 68.0789 82.2233
305 0.0000 94.1176 94.1176 47.3699 68.9253 93.3670
306 0.0000 94.1176 100.0000 49.6685 69.8448 105.4713
307 0.0000 100.0000 0.0000 36.3529 71.8048 12.8898
308 0.0000 100.0000 5.8824 36.4383 71.8389 13.3393
309 0.0000 100.0000 11.7647 36.5849 71.8976 14.1115
310 0.0000 100.0000 17.6471 36.8218 71.9924 15.3591
311 0.0000 100.0000 23.5294 37.1604 72.1278 17.1418
312 0.0000 100.0000 29.4118 37.6102 72.3077 19.5106
313 0.0000 100.0000 35.2941 38.1799 72.5356 22.5107
314 0.0000 100.0000 41.1765 38.8772 72.8145 26.1826
315 0.0000 100.0000 47.0588 39.7092 73.1473 30.5636
316 0.0000 100.0000 52.9412 40.6823 73.5366 35.6883
317 0.0000 100.0000 58.8235 41.8029 73.9848 41.5890
318 0.0000 100.0000 64.7059 43.0765 74.4942 48.2959
319 0.0000 100.0000 70.5882 44.5087 75.0671 55.8378
320 0.0000 100.0000 76.4706 46.1047 75.7055 64.2422
321 0.0000 100.0000 82.3529 47.8694 76.4114 73.5350
322 0.0000 100.0000 88.2353 49.8076 77.1867 83.7413
323 0.0000 100.0000 94.1176 51.9238 78.0332 94.8850
324 0.0000 100.0000 100.0000 54.2224 78.9526 106.9893
325 5.8824 0.0000 0.0000 1.1455 1.1005 1.0981
326 5.8824 0.0000 5.8824 1.2309 1.1347 1.5476
327 5.8824 0.0000 11.7647 1.3775 1.1933 2.3198
328 5.8824 0.0000 17.6471 1.6144 1.2881 3.5674
329 5.8824 0.0000 23.5294 1.9530 1.4235 5.3501
330 5.8824 0.0000 29.4118 2.4028 1.6035 7.7190
331 5.8824 0.0000 35.2941 2.9725 1.8313 10.7190
332 5.8824 0.0000 41.1765 3.6698 2.1103 14.3909
333 5.8824 0.0000 47.0588 4.5018 2.4430 18.7720
334 5.8824 0.0000 52.9412 5.4750 2.8323 23.8967
335 5.8824 0.0000 58.8235 6.5955 3.2805 29.7973
336 5.8824 0.0000 64.7059 7.8691 3.7900 36.5042
337 5.8824 0.0000 70.5882 9.3014 4.3629 44.0462
338 5.8824 0.0000 76.4706 10.8974 5.0013 52.4505
339 5.8824 0.0000 82.3529 12.6621 5.7072 61.7433
340 5.8824 0.0000 88.2353 14.6002 6.4824 71.9496
341 5.8824 0.0000 94.1176 16.7164 7.3289 83.0933
342 5.8824 0.0000 100.0000 19.0150 8.2483 95.1976
343 5.8824 5.8824 0.0000 1.3146 1.4388 1.1545
344 5.8824 5.8824 5.8824 1.4000 1.4729 1.6040
345 5.8824 5.8824 11.7647 1.5466 1.5316 2.3762
346 5.8824 5.8824 17.6471 1.7836 1.6263 3.6238
347 5.8824 5.8824 23.5294 2.1221 1.7618 5.4065
348 5.8824 5.8824 29.4118 2.5719 1.9417 7.7753
349 5.8824 5.8824 35.2941 3.1417 2.1696 10.7754
350 5.8824 5.8824 41.1765 3.8390 2.4485 14.4473
351 5.8824 5.8824 47.0588 4.6709 2.7813 18.8283
352 5.8824 5.8824 52.9412 5.6441 3.1706 23.9530
353 5.8824 5.8824 58.8235 6.7646 3.6188 29.8537
354 5.8824 5.8824 64.7059 8.0383 4.1282 36.5606
355 5.8824 5.8824 70.5882 9.4705 4.7011 44.1025
356 5.8824 5.8824 76.4706 11.0665 5.3395 52.5069
357 5.8824 5.8824 82.3529 12.8312 6.0454 61.7997
358 5.8824 5.8824 88.2353 14.7693 6.8207 72.0060
359 5.8824 5.8824 94.1176 16.8855 7.6671 83.1497
360 5.8824 5.8824 100.0000 19.1841 8.5866 95.2540
361 5.8824 11.7647 0.0000 1.6052 2.0198 1.2513
362 5.8824 11.7647 5.8824 1.6905 2.0539 1.7008
363 5.8824 11.7647 11.7647 1.8372 2.1126 2.4730
364 5.8824 11.7647 17.6471 2.0741 2.2074 3.7206
365 5.8824 11.7647 23.5294 2.4126 2.3428 5.5033
366 5.8824 11.7647 29.4118 2.8625 2.5227 7.8722
367 5.8824 11.7647 35.2941 3.4322 2.7506 10.8722
368 5.8824 11.7647 41.1765 4.1295 3.0295 14.5441
369 5.8824 11.7647 47.0588 4.9614 3.3623 18.9252
370 5.8824 11.7647 52.9412 5.9346 3.7516 24.0499
371 5.8824 11.7647 58.8235 7.0551 4.1998 29.9505
372 5.8824 11.7647 64.7059 8.3288 4.7092 36.6574
373 5.8824 11.7647 70.5882 9.7610 5.2821 44.1994
374 5.8824 11.7647 76.4706 11.3570 5.9205 52.6037
375 5.8824 11.7647 82.3529 13.1217 6.6264 61.8966
376 5.8824 11.7647 88.2353 15.0599 7.4017 72.1028
377 5.8824 11.7647 94.1176 17.1761 8.2482 83.2465
378 5.8824 11.7647 100.0000 19.4747 9.1676 95.3508
379 5.8824 17.6471 0.0000 2.0745 2.9585 1.4078
380 5.8824 17.6471 5.8824 2.1599 2.9927 1.8573
381 5.8824 17.6471 11.7647 2.3065 3.0513 2.6295
382 5.8824 17.6471 17.6471 2.5435 3.1461 3.8771
383 5.8824 17.6471 23.5294 2.8820 3.2815 5.6598
384 5.8824 17.6471 29.4118 3.3318 3.4615 8.0286
385 5.8824 17.6471 35.2941 3.9015 3.6894 11.0287
386 5.8824 17.6471 41.1765 4.5988 3.9683 14.7006
387 5.8824 17.6471 47.0588 5.4308 4.3011 19.0816
388 5.8824 17.6471 52.9412 6.4040 4.6903 24.2063
389 5.8824 17.6471 58.8235 7.5245 5.1385 30.1069
390 5.8824 17.6471 64.7059 8.7981 5.6480 36.8139
391 5.8824 17.6471 70.5882 10.2304 6.2209 44.3558
392 5.8824 17.6471 76.4706 11.8264 6.8593 52.7602
393 5.8824 17.6471 82.3529 13.5911 7.5652 62.0530
394 5.8824 17.6471 88.2353 15.5292 8.3404 72.2593
395 5.8824 17.6471 94.1176 17.6454 9.1869 83.4030
396 5.8824 17.6471 100.0000 19.9440 10.1063 95.5073
397 5.8824 23.5294 0.0000 2.7452 4.2999 1.6314
398 5.8824 23.5294 5.8824 2.8306 4.3341 2.0809
399 5.8824 23.5294 11.7647 2.9772 4.3927 2.8531
400 5.8824 23.5294 17.6471 3.2141 4.4875 4.1006
401 5.8824 23.5294 23.5294 3.5527 4.6229 5.8834
402 5.8824 23.5294 29.4118 4.0025 4.8029 8.2522
403 5.8824 23.5294 35.2941 4.5722 5.0307 11.2523
404 5.8824 23.5294 41.1765 5.2695 5.3097 14.9242
405 5.8824 23.5294 47.0588 6.1015 5.6424 19.3052
406 5.8824 23.5294 52.9412 7.0747 6.0317 24.4299
407 5.8824 23.5294 58.8235 8.1952 6.4799 30.3305
408 5.8824 23.5294 64.7059 9.4688 6.9894 37.0374
409 5.8824 23.5294 70.5882 10.9011 7.5623 44.5794
410 5.8824 23.5294 76.4706 12.4971 8.2007 52.9838
411 5.8824 23.5294 82.3529 14.2618 8.9066 62.2766
412 5.8824 23.5294 88.2353 16.1999 9.6818 72.4828
413 5.8824 23.5294 94.1176 18.3161 10.5283 83.6266
414 5.8824 23.5294 100.0000 20.6147 11.4477 95.7309
415 5.8824 29.4118 0.0000 3.6364 6.0824 1.9284
416 5.8824 29.4118 5.8824 3.7218 6.1165 2.3779
417 5.8824 29.4118 11.7647 3.8684 6.1752 3.1501
418 5.8824 29.4118 17.6471 4.1054 6.2699 4.3977
419 5.8824 29.4118 23.5294 4.4439 6.4054 6.1804
420 5.8824 29.4118 29.4118 4.8937 6.5853 8.5493
421 5.8824 29.4118 35.2941 5.4635 6.8132 11.5493
422 5.8824 29.4118 41.1765 6.1608 7.0921 15.2212
423 5.8824 29.4118 47.0588 6.9927 7.4249 19.6023
424 5.8824 29.4118 52.9412 7.9659 7.8142 24.7270
425 5.8824 29.4118 58.8235 9.0864 8.2624 30.6276
426 5.8824 29.4118 64.7059 10.3601 8.7718 37.3345
427 5.8824 29.4118 70.5882 11.7923 9.3447 44.8765
428 5.8824 29.4118 76.4706 13.3883 9.9831 53.2808
429 5.8824 29.4118 82.3529 15.1530 10.6890 62.5736
430 5.8824 29.4118 88.2353 17.0911 11.4643 72.7799
431 5.8824 29.4118 94.1176 19.2073 12.3107 83.9236
432 5.8824 29.4118 100.0000 21.5059 13.2302 96.0279
433 5.8824 35.2941 0.0000 4.7651 8.3397 2.3047
434 5.8824 35.2941 5.8824 4.8505 8.3739 2.7542
435 5.8824 35.2941 11.7647 4.9971 8.4325 3.5264
436 5.8824 35.2941 17.6471 5.2341 8.5273 4.7739
437 5.8824 35.2941 23.5294 5.5726 8.6627 6.5567
438 5.8824 35.2941 29.4118 6.0224 8.8427 8.9255
439 5.8824 35.2941 35.2941 6.5921 9.0706 11.9256
440 5.8824 35.2941 41.1765 7.2894 9.3495 15.5975
441 5.8824 35.2941 47.0588 8.1214 9.6823 19.9785
442 5.8824 35.2941 52.9412 9.0946 10.0715 25.1032
443 5.8824 35.2941 58.8235 10.2151 10.5197 31.0038
444 5.8824 35.2941 64.7059 11.4888 11.0292 37.7107
445 5.8824 35.2941 70.5882 12.9210 11.6021 45.2527
446 5.8824 35.2941 76.4706 14.5170 12.2405 53.6571
447 5.8824 35.2941 82.3529 16.2817 12.9464 62.9499
448 5.8824 35.2941 88.2353 18.2198 13.7216 73.1561
449 5.8824 35.2941 94.1176 20.3360 14.5681 84.2999
450 5.8824 35.2941 100.0000 22.6346 15.4875 96.4042
451 5.8824 41.1765 0.0000 6.1466 11.1027 2.7651
452 5.8824 41.1765 5.8824 6.2320 11.1368 3.2147
453 5.8824 41.1765 11.7647 6.3786 11.1955 3.9868
454 5.8824 41.1765 17.6471 6.6155 11.2902 5.2344
455 5.8824 41.1765 23.5294 6.9540 11.4256 7.0171
456 5.8824 41.1765 29.4118 7.4039 11.6056 9.3860
457 5.8824 41.1765 35.2941 7.9736 11.8335 12.3860
458 5.8824 41.1765 41.1765 8.6709 12.1124 16.0580
459 5.8824 41.1765 47.0588 9.5029 12.4452 20.4390
460 5.8824 41.1765 52.9412 10.4760 12.8344 25.5637
461 5.8824 41.1765 58.8235 11.5966 13.2826 31.4643
462 5.8824 41.1765 64.7059 12.8702 13.7921 38.1712
463 5.8824 41.1765 70.5882 14.3024 14.3650 45.7132
464 5.8824 41.1765 76.4706 15.8984 15.0034 54.1175
465 5.8824 41.1765 82.3529 17.6631 15.7093 63.4104
466 5.8824 41.1765 88.2353 19.6013 16.4845 73.6166
467 5.8824 41.1765 94.1176 21.7175 17.3310 84.7604
468 5.8824 41.1765 100.0000 24.0161 18.2505 96.8646
469 5.8824 47.0588 0.0000 7.7948 14.3992 3.3146
470 5.8824 47.0588 5.8824 7.8802 14.4333 3.7641
471 5.8824 47.0588 11.7647 8.0268 14.4920 4.5363
472 5.8824 47.0588 17.6471 8.2638 14.5867 5.7838
473 5.8824 47.0588 23.5294 8.6023 14.7221 7.5666
474 5.8824 47.0588 29.4118 9.0521 14.9021 9.9354
475 5.8824 47.0588 35.2941 9.6218 15.1300 12.9355
476 5.8824 47.0588 41.1765 10.3191 15.4089 16.6074
477 5.8824 47.0588 47.0588 11.1511 15.7417 20.9884
