assets/charts/knut/rgb/widegamut/colormunki_a3plus_1190p_1page_portrait/chart.ti1
CTI1   

DESCRIPTOR "Argyll Calibration Target chart information 1"
ORIGINATOR "ChromIQ"
APPROX_WHITE_POINT "95.050000 100.000000 108.900000"
COLOR_REP "iRGB"
WHITE_COLOR_PATCHES "3"
BLACK_COLOR_PATCHES "3"
CREATED "Tue Jun 16 16:15:32 2026"

NUMBER_OF_FIELDS 7
BEGIN_DATA_FORMAT
SAMPLE_ID RGB_R RGB_G RGB_B XYZ_X XYZ_Y XYZ_Z
END_DATA_FORMAT

NUMBER_OF_SETS 1190
BEGIN_DATA
1 0.0000 0.0000 0.0000 0.9505 1.0000 1.0890
2 0.0000 0.0000 14.2857 1.2723 1.1287 2.7834
3 0.0000 0.0000 28.5714 2.1364 1.4744 7.3338
4 0.0000 0.0000 42.8571 3.6985 2.0992 15.5596
5 0.0000 0.0000 57.1429 6.0649 3.0458 28.0213
6 0.0000 0.0000 71.4286 9.3242 4.3495 45.1843
7 0.0000 0.0000 85.7143 13.5530 6.0410 67.4530
8 0.0000 0.0000 100.0000 18.8200 8.1478 95.1885
9 0.0000 14.2857 0.0000 1.5880 2.2750 1.3015
10 0.0000 14.2857 14.2857 1.9098 2.4037 2.9959
11 0.0000 14.2857 28.5714 2.7739 2.7493 7.5463
12 0.0000 14.2857 42.8571 4.3360 3.3742 15.7721
13 0.0000 14.2857 57.1429 6.7024 4.3207 28.2338
14 0.0000 14.2857 71.4286 9.9617 5.6244 45.3967
15 0.0000 14.2857 85.7143 14.1905 7.3160 67.6655
16 0.0000 14.2857 100.0000 19.4575 9.4228 95.4010
17 0.0000 28.5714 0.0000 3.2999 5.6989 1.8721
18 0.0000 28.5714 14.2857 3.6217 5.8276 3.5666
19 0.0000 28.5714 28.5714 4.4858 6.1732 8.1169
20 0.0000 28.5714 42.8571 6.0479 6.7981 16.3428
21 0.0000 28.5714 57.1429 8.4144 7.7446 28.8044
22 0.0000 28.5714 71.4286 11.6736 9.0483 45.9674
23 0.0000 28.5714 85.7143 15.9025 10.7399 68.2361
24 0.0000 28.5714 100.0000 21.1694 12.8467 95.9716
25 0.0000 42.8571 0.0000 6.3947 11.8884 2.9037
26 0.0000 42.8571 14.2857 6.7165 12.0171 4.5982
27 0.0000 42.8571 28.5714 7.5806 12.3627 9.1485
28 0.0000 42.8571 42.8571 9.1426 12.9875 17.3743
29 0.0000 42.8571 57.1429 11.5091 13.9341 29.8360
30 0.0000 42.8571 71.4286 14.7684 15.2378 46.9990
31 0.0000 42.8571 85.7143 18.9972 16.9294 69.2677
32 0.0000 42.8571 100.0000 24.2642 19.0362 97.0032
33 0.0000 57.1429 0.0000 11.0830 21.2651 4.4665
34 0.0000 57.1429 14.2857 11.4048 21.3938 6.1610
35 0.0000 57.1429 28.5714 12.2689 21.7394 10.7113
36 0.0000 57.1429 42.8571 13.8310 22.3643 18.9371
37 0.0000 57.1429 57.1429 16.1975 23.3109 31.3988
38 0.0000 57.1429 71.4286 19.4567 24.6146 48.5618
39 0.0000 57.1429 85.7143 23.6856 26.3061 70.8305
40 0.0000 57.1429 100.0000 28.9525 28.4129 98.5660
41 0.0000 71.4286 0.0000 17.5401 34.1793 6.6189
42 0.0000 71.4286 14.2857 17.8619 34.3080 8.3133
43 0.0000 71.4286 28.5714 18.7260 34.6537 12.8637
44 0.0000 71.4286 42.8571 20.2881 35.2785 21.0895
45 0.0000 71.4286 57.1429 22.6546 36.2251 33.5512
46 0.0000 71.4286 71.4286 25.9138 37.5288 50.7141
47 0.0000 71.4286 85.7143 30.1427 39.2203 72.9828
48 0.0000 71.4286 100.0000 35.4096 41.3271 100.7184
49 0.0000 85.7143 0.0000 25.9182 50.9353 9.4116
50 0.0000 85.7143 14.2857 26.2399 51.0640 11.1060
51 0.0000 85.7143 28.5714 27.1040 51.4097 15.6563
52 0.0000 85.7143 42.8571 28.6661 52.0345 23.8822
53 0.0000 85.7143 57.1429 31.0326 52.9811 36.3438
54 0.0000 85.7143 71.4286 34.2918 54.2848 53.5068
55 0.0000 85.7143 85.7143 38.5207 55.9763 75.7755
56 0.0000 85.7143 100.0000 43.7877 58.0831 103.5111
57 0.0000 100.0000 0.0000 36.3529 71.8048 12.8898
58 0.0000 100.0000 14.2857 36.6747 71.9335 14.5842
59 0.0000 100.0000 28.5714 37.5388 72.2792 19.1346
60 0.0000 100.0000 42.8571 39.1009 72.9040 27.3604
61 0.0000 100.0000 57.1429 41.4673 73.8506 39.8221
62 0.0000 100.0000 71.4286 44.7266 75.1543 56.9851
63 0.0000 100.0000 85.7143 48.9554 76.8458 79.2538
64 0.0000 100.0000 100.0000 54.2224 78.9526 106.9893
65 14.2857 0.0000 0.0000 1.6857 1.3790 1.1234
66 14.2857 0.0000 14.2857 2.0075 1.5077 2.8178
67 14.2857 0.0000 28.5714 2.8716 1.8534 7.3682
68 14.2857 0.0000 42.8571 4.4336 2.4782 15.5940
69 14.2857 0.0000 57.1429 6.8001 3.4248 28.0557
70 14.2857 0.0000 71.4286 10.0594 4.7285 45.2187
71 14.2857 0.0000 85.7143 14.2882 6.4200 67.4874
72 14.2857 0.0000 100.0000 19.5552 8.5268 95.2229
73 14.2857 14.2857 0.0000 2.3232 2.6540 1.3359
74 14.2857 14.2857 14.2857 2.6449 2.7827 3.0303
75 14.2857 14.2857 28.5714 3.5091 3.1283 7.5807
76 14.2857 14.2857 42.8571 5.0711 3.7532 15.8065
77 14.2857 14.2857 57.1429 7.4376 4.6997 28.2682
78 14.2857 14.2857 71.4286 10.6969 6.0034 45.4312
79 14.2857 14.2857 85.7143 14.9257 7.6950 67.6999
80 14.2857 14.2857 100.0000 20.1927 9.8018 95.4354
81 14.2857 28.5714 0.0000 4.0351 6.0779 1.9066
82 14.2857 28.5714 14.2857 4.3569 6.2066 3.6010
83 14.2857 28.5714 28.5714 5.2210 6.5522 8.1513
84 14.2857 28.5714 42.8571 6.7831 7.1771 16.3772
85 14.2857 28.5714 57.1429 9.1496 8.1236 28.8388
86 14.2857 28.5714 71.4286 12.4088 9.4273 46.0018
87 14.2857 28.5714 85.7143 16.6376 11.1189 68.2705
88 14.2857 28.5714 100.0000 21.9046 13.2257 96.0061
89 14.2857 42.8571 0.0000 7.1299 12.2674 2.9381
90 14.2857 42.8571 14.2857 7.4516 12.3961 4.6326
91 14.2857 42.8571 28.5714 8.3157 12.7417 9.1829
92 14.2857 42.8571 42.8571 9.8778 13.3665 17.4087
93 14.2857 42.8571 57.1429 12.2443 14.3131 29.8704
94 14.2857 42.8571 71.4286 15.5035 15.6168 47.0334
95 14.2857 42.8571 85.7143 19.7324 17.3084 69.3021
96 14.2857 42.8571 100.0000 24.9994 19.4152 97.0376
97 14.2857 57.1429 0.0000 11.8182 21.6441 4.5009
98 14.2857 57.1429 14.2857 12.1400 21.7728 6.1954
99 14.2857 57.1429 28.5714 13.0041 22.1184 10.7457
100 14.2857 57.1429 42.8571 14.5662 22.7433 18.9715
101 14.2857 57.1429 57.1429 16.9327 23.6899 31.4332
102 14.2857 57.1429 71.4286 20.1919 24.9936 48.5962
103 14.2857 57.1429 85.7143 24.4207 26.6851 70.8649
104 14.2857 57.1429 100.0000 29.6877 28.7919 98.6004
105 14.2857 71.4286 0.0000 18.2753 34.5583 6.6533
106 14.2857 71.4286 14.2857 18.5971 34.6870 8.3477
107 14.2857 71.4286 28.5714 19.4612 35.0327 12.8981
108 14.2857 71.4286 42.8571 21.0233 35.6575 21.1239
109 14.2857 71.4286 57.1429 23.3898 36.6041 33.5856
110 14.2857 71.4286 71.4286 26.6490 37.9078 50.7485
111 14.2857 71.4286 85.7143 30.8778 39.5993 73.0172
112 14.2857 71.4286 100.0000 36.1448 41.7061 100.7528
113 14.2857 85.7143 0.0000 26.6533 51.3143 9.4460
114 14.2857 85.7143 14.2857 26.9751 51.4430 11.1404
115 14.2857 85.7143 28.5714 27.8392 51.7887 15.6908
116 14.2857 85.7143 42.8571 29.4013 52.4135 23.9166
117 14.2857 85.7143 57.1429 31.7678 53.3601 36.3782
118 14.2857 85.7143 71.4286 35.0270 54.6638 53.5412
119 14.2857 85.7143 85.7143 39.2558 56.3553 75.8099
120 14.2857 85.7143 100.0000 44.5228 58.4621 103.5455
121 14.2857 100.0000 0.0000 37.0881 72.1838 12.9242
122 14.2857 100.0000 14.2857 37.4099 72.3125 14.6186
123 14.2857 100.0000 28.5714 38.2740 72.6582 19.1690
124 14.2857 100.0000 42.8571 39.8360 73.2830 27.3948
125 14.2857 100.0000 57.1429 42.2025 74.2296 39.8565
126 14.2857 100.0000 71.4286 45.4618 75.5333 57.0195
127 14.2857 100.0000 85.7143 49.6906 77.2248 79.2882
128 14.2857 100.0000 100.0000 54.9576 79.3316 107.0237
129 28.5714 0.0000 0.0000 3.6600 2.3968 1.2158
130 28.5714 0.0000 14.2857 3.9817 2.5255 2.9102
131 28.5714 0.0000 28.5714 4.8459 2.8711 7.4606
132 28.5714 0.0000 42.8571 6.4079 3.4960 15.6864
133 28.5714 0.0000 57.1429 8.7744 4.4426 28.1481
134 28.5714 0.0000 71.4286 12.0337 5.7463 45.3111
135 28.5714 0.0000 85.7143 16.2625 7.4378 67.5798
136 28.5714 0.0000 100.0000 21.5295 9.5446 95.3153
137 28.5714 14.2857 0.0000 4.2975 3.6718 1.4283
138 28.5714 14.2857 14.2857 4.6192 3.8005 3.1227
139 28.5714 14.2857 28.5714 5.4833 4.1461 7.6731
140 28.5714 14.2857 42.8571 7.0454 4.7709 15.8989
141 28.5714 14.2857 57.1429 9.4119 5.7175 28.3606
142 28.5714 14.2857 71.4286 12.6711 7.0212 45.5235
143 28.5714 14.2857 85.7143 16.9000 8.7128 67.7923
144 28.5714 14.2857 100.0000 22.1670 10.8196 95.5278
145 28.5714 28.5714 0.0000 6.0094 7.0957 1.9989
146 28.5714 28.5714 14.2857 6.3312 7.2244 3.6934
147 28.5714 28.5714 28.5714 7.1953 7.5700 8.2437
148 28.5714 28.5714 42.8571 8.7574 8.1948 16.4696
149 28.5714 28.5714 57.1429 11.1239 9.1414 28.9312
150 28.5714 28.5714 71.4286 14.3831 10.4451 46.0942
151 28.5714 28.5714 85.7143 18.6119 12.1367 68.3629
152 28.5714 28.5714 100.0000 23.8789 14.2435 96.0984
153 28.5714 42.8571 0.0000 9.1042 13.2851 3.0305
154 28.5714 42.8571 14.2857 9.4259 13.4139 4.7250
155 28.5714 42.8571 28.5714 10.2900 13.7595 9.2753
156 28.5714 42.8571 42.8571 11.8521 14.3843 17.5011
157 28.5714 42.8571 57.1429 14.2186 15.3309 29.9628
158 28.5714 42.8571 71.4286 17.4778 16.6346 47.1258
159 28.5714 42.8571 85.7143 21.7067 18.3261 69.3945
160 28.5714 42.8571 100.0000 26.9737 20.4329 97.1300
161 28.5714 57.1429 0.0000 13.7925 22.6619 4.5933
162 28.5714 57.1429 14.2857 14.1143 22.7906 6.2878
163 28.5714 57.1429 28.5714 14.9784 23.1362 10.8381
164 28.5714 57.1429 42.8571 16.5405 23.7611 19.0639
165 28.5714 57.1429 57.1429 18.9070 24.7077 31.5256
166 28.5714 57.1429 71.4286 22.1662 26.0114 48.6886
167 28.5714 57.1429 85.7143 26.3950 27.7029 70.9573
168 28.5714 57.1429 100.0000 31.6620 29.8097 98.6928
169 28.5714 71.4286 0.0000 20.2496 35.5761 6.7457
170 28.5714 71.4286 14.2857 20.5714 35.7048 8.4401
171 28.5714 71.4286 28.5714 21.4355 36.0504 12.9905
172 28.5714 71.4286 42.8571 22.9976 36.6753 21.2163
173 28.5714 71.4286 57.1429 25.3641 37.6219 33.6780
174 28.5714 71.4286 71.4286 28.6233 38.9256 50.8409
175 28.5714 71.4286 85.7143 32.8521 40.6171 73.1096
176 28.5714 71.4286 100.0000 38.1191 42.7239 100.8452
177 28.5714 85.7143 0.0000 28.6276 52.3321 9.5384
178 28.5714 85.7143 14.2857 28.9494 52.4608 11.2328
179 28.5714 85.7143 28.5714 29.8135 52.8064 15.7831
180 28.5714 85.7143 42.8571 31.3756 53.4313 24.0090
181 28.5714 85.7143 57.1429 33.7421 54.3779 36.4706
182 28.5714 85.7143 71.4286 37.0013 55.6816 53.6336
183 28.5714 85.7143 85.7143 41.2301 57.3731 75.9023
184 28.5714 85.7143 100.0000 46.4971 59.4799 103.6379
185 28.5714 100.0000 0.0000 39.0624 73.2016 13.0166
186 28.5714 100.0000 14.2857 39.3841 73.3303 14.7110
187 28.5714 100.0000 28.5714 40.2483 73.6759 19.2614
188 28.5714 100.0000 42.8571 41.8103 74.3008 27.4872
189 28.5714 100.0000 57.1429 44.1768 75.2474 39.9489
190 28.5714 100.0000 71.4286 47.4361 76.5511 57.1119
191 28.5714 100.0000 85.7143 51.6649 78.2426 79.3806
192 28.5714 100.0000 100.0000 56.9319 80.3494 107.1161
193 42.8571 0.0000 0.0000 7.2290 4.2367 1.3828
194 42.8571 0.0000 14.2857 7.5507 4.3654 3.0773
195 42.8571 0.0000 28.5714 8.4149 4.7110 7.6276
196 42.8571 0.0000 42.8571 9.9769 5.3359 15.8534
197 42.8571 0.0000 57.1429 12.3434 6.2824 28.3151
198 42.8571 0.0000 71.4286 15.6027 7.5861 45.4781
199 42.8571 0.0000 85.7143 19.8315 9.2777 67.7468
200 42.8571 0.0000 100.0000 25.0985 11.3845 95.4823
201 42.8571 14.2857 0.0000 7.8665 5.5116 1.5953
202 42.8571 14.2857 14.2857 8.1882 5.6403 3.2898
203 42.8571 14.2857 28.5714 9.0523 5.9860 7.8401
204 42.8571 14.2857 42.8571 10.6144 6.6108 16.0659
205 42.8571 14.2857 57.1429 12.9809 7.5574 28.5276
206 42.8571 14.2857 71.4286 16.2401 8.8611 45.6906
207 42.8571 14.2857 85.7143 20.4690 10.5526 67.9593
208 42.8571 14.2857 100.0000 25.7360 12.6594 95.6948
209 42.8571 28.5714 0.0000 9.5784 8.9355 2.1660
210 42.8571 28.5714 14.2857 9.9002 9.0642 3.8604
211 42.8571 28.5714 28.5714 10.7643 9.4099 8.4108
212 42.8571 28.5714 42.8571 12.3264 10.0347 16.6366
213 42.8571 28.5714 57.1429 14.6928 10.9813 29.0983
214 42.8571 28.5714 71.4286 17.9521 12.2850 46.2612
215 42.8571 28.5714 85.7143 22.1809 13.9765 68.5299
216 42.8571 28.5714 100.0000 27.4479 16.0833 96.2655
217 42.8571 42.8571 0.0000 12.6731 15.1250 3.1976
218 42.8571 42.8571 14.2857 12.9949 15.2537 4.8920
219 42.8571 42.8571 28.5714 13.8590 15.5994 9.4423
220 42.8571 42.8571 42.8571 15.4211 16.2242 17.6682
221 42.8571 42.8571 57.1429 17.7876 17.1708 30.1298
222 42.8571 42.8571 71.4286 21.0468 18.4745 47.2928
223 42.8571 42.8571 85.7143 25.2757 20.1660 69.5615
224 42.8571 42.8571 100.0000 30.5426 22.2728 97.2971
225 42.8571 57.1429 0.0000 17.3615 24.5018 4.7603
226 42.8571 57.1429 14.2857 17.6833 24.6305 6.4548
227 42.8571 57.1429 28.5714 18.5474 24.9761 11.0051
228 42.8571 57.1429 42.8571 20.1095 25.6009 19.2310
229 42.8571 57.1429 57.1429 22.4760 26.5475 31.6926
230 42.8571 57.1429 71.4286 25.7352 27.8512 48.8556
231 42.8571 57.1429 85.7143 29.9640 29.5428 71.1243
232 42.8571 57.1429 100.0000 35.2310 31.6496 98.8598
233 42.8571 71.4286 0.0000 23.8186 37.4160 6.9127
234 42.8571 71.4286 14.2857 24.1404 37.5447 8.6071
235 42.8571 71.4286 28.5714 25.0045 37.8903 13.1575
236 42.8571 71.4286 42.8571 26.5666 38.5152 21.3833
237 42.8571 71.4286 57.1429 28.9331 39.4617 33.8450
238 42.8571 71.4286 71.4286 32.1923 40.7654 51.0080
239 42.8571 71.4286 85.7143 36.4211 42.4570 73.2767
240 42.8571 71.4286 100.0000 41.6881 44.5638 101.0122
241 42.8571 85.7143 0.0000 32.1966 54.1720 9.7054
242 42.8571 85.7143 14.2857 32.5184 54.3007 11.3998
243 42.8571 85.7143 28.5714 33.3825 54.6463 15.9502
244 42.8571 85.7143 42.8571 34.9446 55.2712 24.1760
245 42.8571 85.7143 57.1429 37.3111 56.2177 36.6377
246 42.8571 85.7143 71.4286 40.5703 57.5214 53.8006
247 42.8571 85.7143 85.7143 44.7991 59.2130 76.0693
248 42.8571 85.7143 100.0000 50.0661 61.3198 103.8049
249 42.8571 100.0000 0.0000 42.6314 75.0415 13.1836
250 42.8571 100.0000 14.2857 42.9531 75.1702 14.8781
251 42.8571 100.0000 28.5714 43.8173 75.5158 19.4284
252 42.8571 100.0000 42.8571 45.3793 76.1407 27.6542
253 42.8571 100.0000 57.1429 47.7458 77.0872 40.1159
254 42.8571 100.0000 71.4286 51.0051 78.3909 57.2789
255 42.8571 100.0000 85.7143 55.2339 80.0825 79.5476
256 42.8571 100.0000 100.0000 60.5009 82.1893 107.2831
257 57.1429 0.0000 0.0000 12.6358 7.0240 1.6359
258 57.1429 0.0000 14.2857 12.9576 7.1527 3.3303
259 57.1429 0.0000 28.5714 13.8217 7.4983 7.8807
260 57.1429 0.0000 42.8571 15.3838 8.1232 16.1065
261 57.1429 0.0000 57.1429 17.7502 9.0698 28.5681
262 57.1429 0.0000 71.4286 21.0095 10.3735 45.7311
263 57.1429 0.0000 85.7143 25.2383 12.0650 67.9998
264 57.1429 0.0000 100.0000 30.5053 14.1718 95.7354
265 57.1429 14.2857 0.0000 13.2733 8.2990 1.8484
266 57.1429 14.2857 14.2857 13.5951 8.4277 3.5428
267 57.1429 14.2857 28.5714 14.4592 8.7733 8.0932
268 57.1429 14.2857 42.8571 16.0213 9.3982 16.3190
269 57.1429 14.2857 57.1429 18.3877 10.3447 28.7806
270 57.1429 14.2857 71.4286 21.6470 11.6484 45.9436
271 57.1429 14.2857 85.7143 25.8758 13.3400 68.2123
272 57.1429 14.2857 100.0000 31.1428 15.4468 95.9479
273 57.1429 28.5714 0.0000 14.9852 11.7229 2.4190
274 57.1429 28.5714 14.2857 15.3070 11.8516 4.1134
275 57.1429 28.5714 28.5714 16.1711 12.1972 8.6638
276 57.1429 28.5714 42.8571 17.7332 12.8221 16.8896
277 57.1429 28.5714 57.1429 20.0997 13.7686 29.3513
278 57.1429 28.5714 71.4286 23.3589 15.0723 46.5143
279 57.1429 28.5714 85.7143 27.5878 16.7639 68.7830
280 57.1429 28.5714 100.0000 32.8547 18.8707 96.5185
281 57.1429 42.8571 0.0000 18.0800 17.9123 3.4506
282 57.1429 42.8571 14.2857 18.4017 18.0411 5.1450
283 57.1429 42.8571 28.5714 19.2659 18.3867 9.6954
284 57.1429 42.8571 42.8571 20.8279 19.0115 17.9212
285 57.1429 42.8571 57.1429 23.1944 19.9581 30.3829
286 57.1429 42.8571 71.4286 26.4537 21.2618 47.5458
287 57.1429 42.8571 85.7143 30.6825 22.9534 69.8145
288 57.1429 42.8571 100.0000 35.9495 25.0601 97.5501
289 57.1429 57.1429 0.0000 22.7683 27.2891 5.0134
290 57.1429 57.1429 14.2857 23.0901 27.4178 6.7078
291 57.1429 57.1429 28.5714 23.9542 27.7634 11.2582
292 57.1429 57.1429 42.8571 25.5163 28.3883 19.4840
293 57.1429 57.1429 57.1429 27.8828 29.3349 31.9457
294 57.1429 57.1429 71.4286 31.1420 30.6386 49.1086
295 57.1429 57.1429 85.7143 35.3709 32.3301 71.3773
296 57.1429 57.1429 100.0000 40.6378 34.4369 99.1129
297 57.1429 71.4286 0.0000 29.2254 40.2033 7.1657
298 57.1429 71.4286 14.2857 29.5472 40.3320 8.8602
299 57.1429 71.4286 28.5714 30.4113 40.6776 13.4105
300 57.1429 71.4286 42.8571 31.9734 41.3025 21.6364
301 57.1429 71.4286 57.1429 34.3399 42.2491 34.0980
302 57.1429 71.4286 71.4286 37.5991 43.5528 51.2610
303 57.1429 71.4286 85.7143 41.8280 45.2443 73.5297
304 57.1429 71.4286 100.0000 47.0949 47.3511 101.2652
305 57.1429 85.7143 0.0000 37.6034 56.9593 9.9584
306 57.1429 85.7143 14.2857 37.9252 57.0880 11.6529
307 57.1429 85.7143 28.5714 38.7893 57.4336 16.2032
308 57.1429 85.7143 42.8571 40.3514 58.0585 24.4290
309 57.1429 85.7143 57.1429 42.7179 59.0051 36.8907
310 57.1429 85.7143 71.4286 45.9771 60.3088 54.0537
311 57.1429 85.7143 85.7143 50.2060 62.0003 76.3224
312 57.1429 85.7143 100.0000 55.4729 64.1071 104.0579
313 57.1429 100.0000 0.0000 48.0382 77.8288 13.4367
314 57.1429 100.0000 14.2857 48.3600 77.9575 15.1311
315 57.1429 100.0000 28.5714 49.2241 78.3031 19.6815
316 57.1429 100.0000 42.8571 50.7862 78.9280 27.9073
317 57.1429 100.0000 57.1429 53.1526 79.8746 40.3689
318 57.1429 100.0000 71.4286 56.4119 81.1783 57.5319
319 57.1429 100.0000 85.7143 60.6407 82.8698 79.8006
320 57.1429 100.0000 100.0000 65.9077 84.9766 107.5362
321 71.4286 0.0000 0.0000 20.0824 10.8629 1.9844
322 71.4286 0.0000 14.2857 20.4042 10.9916 3.6788
323 71.4286 0.0000 28.5714 21.2683 11.3372 8.2292
324 71.4286 0.0000 42.8571 22.8304 11.9621 16.4550
325 71.4286 0.0000 57.1429 25.1969 12.9086 28.9166
326 71.4286 0.0000 71.4286 28.4561 14.2123 46.0796
327 71.4286 0.0000 85.7143 32.6849 15.9039 68.3483
328 71.4286 0.0000 100.0000 37.9519 18.0107 96.0839
329 71.4286 14.2857 0.0000 20.7199 12.1378 2.1969
330 71.4286 14.2857 14.2857 21.0417 12.2665 3.8913
331 71.4286 14.2857 28.5714 21.9058 12.6122 8.4416
332 71.4286 14.2857 42.8571 23.4679 13.2370 16.6675
333 71.4286 14.2857 57.1429 25.8343 14.1836 29.1291
334 71.4286 14.2857 71.4286 29.0936 15.4873 46.2921
335 71.4286 14.2857 85.7143 33.3224 17.1788 68.5608
336 71.4286 14.2857 100.0000 38.5894 19.2856 96.2964
337 71.4286 28.5714 0.0000 22.4318 15.5617 2.7675
338 71.4286 28.5714 14.2857 22.7536 15.6904 4.4619
339 71.4286 28.5714 28.5714 23.6177 16.0361 9.0123
340 71.4286 28.5714 42.8571 25.1798 16.6609 17.2381
341 71.4286 28.5714 57.1429 27.5463 17.6075 29.6998
342 71.4286 28.5714 71.4286 30.8055 18.9112 46.8628
343 71.4286 28.5714 85.7143 35.0344 20.6027 69.1315
344 71.4286 28.5714 100.0000 40.3013 22.7095 96.8670
345 71.4286 42.8571 0.0000 25.5266 21.7512 3.7991
346 71.4286 42.8571 14.2857 25.8484 21.8799 5.4935
347 71.4286 42.8571 28.5714 26.7125 22.2256 10.0439
348 71.4286 42.8571 42.8571 28.2746 22.8504 18.2697
349 71.4286 42.8571 57.1429 30.6410 23.7970 30.7314
350 71.4286 42.8571 71.4286 33.9003 25.1007 47.8943
351 71.4286 42.8571 85.7143 38.1291 26.7922 70.1630
352 71.4286 42.8571 100.0000 43.3961 28.8990 97.8986
353 71.4286 57.1429 0.0000 30.2150 31.1280 5.3619
354 71.4286 57.1429 14.2857 30.5367 31.2567 7.0563
355 71.4286 57.1429 28.5714 31.4008 31.6023 11.6067
356 71.4286 57.1429 42.8571 32.9629 32.2271 19.8325
357 71.4286 57.1429 57.1429 35.3294 33.1737 32.2942
358 71.4286 57.1429 71.4286 38.5886 34.4774 49.4571
359 71.4286 57.1429 85.7143 42.8175 36.1690 71.7258
360 71.4286 57.1429 100.0000 48.0845 38.2758 99.4614
361 71.4286 71.4286 0.0000 36.6721 44.0422 7.5142
362 71.4286 71.4286 14.2857 36.9938 44.1709 9.2087
363 71.4286 71.4286 28.5714 37.8579 44.5165 13.7590
364 71.4286 71.4286 42.8571 39.4200 45.1413 21.9849
365 71.4286 71.4286 57.1429 41.7865 46.0879 34.4465
366 71.4286 71.4286 71.4286 45.0458 47.3916 51.6095
367 71.4286 71.4286 85.7143 49.2746 49.0832 73.8782
368 71.4286 71.4286 100.0000 54.5416 51.1900 101.6137
369 71.4286 85.7143 0.0000 45.0501 60.7982 10.3069
370 71.4286 85.7143 14.2857 45.3718 60.9269 12.0013
371 71.4286 85.7143 28.5714 46.2359 61.2725 16.5517
372 71.4286 85.7143 42.8571 47.7980 61.8974 24.7775
373 71.4286 85.7143 57.1429 50.1645 62.8439 37.2392
374 71.4286 85.7143 71.4286 53.4238 64.1476 54.4022
375 71.4286 85.7143 85.7143 57.6526 65.8392 76.6709
376 71.4286 85.7143 100.0000 62.9196 67.9460 104.4064
377 71.4286 100.0000 0.0000 55.4848 81.6677 13.7852
378 71.4286 100.0000 14.2857 55.8066 81.7964 15.4796
379 71.4286 100.0000 28.5714 56.6707 82.1420 20.0300
380 71.4286 100.0000 42.8571 58.2328 82.7669 28.2558
381 71.4286 100.0000 57.1429 60.5993 83.7134 40.7174
382 71.4286 100.0000 71.4286 63.8585 85.0171 57.8804
383 71.4286 100.0000 85.7143 68.0873 86.7087 80.1491
384 71.4286 100.0000 100.0000 73.3543 88.8155 107.8847
385 85.7143 0.0000 0.0000 29.7443 15.8437 2.4365
386 85.7143 0.0000 14.2857 30.0661 15.9725 4.1310
387 85.7143 0.0000 28.5714 30.9302 16.3181 8.6813
388 85.7143 0.0000 42.8571 32.4923 16.9429 16.9071
389 85.7143 0.0000 57.1429 34.8587 17.8895 29.3688
390 85.7143 0.0000 71.4286 38.1180 19.1932 46.5318
391 85.7143 0.0000 85.7143 42.3468 20.8848 68.8005
392 85.7143 0.0000 100.0000 47.6138 22.9915 96.5360
393 85.7143 14.2857 0.0000 30.3818 17.1187 2.6490
394 85.7143 14.2857 14.2857 30.7035 17.2474 4.3435
395 85.7143 14.2857 28.5714 31.5677 17.5931 8.8938
396 85.7143 14.2857 42.8571 33.1297 18.2179 17.1196
397 85.7143 14.2857 57.1429 35.4962 19.1645 29.5813
398 85.7143 14.2857 71.4286 38.7555 20.4682 46.7443
399 85.7143 14.2857 85.7143 42.9843 22.1597 69.0130
400 85.7143 14.2857 100.0000 48.2513 24.2665 96.7485
401 85.7143 28.5714 0.0000 32.0937 20.5426 3.2197
402 85.7143 28.5714 14.2857 32.4155 20.6713 4.9141
403 85.7143 28.5714 28.5714 33.2796 21.0170 9.4645
404 85.7143 28.5714 42.8571 34.8417 21.6418 17.6903
405 85.7143 28.5714 57.1429 37.2082 22.5884 30.1520
406 85.7143 28.5714 71.4286 40.4674 23.8921 47.3149
407 85.7143 28.5714 85.7143 44.6962 25.5836 69.5836
408 85.7143 28.5714 100.0000 49.9632 27.6904 97.3192
409 85.7143 42.8571 0.0000 35.1885 26.7321 4.2513
410 85.7143 42.8571 14.2857 35.5102 26.8608 5.9457
411 85.7143 42.8571 28.5714 36.3744 27.2065 10.4960
412 85.7143 42.8571 42.8571 37.9364 27.8313 18.7219
413 85.7143 42.8571 57.1429 40.3029 28.7779 31.1835
414 85.7143 42.8571 71.4286 43.5622 30.0816 48.3465
415 85.7143 42.8571 85.7143 47.7910 31.7731 70.6152
416 85.7143 42.8571 100.0000 53.0580 33.8799 98.3508
417 85.7143 57.1429 0.0000 39.8768 36.1088 5.8140
418 85.7143 57.1429 14.2857 40.1986 36.2375 7.5085
419 85.7143 57.1429 28.5714 41.0627 36.5832 12.0588
420 85.7143 57.1429 42.8571 42.6248 37.2080 20.2847
421 85.7143 57.1429 57.1429 44.9913 38.1546 32.7463
422 85.7143 57.1429 71.4286 48.2505 39.4583 49.9093
423 85.7143 57.1429 85.7143 52.4794 41.1498 72.1780
424 85.7143 57.1429 100.0000 57.7463 43.2566 99.9135
425 85.7143 71.4286 0.0000 46.3339 49.0230 7.9664
426 85.7143 71.4286 14.2857 46.6557 49.1518 9.6608
427 85.7143 71.4286 28.5714 47.5198 49.4974 14.2112
428 85.7143 71.4286 42.8571 49.0819 50.1222 22.4370
429 85.7143 71.4286 57.1429 51.4484 51.0688 34.8987
430 85.7143 71.4286 71.4286 54.7076 52.3725 52.0617
431 85.7143 71.4286 85.7143 58.9365 54.0640 74.3304
432 85.7143 71.4286 100.0000 64.2034 56.1708 102.0659
433 85.7143 85.7143 0.0000 54.7119 65.7790 10.7591
434 85.7143 85.7143 14.2857 55.0337 65.9078 12.4535
435 85.7143 85.7143 28.5714 55.8978 66.2534 17.0039
436 85.7143 85.7143 42.8571 57.4599 66.8782 25.2297
437 85.7143 85.7143 57.1429 59.8264 67.8248 37.6914
438 85.7143 85.7143 71.4286 63.0856 69.1285 54.8543
439 85.7143 85.7143 85.7143 67.3145 70.8201 77.1230
440 85.7143 85.7143 100.0000 72.5814 72.9268 104.8586
441 85.7143 100.0000 0.0000 65.1467 86.6485 14.2373
442 85.7143 100.0000 14.2857 65.4685 86.7773 15.9318
443 85.7143 100.0000 28.5714 66.3326 87.1229 20.4821
444 85.7143 100.0000 42.8571 67.8947 87.7477 28.7079
445 85.7143 100.0000 57.1429 70.2611 88.6943 41.1696
446 85.7143 100.0000 71.4286 73.5204 89.9980 58.3326
447 85.7143 100.0000 85.7143 77.7492 91.6896 80.6013
448 85.7143 100.0000 100.0000 83.0162 93.7963 108.3368
449 100.0000 0.0000 0.0000 41.7781 22.0474 2.9997
450 100.0000 0.0000 14.2857 42.0999 22.1761 4.6941
451 100.0000 0.0000 28.5714 42.9640 22.5218 9.2445
452 100.0000 0.0000 42.8571 44.5261 23.1466 17.4703
453 100.0000 0.0000 57.1429 46.8925 24.0932 29.9320
454 100.0000 0.0000 71.4286 50.1518 25.3969 47.0950
455 100.0000 0.0000 85.7143 54.3806 27.0884 69.3637
456 100.0000 0.0000 100.0000 59.6476 29.1952 97.0992
457 100.0000 14.2857 0.0000 42.4156 23.3224 3.2122
458 100.0000 14.2857 14.2857 42.7374 23.4511 4.9066
459 100.0000 14.2857 28.5714 43.6015 23.7967 9.4570
460 100.0000 14.2857 42.8571 45.1636 24.4216 17.6828
461 100.0000 14.2857 57.1429 47.5300 25.3681 30.1445
462 100.0000 14.2857 71.4286 50.7893 26.6718 47.3074
