tests/golden/project_v1/Golden-Printer/runs/run1/Golden-Printer.ti1
CTI1

BEGIN_DATA_FORMAT
SAMPLE_ID RGB_R RGB_G RGB_B
END_DATA_FORMAT
BEGIN_DATA
1 100.0 0.0 0.0
2 0.0 100.0 0.0
END_DATA
