assets/charts/tc918-grays.ti1
CTI1
DESCRIPTOR "Argyll Calibration Target chart information 1"
ORIGINATOR "Argyll targen"
CREATED "Tue Apr 01 18:56:54 2025"
APPROX_WHITE_POINT "95.106486 100.000000 108.844025"
COLOR_REP "iRGB"
WHITE_COLOR_PATCHES "4"
BLACK_COLOR_PATCHES "4"
OFPS_PATCHES "217"

NUMBER_OF_FIELDS 7
BEGIN_DATA_FORMAT
SAMPLE_ID RGB_R RGB_G RGB_B XYZ_X XYZ_Y XYZ_Z
END_DATA_FORMAT

NUMBER_OF_SETS 1156
BEGIN_DATA
1 0.0 0.0 0.0 0.0 0.0 0.0
2 0.0 12.54902 0.0 0.005165 0.01033 0.001722
3 0.0 25.09804 0.0 0.018333 0.036665 0.006111
4 0.0 37.64706 0.0 0.041826 0.083652 0.013942
5 0.0 50.19608 0.0 0.077187 0.154373 0.025729
6 0.0 62.7451 0.0 0.1257 0.251399 0.0419
7 0.0 75.29412 0.0 0.188484 0.376968 0.062828
8 0.0 87.84314 0.0 0.266539 0.533077 0.088846
9 0.0 100.0 0.0 0.357576 0.715152 0.119192
10 0.0 0.0 12.54902 0.002606 0.001042 0.013726
11 0.0 12.54902 12.54902 0.007771 0.011372 0.015448
12 0.0 25.09804 12.54902 0.020939 0.037708 0.019837
13 0.0 37.64706 12.54902 0.044432 0.084694 0.027668
14 0.0 50.19608 12.54902 0.079793 0.155416 0.039455
15 0.0 62.7451 12.54902 0.128306 0.252442 0.055626
16 0.0 75.29412 12.54902 0.19109 0.37801 0.076554
17 0.0 87.84314 12.54902 0.269145 0.53412 0.102572
18 0.0 100.0 12.54902 0.360182 0.716195 0.132918
19 0.0 0.0 25.09804 0.009251 0.0037 0.048722
20 0.0 12.54902 25.09804 0.014416 0.01403 0.050443
21 0.0 25.09804 25.09804 0.027584 0.040366 0.054832
22 0.0 37.64706 25.09804 0.051077 0.087352 0.062664
23 0.0 50.19608 25.09804 0.086437 0.158073 0.07445
24 0.0 62.7451 25.09804 0.134951 0.2551 0.090621
25 0.0 75.29412 25.09804 0.197735 0.380668 0.111549
26 0.0 87.84314 25.09804 0.27579 0.536778 0.137568
27 0.0 100.0 25.09804 0.366827 0.718853 0.167914
28 12.54902 0.0 0.0 0.005957 0.003072 0.000279
29 12.54902 12.54902 0.0 0.011122 0.013401 0.002001
30 12.54902 25.09804 0.0 0.02429 0.039737 0.00639
31 12.54902 37.64706 0.0 0.047783 0.086724 0.014221
32 12.54902 50.19608 0.0 0.083144 0.157445 0.026008
33 12.54902 62.7451 0.0 0.131657 0.254471 0.042179
34 12.54902 75.29412 0.0 0.194441 0.380039 0.063107
35 12.54902 87.84314 0.0 0.272496 0.536149 0.089125
36 12.54902 100.0 0.0 0.363534 0.718224 0.119471
37 12.54902 0.0 12.54902 0.008564 0.004114 0.014005
38 12.54902 12.54902 12.54902 0.013728 0.014444 0.015727
39 12.54902 25.09804 12.54902 0.026896 0.04078 0.020116
40 12.54902 37.64706 12.54902 0.05039 0.087766 0.027947
41 12.54902 50.19608 12.54902 0.08575 0.158487 0.039734
42 12.54902 62.7451 12.54902 0.134263 0.255514 0.055905
43 12.54902 75.29412 12.54902 0.197047 0.381082 0.076833
44 12.54902 87.84314 12.54902 0.275102 0.537192 0.102852
45 12.54902 100.0 12.54902 0.36614 0.719266 0.133197
46 12.54902 0.0 25.09804 0.015208 0.006772 0.049001
47 12.54902 12.54902 25.09804 0.020373 0.017102 0.050722
48 12.54902 25.09804 25.09804 0.033541 0.043438 0.055112
49 12.54902 37.64706 25.09804 0.057034 0.090424 0.062943
50 12.54902 50.19608 25.09804 0.092395 0.161145 0.07473
51 12.54902 62.7451 25.09804 0.140908 0.258172 0.090901
52 12.54902 75.29412 25.09804 0.203692 0.38374 0.111829
53 12.54902 87.84314 25.09804 0.281747 0.53985 0.137847
54 12.54902 100.0 25.09804 0.372784 0.721924 0.168193
55 25.09804 0.0 0.0 0.021146 0.010904 0.000991
56 25.09804 12.54902 0.0 0.026311 0.021233 0.002713
57 25.09804 25.09804 0.0 0.039479 0.047569 0.007102
58 25.09804 37.64706 0.0 0.062972 0.094555 0.014933
59 25.09804 50.19608 0.0 0.098333 0.165277 0.02672
60 25.09804 62.7451 0.0 0.146846 0.262303 0.042891
61 25.09804 75.29412 0.0 0.20963 0.387871 0.063819
62 25.09804 87.84314 0.0 0.287685 0.543981 0.089837
63 25.09804 100.0 0.0 0.378723 0.726056 0.120183
64 25.09804 0.0 12.54902 0.023753 0.011946 0.014717
65 25.09804 12.54902 12.54902 0.028917 0.022276 0.016439
66 25.09804 25.09804 12.54902 0.042085 0.048612 0.020828
67 25.09804 37.64706 12.54902 0.065579 0.095598 0.028659
68 25.09804 50.19608 12.54902 0.100939 0.166319 0.040446
69 25.09804 62.7451 12.54902 0.149452 0.263345 0.056617
70 25.09804 75.29412 12.54902 0.212236 0.388914 0.077545
71 25.09804 87.84314 12.54902 0.290291 0.545024 0.103564
72 25.09804 100.0 12.54902 0.381329 0.727098 0.133909
73 25.09804 0.0 25.09804 0.030397 0.014604 0.049713
74 25.09804 12.54902 25.09804 0.035562 0.024934 0.051434
75 25.09804 25.09804 25.09804 0.04873 0.051269 0.055824
76 25.09804 37.64706 25.09804 0.072223 0.098256 0.063655
77 25.09804 50.19608 25.09804 0.107584 0.168977 0.075442
78 25.09804 62.7451 25.09804 0.156097 0.266003 0.091613
79 25.09804 75.29412 25.09804 0.218881 0.391572 0.112541
80 25.09804 87.84314 25.09804 0.296936 0.547681 0.138559
81 25.09804 100.0 25.09804 0.387973 0.729756 0.168905
82 37.64706 0.0 0.0 0.048245 0.024876 0.002261
83 37.64706 12.54902 0.0 0.05341 0.035206 0.003983
84 37.64706 25.09804 0.0 0.066578 0.061542 0.008372
85 37.64706 37.64706 0.0 0.090071 0.108528 0.016203
86 37.64706 50.19608 0.0 0.125432 0.17925 0.02799
87 37.64706 62.7451 0.0 0.173945 0.276276 0.044161
88 37.64706 75.29412 0.0 0.236729 0.401844 0.065089
89 37.64706 87.84314 0.0 0.314784 0.557954 0.091108
90 37.64706 100.0 0.0 0.405821 0.740029 0.121453
91 37.64706 0.0 12.54902 0.050852 0.025919 0.015988
92 37.64706 12.54902 12.54902 0.056016 0.036249 0.017709
93 37.64706 25.09804 12.54902 0.069184 0.062584 0.022098
94 37.64706 37.64706 12.54902 0.092677 0.109571 0.02993
95 37.64706 50.19608 12.54902 0.128038 0.180292 0.041716
96 37.64706 62.7451 12.54902 0.176551 0.277318 0.057887
97 37.64706 75.29412 12.54902 0.239335 0.402887 0.078815
98 37.64706 87.84314 12.54902 0.31739 0.558996 0.104834
99 37.64706 100.0 12.54902 0.408428 0.741071 0.13518
100 37.64706 0.0 25.09804 0.057496 0.028577 0.050983
101 37.64706 12.54902 25.09804 0.062661 0.038906 0.052705
102 37.64706 25.09804 25.09804 0.075829 0.065242 0.057094
103 37.64706 37.64706 25.09804 0.099322 0.112229 0.064925
104 37.64706 50.19608 25.09804 0.134683 0.18295 0.076712
105 37.64706 62.7451 25.09804 0.183196 0.279976 0.092883
106 37.64706 75.29412 25.09804 0.24598 0.405544 0.113811
107 37.64706 87.84314 25.09804 0.324035 0.561654 0.139829
108 37.64706 100.0 25.09804 0.415072 0.743729 0.170175
109 50.19608 0.0 0.0 0.089033 0.045908 0.004173
110 50.19608 12.54902 0.0 0.094198 0.056237 0.005895
111 50.19608 25.09804 0.0 0.107366 0.082573 0.010284
112 50.19608 37.64706 0.0 0.130859 0.12956 0.018115
113 50.19608 50.19608 0.0 0.16622 0.200281 0.029902
114 50.19608 62.7451 0.0 0.214733 0.297307 0.046073
115 50.19608 75.29412 0.0 0.277517 0.422875 0.067001
116 50.19608 87.84314 0.0 0.355572 0.578985 0.09302
117 50.19608 100.0 0.0 0.446609 0.76106 0.123365
118 50.19608 0.0 12.54902 0.091639 0.04695 0.017899
119 50.19608 12.54902 12.54902 0.096804 0.05728 0.019621
120 50.19608 25.09804 12.54902 0.109972 0.083616 0.02401
121 50.19608 37.64706 12.54902 0.133465 0.130602 0.031841
122 50.19608 50.19608 12.54902 0.168826 0.201323 0.043628
123 50.19608 62.7451 12.54902 0.217339 0.298349 0.059799
124 50.19608 75.29412 12.54902 0.280123 0.423918 0.080727
125 50.19608 87.84314 12.54902 0.358178 0.580028 0.106746
126 50.19608 100.0 12.54902 0.449215 0.762102 0.137091
127 50.19608 0.0 25.09804 0.098284 0.049608 0.052895
128 50.19608 12.54902 25.09804 0.103449 0.059938 0.054617
129 50.19608 25.09804 25.09804 0.116617 0.086274 0.059006
130 50.19608 37.64706 25.09804 0.14011 0.13326 0.066837
131 50.19608 50.19608 25.09804 0.175471 0.203981 0.078624
132 50.19608 62.7451 25.09804 0.223984 0.301007 0.094795
133 50.19608 75.29412 25.09804 0.286768 0.426576 0.115723
134 50.19608 87.84314 25.09804 0.364823 0.582686 0.141741
135 50.19608 100.0 25.09804 0.45586 0.76476 0.172087
136 62.7451 0.0 0.0 0.144992 0.074761 0.006796
137 62.7451 12.54902 0.0 0.150157 0.085091 0.008518
138 62.7451 25.09804 0.0 0.163325 0.111427 0.012907
139 62.7451 37.64706 0.0 0.186818 0.158413 0.020738
140 62.7451 50.19608 0.0 0.222178 0.229135 0.032525
141 62.7451 62.7451 0.0 0.270692 0.326161 0.048696
142 62.7451 75.29412 0.0 0.333476 0.451729 0.069624
143 62.7451 87.84314 0.0 0.411531 0.607839 0.095643
144 62.7451 100.0 0.0 0.502568 0.789914 0.125988
145 62.7451 0.0 12.54902 0.147598 0.075804 0.020523
146 62.7451 12.54902 12.54902 0.152763 0.086133 0.022244
147 62.7451 25.09804 12.54902 0.165931 0.112469 0.026633
148 62.7451 37.64706 12.54902 0.189424 0.159456 0.034465
149 62.7451 50.19608 12.54902 0.224785 0.230177 0.046251
150 62.7451 62.7451 12.54902 0.273298 0.327203 0.062422
151 62.7451 75.29412 12.54902 0.336082 0.452772 0.08335
152 62.7451 87.84314 12.54902 0.414137 0.608881 0.109369
153 62.7451 100.0 12.54902 0.505174 0.790956 0.139715
154 62.7451 0.0 25.09804 0.154243 0.078462 0.055518
155 62.7451 12.54902 25.09804 0.159408 0.088791 0.05724
156 62.7451 25.09804 25.09804 0.172576 0.115127 0.061629
157 62.7451 37.64706 25.09804 0.196069 0.162114 0.06946
158 62.7451 50.19608 25.09804 0.231429 0.232835 0.081247
159 62.7451 62.7451 25.09804 0.279942 0.329861 0.097418
160 62.7451 75.29412 25.09804 0.342727 0.455429 0.118346
161 62.7451 87.84314 25.09804 0.420782 0.611539 0.144364
162 62.7451 100.0 25.09804 0.511819 0.793614 0.17471
163 75.29412 0.0 0.0 0.217412 0.112103 0.010191
164 75.29412 12.54902 0.0 0.222577 0.122433 0.011913
165 75.29412 25.09804 0.0 0.235745 0.148769 0.016302
166 75.29412 37.64706 0.0 0.259238 0.195755 0.024133
167 75.29412 50.19608 0.0 0.294599 0.266476 0.03592
168 75.29412 62.7451 0.0 0.343112 0.363502 0.052091
169 75.29412 75.29412 0.0 0.405896 0.489071 0.073019
170 75.29412 87.84314 0.0 0.483951 0.645181 0.099037
171 75.29412 100.0 0.0 0.574988 0.827255 0.129383
172 75.29412 0.0 12.54902 0.220018 0.113146 0.023917
173 75.29412 12.54902 12.54902 0.225183 0.123475 0.025639
174 75.29412 25.09804 12.54902 0.238351 0.149811 0.030028
175 75.29412 37.64706 12.54902 0.261844 0.196797 0.037859
176 75.29412 50.19608 12.54902 0.297205 0.267519 0.049646
177 75.29412 62.7451 12.54902 0.345718 0.364545 0.065817
178 75.29412 75.29412 12.54902 0.408502 0.490113 0.086745
179 75.29412 87.84314 12.54902 0.486557 0.646223 0.112763
180 75.29412 100.0 12.54902 0.577594 0.828298 0.143109
181 75.29412 0.0 25.09804 0.226663 0.115803 0.058913
182 75.29412 12.54902 25.09804 0.231828 0.126133 0.060634
183 75.29412 25.09804 25.09804 0.244996 0.152469 0.065024
184 75.29412 37.64706 25.09804 0.268489 0.199455 0.072855
185 75.29412 50.19608 25.09804 0.30385 0.270177 0.084642
186 75.29412 62.7451 25.09804 0.352363 0.367203 0.100813
187 75.29412 75.29412 25.09804 0.415147 0.492771 0.121741
188 75.29412 87.84314 25.09804 0.493202 0.648881 0.147759
189 75.29412 100.0 25.09804 0.584239 0.830956 0.178105
190 87.84314 0.0 0.0 0.307447 0.158527 0.014412
191 87.84314 12.54902 0.0 0.312612 0.168857 0.016133
192 87.84314 25.09804 0.0 0.325779 0.195193 0.020522
193 87.84314 37.64706 0.0 0.349273 0.242179 0.028354
194 87.84314 50.19608 0.0 0.384633 0.3129 0.04014
195 87.84314 62.7451 0.0 0.433146 0.409927 0.056311
196 87.84314 75.29412 0.0 0.495931 0.535495 0.077239
197 87.84314 87.84314 0.0 0.573986 0.691605 0.103258
198 87.84314 100.0 0.0 0.665023 0.873679 0.133604
199 87.84314 0.0 12.54902 0.310053 0.15957 0.028138
200 87.84314 12.54902 12.54902 0.315218 0.169899 0.029859
201 87.84314 25.09804 12.54902 0.328386 0.196235 0.034249
202 87.84314 37.64706 12.54902 0.351879 0.243222 0.04208
203 87.84314 50.19608 12.54902 0.38724 0.313943 0.053866
204 87.84314 62.7451 12.54902 0.435753 0.410969 0.070037
205 87.84314 75.29412 12.54902 0.498537 0.536537 0.090966
206 87.84314 87.84314 12.54902 0.576592 0.692647 0.116984
207 87.84314 100.0 12.54902 0.667629 0.874722 0.14733
208 87.84314 0.0 25.09804 0.316698 0.162228 0.063133
209 87.84314 12.54902 25.09804 0.321862 0.172557 0.064855
210 87.84314 25.09804 25.09804 0.33503 0.198893 0.069244
211 87.84314 37.64706 25.09804 0.358524 0.245879 0.077075
212 87.84314 50.19608 25.09804 0.393884 0.316601 0.088862
213 87.84314 62.7451 25.09804 0.442397 0.413627 0.105033
214 87.84314 75.29412 25.09804 0.505181 0.539195 0.125961
215 87.84314 87.84314 25.09804 0.583236 0.695305 0.151979
216 87.84314 100.0 25.09804 0.674274 0.87738 0.182325
217 100.0 0.0 0.0 0.412456 0.212673 0.019334
218 100.0 12.54902 0.0 0.417621 0.223002 0.021055
219 100.0 25.09804 0.0 0.430789 0.249338 0.025445
220 100.0 37.64706 0.0 0.454282 0.296325 0.033276
221 100.0 50.19608 0.0 0.489643 0.367046 0.045063
222 100.0 62.7451 0.0 0.538156 0.464072 0.061234
223 100.0 75.29412 0.0 0.60094 0.58964 0.082162
224 100.0 87.84314 0.0 0.678995 0.74575 0.10818
225 100.0 100.0 0.0 0.770033 0.927825 0.138526
226 100.0 0.0 12.54902 0.415063 0.213715 0.03306
227 100.0 12.54902 12.54902 0.420227 0.224045 0.034782
228 100.0 25.09804 12.54902 0.433395 0.250381 0.039171
229 100.0 37.64706 12.54902 0.456889 0.297367 0.047002
230 100.0 50.19608 12.54902 0.492249 0.368089 0.058789
231 100.0 62.7451 12.54902 0.540762 0.465115 0.07496
232 100.0 75.29412 12.54902 0.603546 0.590683 0.095888
233 100.0 87.84314 12.54902 0.681601 0.746793 0.121906
234 100.0 100.0 12.54902 0.772639 0.928868 0.152252
235 100.0 0.0 25.09804 0.421707 0.216373 0.068055
236 100.0 12.54902 25.09804 0.426872 0.226703 0.069777
237 100.0 25.09804 25.09804 0.44004 0.253039 0.074166
238 100.0 37.64706 25.09804 0.463533 0.300025 0.081997
239 100.0 50.19608 25.09804 0.498894 0.370746 0.093784
240 100.0 62.7451 25.09804 0.547407 0.467773 0.109955
241 100.0 75.29412 25.09804 0.610191 0.593341 0.130883
242 100.0 87.84314 25.09804 0.688246 0.749451 0.156902
243 100.0 100.0 25.09804 0.779283 0.931525 0.187247
244 0.0 0.0 37.64706 0.021106 0.008442 0.111158
245 0.0 12.54902 37.64706 0.026271 0.018772 0.112879
246 0.0 25.09804 37.64706 0.039439 0.045108 0.117269
247 0.0 37.64706 37.64706 0.062932 0.092094 0.1251
248 0.0 50.19608 37.64706 0.098292 0.162815 0.136887
249 0.0 62.7451 37.64706 0.146806 0.259842 0.153058
250 0.0 75.29412 37.64706 0.20959 0.38541 0.173986
251 0.0 87.84314 37.64706 0.287645 0.54152 0.200004
252 0.0 100.0 37.64706 0.378682 0.723595 0.23035
253 0.0 0.0 50.19608 0.038949 0.01558 0.205133
254 0.0 12.54902 50.19608 0.044114 0.025909 0.206855
255 0.0 25.09804 50.19608 0.057282 0.052245 0.211244
256 0.0 37.64706 50.19608 0.080775 0.099232 0.219075
257 0.0 50.19608 50.19608 0.116136 0.169953 0.230862
258 0.0 62.7451 50.19608 0.164649 0.266979 0.247033
259 0.0 75.29412 50.19608 0.227433 0.392547 0.267961
260 0.0 87.84314 50.19608 0.305488 0.548657 0.293979
261 0.0 100.0 50.19608 0.396525 0.730732 0.324325
262 0.0 0.0 62.7451 0.06343 0.025372 0.334063
263 0.0 12.54902 62.7451 0.068594 0.035701 0.335784
264 0.0 25.09804 62.7451 0.081762 0.062037 0.340174
265 0.0 37.64706 62.7451 0.105256 0.109024 0.348005
266 0.0 50.19608 62.7451 0.140616 0.179745 0.359792
267 0.0 62.7451 62.7451 0.189129 0.276771 0.375963
268 0.0 75.29412 62.7451 0.251913 0.402339 0.396891
269 0.0 87.84314 62.7451 0.329968 0.558449 0.422909
270 0.0 100.0 62.7451 0.421006 0.740524 0.453255
271 12.54902 0.0 37.64706 0.027063 0.011514 0.111437
272 12.54902 12.54902 37.64706 0.032228 0.021844 0.113159
273 12.54902 25.09804 37.64706 0.045396 0.04818 0.117548
274 12.54902 37.64706 37.64706 0.068889 0.095166 0.125379
275 12.54902 50.19608 37.64706 0.10425 0.165887 0.137166
276 12.54902 62.7451 37.64706 0.152763 0.262914 0.153337
277 12.54902 75.29412 37.64706 0.215547 0.388482 0.174265
278 12.54902 87.84314 37.64706 0.293602 0.544592 0.200283
279 12.54902 100.0 37.64706 0.384639 0.726666 0.230629
280 12.54902 0.0 50.19608 0.044907 0.018652 0.205412
281 12.54902 12.54902 50.19608 0.050072 0.028981 0.207134
282 12.54902 25.09804 50.19608 0.06324 0.055317 0.211523
283 12.54902 37.64706 50.19608 0.086733 0.102303 0.219354
284 12.54902 50.19608 50.19608 0.122093 0.173025 0.231141
285 12.54902 62.7451 50.19608 0.170606 0.270051 0.247312
286 12.54902 75.29412 50.19608 0.233391 0.395619 0.26824
287 12.54902 87.84314 50.19608 0.311446 0.551729 0.294259
288 12.54902 100.0 50.19608 0.402483 0.733804 0.324604
289 12.54902 0.0 62.7451 0.069387 0.028444 0.334342
290 12.54902 12.54902 62.7451 0.074552 0.038773 0.336064
291 12.54902 25.09804 62.7451 0.08772 0.065109 0.340453
292 12.54902 37.64706 62.7451 0.111213 0.112096 0.348284
293 12.54902 50.19608 62.7451 0.146574 0.182817 0.360071
294 12.54902 62.7451 62.7451 0.195087 0.279843 0.376242
295 12.54902 75.29412 62.7451 0.257871 0.405411 0.39717
296 12.54902 87.84314 62.7451 0.335926 0.561521 0.423188
297 12.54902 100.0 62.7451 0.426963 0.743596 0.453534
298 25.09804 0.0 37.64706 0.042252 0.019346 0.112149
299 25.09804 12.54902 37.64706 0.047417 0.029676 0.113871
300 25.09804 25.09804 37.64706 0.060585 0.056011 0.11826
301 25.09804 37.64706 37.64706 0.084078 0.102998 0.126091
302 25.09804 50.19608 37.64706 0.119439 0.173719 0.137878
303 25.09804 62.7451 37.64706 0.167952 0.270745 0.154049
304 25.09804 75.29412 37.64706 0.230736 0.396314 0.174977
305 25.09804 87.84314 37.64706 0.308791 0.552423 0.200995
306 25.09804 100.0 37.64706 0.399828 0.734498 0.231341
307 25.09804 0.0 50.19608 0.060096 0.026483 0.206124
308 25.09804 12.54902 50.19608 0.065261 0.036813 0.207846
309 25.09804 25.09804 50.19608 0.078428 0.063149 0.212235
310 25.09804 37.64706 50.19608 0.101922 0.110135 0.220066
311 25.09804 50.19608 50.19608 0.137282 0.180856 0.231853
312 25.09804 62.7451 50.19608 0.185795 0.277883 0.248024
313 25.09804 75.29412 50.19608 0.24858 0.403451 0.268952
314 25.09804 87.84314 50.19608 0.326634 0.559561 0.294971
315 25.09804 100.0 50.19608 0.417672 0.741636 0.325316
316 25.09804 0.0 62.7451 0.084576 0.036275 0.335054
317 25.09804 12.54902 62.7451 0.089741 0.046605 0.336776
318 25.09804 25.09804 62.7451 0.102909 0.072941 0.341165
319 25.09804 37.64706 62.7451 0.126402 0.119927 0.348996
320 25.09804 50.19608 62.7451 0.161763 0.190649 0.360783
321 25.09804 62.7451 62.7451 0.210276 0.287675 0.376954
322 25.09804 75.29412 62.7451 0.27306 0.413243 0.397882
323 25.09804 87.84314 62.7451 0.351115 0.569353 0.4239
324 25.09804 100.0 62.7451 0.442152 0.751428 0.454246
325 37.64706 0.0 37.64706 0.069351 0.033319 0.113419
326 37.64706 12.54902 37.64706 0.074516 0.043648 0.115141
327 37.64706 25.09804 37.64706 0.087684 0.069984 0.11953
328 37.64706 37.64706 37.64706 0.111177 0.116971 0.127361
329 37.64706 50.19608 37.64706 0.146538 0.187692 0.139148
330 37.64706 62.7451 37.64706 0.195051 0.284718 0.155319
331 37.64706 75.29412 37.64706 0.257835 0.410286 0.176247
332 37.64706 87.84314 37.64706 0.33589 0.566396 0.202265
333 37.64706 100.0 37.64706 0.426927 0.748471 0.232611
334 37.64706 0.0 50.19608 0.087195 0.040456 0.207395
335 37.64706 12.54902 50.19608 0.092359 0.050786 0.209116
336 37.64706 25.09804 50.19608 0.105527 0.077122 0.213506
337 37.64706 37.64706 50.19608 0.129021 0.124108 0.221337
338 37.64706 50.19608 50.19608 0.164381 0.194829 0.233123
339 37.64706 62.7451 50.19608 0.212894 0.291856 0.249295
340 37.64706 75.29412 50.19608 0.275678 0.417424 0.270223
341 37.64706 87.84314 50.19608 0.353733 0.573534 0.296241
342 37.64706 100.0 50.19608 0.444771 0.755608 0.326587
343 37.64706 0.0 62.7451 0.111675 0.050248 0.336324
344 37.64706 12.54902 62.7451 0.11684 0.060578 0.338046
345 37.64706 25.09804 62.7451 0.130008 0.086914 0.342435
346 37.64706 37.64706 62.7451 0.153501 0.1339 0.350266
347 37.64706 50.19608 62.7451 0.188862 0.204621 0.362053
348 37.64706 62.7451 62.7451 0.237375 0.301648 0.378224
349 37.64706 75.29412 62.7451 0.300159 0.427216 0.399152
350 37.64706 87.84314 62.7451 0.378214 0.583326 0.425171
351 37.64706 100.0 62.7451 0.469251 0.765401 0.455516
352 50.19608 0.0 37.64706 0.110139 0.05435 0.115331
353 50.19608 12.54902 37.64706 0.115304 0.06468 0.117053
354 50.19608 25.09804 37.64706 0.128472 0.091016 0.121442
355 50.19608 37.64706 37.64706 0.151965 0.138002 0.129273
356 50.19608 50.19608 37.64706 0.187326 0.208723 0.14106
357 50.19608 62.7451 37.64706 0.235839 0.305749 0.157231
358 50.19608 75.29412 37.64706 0.298623 0.431318 0.178159
359 50.19608 87.84314 37.64706 0.376678 0.587428 0.204177
360 50.19608 100.0 37.64706 0.467715 0.769502 0.234523
361 50.19608 0.0 50.19608 0.127982 0.061487 0.209307
362 50.19608 12.54902 50.19608 0.133147 0.071817 0.211028
363 50.19608 25.09804 50.19608 0.146315 0.098153 0.215417
364 50.19608 37.64706 50.19608 0.169808 0.145139 0.223249
365 50.19608 50.19608 50.19608 0.205169 0.215861 0.235035
366 50.19608 62.7451 50.19608 0.253682 0.312887 0.251206
367 50.19608 75.29412 50.19608 0.316466 0.438455 0.272134
368 50.19608 87.84314 50.19608 0.394521 0.594565 0.298153
369 50.19608 100.0 50.19608 0.485558 0.77664 0.328499
370 50.19608 0.0 62.7451 0.152463 0.07128 0.338236
371 50.19608 12.54902 62.7451 0.157627 0.081609 0.339958
372 50.19608 25.09804 62.7451 0.170795 0.107945 0.344347
373 50.19608 37.64706 62.7451 0.194289 0.154931 0.352178
374 50.19608 50.19608 62.7451 0.229649 0.225653 0.363965
375 50.19608 62.7451 62.7451 0.278162 0.322679 0.380136
376 50.19608 75.29412 62.7451 0.340947 0.448247 0.401064
377 50.19608 87.84314 62.7451 0.419001 0.604357 0.427083
378 50.19608 100.0 62.7451 0.510039 0.786432 0.457428
379 62.7451 0.0 37.64706 0.166098 0.083204 0.117954
380 62.7451 12.54902 37.64706 0.171263 0.093533 0.119676
381 62.7451 25.09804 37.64706 0.184431 0.119869 0.124065
382 62.7451 37.64706 37.64706 0.207924 0.166856 0.131896
383 62.7451 50.19608 37.64706 0.243284 0.237577 0.143683
384 62.7451 62.7451 37.64706 0.291797 0.334603 0.159854
385 62.7451 75.29412 37.64706 0.354582 0.460171 0.180782
386 62.7451 87.84314 37.64706 0.432637 0.616281 0.2068
387 62.7451 100.0 37.64706 0.523674 0.798356 0.237146
388 62.7451 0.0 50.19608 0.183941 0.090341 0.21193
389 62.7451 12.54902 50.19608 0.189106 0.100671 0.213651
390 62.7451 25.09804 50.19608 0.202274 0.127007 0.218041
391 62.7451 37.64706 50.19608 0.225767 0.173993 0.225872
392 62.7451 50.19608 50.19608 0.261128 0.244714 0.237658
393 62.7451 62.7451 50.19608 0.309641 0.341741 0.25383
394 62.7451 75.29412 50.19608 0.372425 0.467309 0.274758
395 62.7451 87.84314 50.19608 0.45048 0.623419 0.300776
396 62.7451 100.0 50.19608 0.541517 0.805493 0.331122
397 62.7451 0.0 62.7451 0.208422 0.100133 0.340859
398 62.7451 12.54902 62.7451 0.213586 0.110463 0.342581
399 62.7451 25.09804 62.7451 0.226754 0.136799 0.34697
400 62.7451 37.64706 62.7451 0.250247 0.183785 0.354801
401 62.7451 50.19608 62.7451 0.285608 0.254506 0.366588
402 62.7451 62.7451 62.7451 0.334121 0.351533 0.382759
403 62.7451 75.29412 62.7451 0.396905 0.477101 0.403687
404 62.7451 87.84314 62.7451 0.47496 0.633211 0.429706
405 62.7451 100.0 62.7451 0.565998 0.815286 0.460051
406 75.29412 0.0 37.64706 0.238518 0.120545 0.121349
407 75.29412 12.54902 37.64706 0.243683 0.130875 0.12307
408 75.29412 25.09804 37.64706 0.256851 0.157211 0.12746
409 75.29412 37.64706 37.64706 0.280344 0.204197 0.135291
410 75.29412 50.19608 37.64706 0.315704 0.274919 0.147078
411 75.29412 62.7451 37.64706 0.364218 0.371945 0.163249
412 75.29412 75.29412 37.64706 0.427002 0.497513 0.184177
413 75.29412 87.84314 37.64706 0.505057 0.653623 0.210195
414 75.29412 100.0 37.64706 0.596094 0.835698 0.240541
415 75.29412 0.0 50.19608 0.256361 0.127683 0.215324
416 75.29412 12.54902 50.19608 0.261526 0.138012 0.217046
417 75.29412 25.09804 50.19608 0.274694 0.164348 0.221435
418 75.29412 37.64706 50.19608 0.298187 0.211335 0.229266
419 75.29412 50.19608 50.19608 0.333548 0.282056 0.241053
420 75.29412 62.7451 50.19608 0.382061 0.379082 0.257224
421 75.29412 75.29412 50.19608 0.444845 0.50465 0.278152
422 75.29412 87.84314 50.19608 0.5229 0.66076 0.304171
423 75.29412 100.0 50.19608 0.613937 0.842835 0.334516
424 75.29412 0.0 62.7451 0.280842 0.137475 0.344254
425 75.29412 12.54902 62.7451 0.286006 0.147805 0.345976
